%
(Header)
(Generated by gcodetools from Inkscape.)
(Using default header. To add your own header create file "header" in the output dir.)
M3
(Header end.)
G21 (All units in mm)

(Start cutting path id: path3724)
(Change tool to Cylindrical cutter)

G00 Z5.000000
G00 X128.408940 Y108.699910

G01 Z0.000000 F100.0(Penetrate)
G03 X128.325545 Y109.981552 Z0.000000 I-9.890054 J-0.000000 F400.000000
G03 X128.153151 Y110.515521 Z0.000000 I-1.534189 J-0.200505
G03 X127.787492 Y110.856996 Z0.000000 I-0.689612 J-0.371937
G03 X127.173920 Y110.989780 Z0.000000 I-0.613572 J-1.351215
G02 X126.169538 Y111.380460 Z0.000000 I0.000000 J1.486400
G02 X124.675180 Y113.280210 Z0.000000 I5.052421 J5.511885
G01 X123.411470 Y115.570620 Z0.000000
G01 X122.194440 Y113.255150 Z0.000000
G01 X120.977410 Y110.939670 Z0.000000
G01 X115.141580 Y111.128290 Z0.000000
G01 X109.305750 Y111.316910 Z0.000000
G01 X109.305750 Y121.130650 Z0.000000
G01 X109.305750 Y130.944400 Z0.000000
G01 X113.830190 Y131.137850 Z0.000000
G02 X116.761313 Y131.202296 Z0.000000 I3.018371 J-70.592755
G02 X117.643804 Y131.096260 Z0.000000 I0.004553 J-3.687427
G02 X118.041888 Y130.925370 Z0.000000 I-0.313803 J-1.280104
G02 X118.229459 Y130.729379 Z0.000000 I-0.312353 J-0.486686
G02 X118.323661 Y130.458958 Z0.000000 I-0.650372 J-0.378179
G02 X118.354630 Y130.028760 Z0.000000 I-2.972554 J-0.430198
G02 X118.201733 Y129.366214 Z0.000000 I-1.511945 J-0.000000
G02 X117.761597 Y128.931686 Z0.000000 I-0.837787 J0.408428
G02 X117.068046 Y128.723066 Z0.000000 I-1.043596 J2.212246
G02 X115.170760 Y128.526810 Z0.000000 I-3.368706 J23.297613
G01 X111.986900 Y128.327400 Z0.000000
G01 X111.986900 Y125.710400 Z0.000000
G01 X111.986900 Y123.093400 Z0.000000
G01 X115.003190 Y122.766280 Z0.000000
G02 X116.537259 Y122.522415 Z0.000000 I-1.688437 J-15.568470
G02 X117.293338 Y122.281650 Z0.000000 I-0.809533 J-3.849727
G02 X117.868120 Y121.861425 Z0.000000 I-0.643522 J-1.483411
G02 X118.019480 Y121.457780 Z0.000000 I-0.462536 J-0.403645
G02 X117.863780 Y121.049527 Z0.000000 I-0.613078 J-0.000000
G02 X117.287215 Y120.656249 Z0.000000 I-1.079904 J0.963916
G02 X116.516309 Y120.456962 Z0.000000 I-1.357319 J3.659847
G02 X114.835620 Y120.276990 Z0.000000 I-2.878343 J18.942122
G01 X111.651750 Y120.077590 Z0.000000
G01 X111.651750 Y117.169310 Z0.000000
G01 X111.651750 Y114.261030 Z0.000000
G01 X114.628490 Y114.261030 Z0.000000
G02 X115.892763 Y114.196079 Z0.000000 I-0.000000 J-12.337013
G02 X116.871210 Y114.039294 Z0.000000 I-0.903453 J-8.769652
G02 X117.807810 Y113.740307 Z0.000000 I-1.119363 J-5.122975
G02 X118.083190 Y113.506180 Z0.000000 I-0.238446 J-0.559475
G03 X118.530906 Y113.467285 Z0.000000 I0.238676 J0.151120
G03 X120.122030 Y115.749160 Z0.000000 I-8.009650 J7.280707
G01 X121.682920 Y118.746990 Z0.000000
G01 X120.026850 Y121.574440 Z0.000000
G02 X118.649364 Y124.098060 Z0.000000 I41.071929 J24.056338
G02 X118.472516 Y124.790027 Z0.000000 I1.464471 J0.742862
G02 X118.566868 Y125.092337 Z0.000000 I0.483452 J0.014991
G02 X118.820984 Y125.279830 Z0.000000 I0.431101 J-0.318333
G02 X119.188045 Y125.356376 Z0.000000 I0.474038 J-1.354800
G02 X119.908740 Y125.383270 Z0.000000 I0.720695 J-9.642929
G02 X120.671631 Y125.255621 Z0.000000 I0.000000 J-2.343518
G02 X121.338535 Y124.883196 Z0.000000 I-0.703257 J-2.042656
G02 X121.874506 Y124.307622 Z0.000000 I-1.866967 J-2.275841
G02 X122.490470 Y123.265360 Z0.000000 I-6.030881 J-4.267321
G01 X123.518090 Y121.147430 Z0.000000
G01 X124.640150 Y123.265360 Z0.000000
G02 X125.374781 Y124.420704 Z0.000000 I7.648832 J-4.052311
G02 X125.965336 Y124.970700 Z0.000000 I1.846908 J-1.391059
G02 X126.705841 Y125.270037 Z0.000000 I1.147266 J-1.772516
G02 X127.923440 Y125.390480 Z0.000000 I1.239036 J-6.311081
G03 X130.077253 Y125.488185 Z0.000000 I-0.086464 J25.694155
G03 X132.548990 Y125.795410 Z0.000000 I-2.986989 J34.128069
G02 X134.002448 Y125.927148 Z0.000000 I1.671319 J-10.355721
G02 X134.875600 Y125.805410 Z0.000000 I0.057713 J-2.778212
G02 X135.662574 Y125.414055 Z0.000000 I-0.791560 J-2.578684
G02 X136.738290 Y124.509450 Z0.000000 I-5.556295 J-7.699197
G02 X137.654986 Y123.434131 Z0.000000 I-5.396922 J-5.529202
G02 X138.161140 Y122.386074 Z0.000000 I-2.904558 J-2.048993
G02 X138.375381 Y121.188852 Z0.000000 I-5.394524 J-1.583122
G02 X138.463250 Y118.631620 Z0.000000 I-37.167393 J-2.557232
G02 X138.047091 Y114.689037 Z0.000000 I-18.883576 J0.000000
G02 X137.192100 Y112.692821 Z0.000000 I-5.498659 J1.173901
G02 X136.453937 Y111.883115 Z0.000000 I-3.237684 J2.210286
G02 X135.591927 Y111.368045 Z0.000000 I-2.103477 J2.541481
G02 X134.609806 Y111.120992 Z0.000000 I-1.371610 J3.376971
G02 X133.338700 Y111.125060 Z0.000000 I-0.617183 J5.742603
G03 X131.852764 Y111.208973 Z0.000000 I-1.477593 J-12.966860
G03 X131.388352 Y111.017599 Z0.000000 I0.000422 J-0.660211
G03 X131.167404 Y110.550143 Z0.000000 I0.533529 J-0.538124
G03 X131.090090 Y108.895660 Z0.000000 I17.663911 J-1.654483
G02 X131.008008 Y107.438791 Z0.000000 I-12.970055 J0.000000
G02 X130.834302 Y106.884306 Z0.000000 I-1.520482 J0.171877
G02 X130.450982 Y106.543731 Z0.000000 I-0.658511 J0.355157
G02 X129.749510 Y106.410040 Z0.000000 I-0.701472 J1.773453
G02 X129.050699 Y106.539053 Z0.000000 I0.000000 J1.957098
G02 X128.672268 Y106.859837 Z0.000000 I0.267085 J0.698693
G02 X128.493765 Y107.382479 Z0.000000 I1.196429 J0.700432
G02 X128.408940 Y108.699910 Z0.000000 I10.188255 J1.317431
G01 X128.408940 Y108.699910 Z0.000000
G00 Z5.000000

(End cutting path id: path3724)


(Start cutting path id: path3724)
(Change tool to Cylindrical cutter)

G00 Z5.000000
G00 X110.796960 Y118.992620

G01 Z0.000000 F100.0(Penetrate)
G03 X110.725059 Y119.424382 Z0.000000 I-5.593186 J-0.709565 F400.000000
G03 X110.691103 Y119.513033 Z0.000000 I-0.288292 J-0.059594
G01 X110.657529 Y119.512358 Z0.000000
G03 X110.603387 Y119.349492 Z0.000000 I0.457195 J-0.242416
G03 X110.554529 Y118.852215 Z0.000000 I4.379491 J-0.681335
G03 X110.518880 Y117.205160 Z0.000000 I41.362082 J-1.719150
G03 X110.547194 Y115.553223 Z0.000000 I43.501451 J-0.080594
G03 X110.595644 Y114.957842 Z0.000000 I6.625200 J0.239469
G03 X110.652658 Y114.696536 Z0.000000 I1.499962 J0.190404
G01 X110.682650 Y114.682834 Z0.000000
G03 X110.713437 Y114.717988 Z0.000000 I-0.021827 J0.050173
G03 X110.790120 Y115.067130 Z0.000000 I-2.780099 J0.793594
G03 X110.930049 Y116.856545 Z0.000000 I-11.634569 J1.809980
G03 X110.797120 Y118.992620 Z0.000000 I-16.758748 J0.029269
G01 X110.796960 Y118.992620 Z0.000000
G00 Z5.000000

(End cutting path id: path3724)


(Start cutting path id: path3724)
(Change tool to Cylindrical cutter)

G00 Z5.000000
G00 X128.388020 Y118.677220

G01 Z0.000000 F100.0(Penetrate)
G01 X128.367120 Y123.747650 Z0.000000 F400.000000
G01 X126.742790 Y121.166810 Z0.000000
G01 X125.118470 Y118.585960 Z0.000000
G01 X126.552000 Y116.096370 Z0.000000
G03 X128.035741 Y113.693632 Z0.000000 I39.785972 J22.909179
G03 X128.197240 Y113.606780 Z0.000000 I0.161499 J0.106726
G03 X128.247242 Y113.652401 Z0.000000 I0.000000 J0.050212
G03 X128.340621 Y115.096222 Z0.000000 I-26.712139 J2.452546
G03 X128.377364 Y116.519111 Z0.000000 I-60.289381 J2.268763
G03 X128.388040 Y118.677220 Z0.000000 I-118.908166 J1.667294
G01 X128.388020 Y118.677220 Z0.000000
G00 Z5.000000

(End cutting path id: path3724)


(Start cutting path id: path3724)
(Change tool to Cylindrical cutter)

G00 Z5.000000
G00 X135.088230 Y114.872270

G01 Z0.000000 F100.0(Penetrate)
G03 X135.615089 Y116.255706 Z0.000000 I-4.729376 J2.593145 F400.000000
G03 X135.824608 Y117.847433 Z0.000000 I-8.218382 J1.891441
G03 X135.743476 Y119.469989 Z0.000000 I-9.505176 J0.338023
G03 X135.430716 Y120.864577 Z0.000000 I-8.325840 J-1.134844
G03 X134.855315 Y122.157471 Z0.000000 I-5.985851 J-1.889511
G03 X134.255416 Y122.818533 Z0.000000 I-1.887769 J-1.110378
G03 X133.544841 Y123.015807 Z0.000000 I-0.619077 J-0.851529
G03 X132.647570 Y122.604130 Z0.000000 I0.127509 J-1.461575
G03 X131.999933 Y121.690180 Z0.000000 I2.172927 J-2.226201
G03 X131.530355 Y120.312808 Z0.000000 I6.183427 J-2.876805
G03 X131.324241 Y118.847470 Z0.000000 I8.819561 J-1.987724
G03 X131.343486 Y117.318356 Z0.000000 I10.852073 J-0.628094
G03 X131.589303 Y115.809866 Z0.000000 I9.705020 J0.807215
G03 X131.995749 Y114.717454 Z0.000000 I4.886468 J1.196255
G03 X132.661615 Y113.876397 Z0.000000 I2.435941 J1.244427
G03 X133.395930 Y113.606780 Z0.000000 I0.734315 J0.865162
G03 X134.230104 Y113.884182 Z0.000000 I0.000000 J1.392922
G03 X135.088230 Y114.872270 Z0.000000 I-1.848687 J2.472203
G01 X135.088230 Y114.872270 Z0.000000
G00 Z5.000000

(End cutting path id: path3724)


(Start cutting path id: path3724)
(Change tool to Cylindrical cutter)

G00 Z5.000000
G00 X123.913170 Y117.976780

G01 Z0.000000 F100.0(Penetrate)
G02 X123.871087 Y118.811138 Z0.000000 I1.220429 J0.479796 F400.000000
G02 X124.479800 Y119.994040 Z0.000000 I3.200237 J-0.898749
G03 X125.052425 Y120.739088 Z0.000000 I-17.145406 J13.770095
G03 X125.058391 Y120.801662 Z0.000000 I-0.049348 J0.036277
G01 X125.013291 Y120.813881 Z0.000000
G03 X124.325540 Y120.318520 Z0.000000 I9.055078 J-13.297029
G02 X123.271396 Y119.717181 Z0.000000 I-2.789080 J3.664617
G02 X122.984970 Y119.773310 Z0.000000 I-0.100356 J0.246762
G03 X122.841780 Y119.731019 Z0.000000 I-0.059758 J-0.061223
G03 X122.711500 Y118.568170 Z0.000000 I5.124514 J-1.162849
G03 X123.002947 Y117.387556 Z0.000000 I2.536982 J0.000000
G03 X123.485450 Y117.096110 Z0.000000 I0.482503 J0.253681
G03 X123.888803 Y117.348618 Z0.000000 I-0.000000 J0.448410
G03 X123.913170 Y117.976780 Z0.000000 I-0.703868 J0.341857
G01 X123.913170 Y117.976780 Z0.000000
G00 Z5.000000

(End cutting path id: path3724)


(Start cutting path id: path3724)
(Change tool to Cylindrical cutter)

G00 Z5.000000
G00 X110.792160 Y127.173460

G01 Z0.000000 F100.0(Penetrate)
G03 X110.718584 Y127.537203 Z0.000000 I-3.997134 J-0.619204 F400.000000
G03 X110.682675 Y127.617423 Z0.000000 I-0.244262 J-0.061194
G01 X110.646447 Y127.617726 Z0.000000
G03 X110.591639 Y127.489564 Z0.000000 I0.274857 J-0.193344
G03 X110.540831 Y127.081491 Z0.000000 I2.830041 J-0.559557
G03 X110.502890 Y125.710400 Z0.000000 I27.541059 J-1.448193
G03 X110.531361 Y124.334205 Z0.000000 I29.334509 J-0.081521
G03 X110.581412 Y123.829855 Z0.000000 I4.624897 J0.204317
G03 X110.639259 Y123.609013 Z0.000000 I1.102464 J0.170778
G01 X110.671418 Y123.592258 Z0.000000
G01 X110.704344 Y123.622026 Z0.000000
G03 X110.783010 Y123.902220 Z0.000000 I-1.741466 J0.640063
G03 X110.928616 Y125.368256 Z0.000000 I-7.522965 J1.487428
G03 X110.792010 Y127.173460 Z0.000000 I-11.569374 J0.032273
G01 X110.792160 Y127.173460 Z0.000000
G00 Z5.000000

(End cutting path id: path3724)


(Start cutting path id: path3724)
(Change tool to Cylindrical cutter)

G00 Z5.000000
G00 X139.703280 Y117.157190

G01 Z0.000000 F100.0(Penetrate)
G03 X139.578493 Y123.419274 Z0.000000 I-808.463254 J-12.978294 F400.000000
G03 X139.535710 Y124.196750 Z0.000000 I-12.487073 J-0.297222
G02 X139.652463 Y124.545776 Z0.000000 I0.461018 J0.039826
G02 X140.195310 Y124.980499 Z0.000000 I1.586798 J-1.425176
G02 X140.877216 Y125.289514 Z0.000000 I2.133307 J-3.800694
G02 X141.839677 Y125.569060 Z0.000000 I2.938556 J-8.320652
G02 X143.996481 Y125.833857 Z0.000000 I2.350676 J-10.230423
G02 X145.219310 Y125.502690 Z0.000000 I0.041904 J-2.268490
G03 X146.290505 Y125.181979 Z0.000000 I1.146946 J1.881587
G03 X147.236970 Y125.433290 Z0.000000 I0.058099 J1.689094
G02 X149.920411 Y125.934270 Z0.000000 I1.989646 J-3.220048
G02 X152.357800 Y124.478500 Z0.000000 I-0.750431 J-4.024783
G01 X153.614180 Y122.919480 Z0.000000
G01 X155.036880 Y124.478500 Z0.000000
G02 X157.051922 Y125.725403 Z0.000000 I3.200743 J-2.920878
G02 X159.274584 Y125.886954 Z0.000000 I1.500576 J-5.274579
G02 X161.169754 Y125.098647 Z0.000000 I-0.521487 J-3.925953
G02 X161.943700 Y123.561060 Z0.000000 I-1.212061 J-1.573669
G03 X162.009291 Y122.935395 Z0.000000 I3.651285 J0.066508
G03 X162.097784 Y122.878332 Z0.000000 I0.071550 J0.013812
G03 X162.225929 Y122.965712 Z0.000000 I-0.050669 J0.211962
G03 X162.724270 Y123.747640 Z0.000000 I-9.257182 J6.449592
G02 X163.545820 Y124.906438 Z0.000000 I6.801496 J-3.951417
G02 X164.274438 Y125.528329 Z0.000000 I2.326949 J-1.988515
G02 X165.157358 Y125.883533 Z0.000000 I1.495576 J-2.442584
G02 X166.447750 Y126.027500 Z0.000000 I1.331746 J-6.081628
G02 X167.827450 Y125.710644 Z0.000000 I0.020431 J-3.073311
G02 X169.241880 Y124.732816 Z0.000000 I-2.600483 J-5.273506
G02 X170.301059 Y123.387866 Z0.000000 I-3.858027 J-4.127821
G02 X170.637050 Y122.112020 Z0.000000 I-2.254361 J-1.275846
G02 X170.216806 Y121.126917 Z0.000000 I-1.364724 J0.000000
G02 X169.448868 Y120.821775 Z0.000000 I-0.759265 J0.791922
G02 X168.516801 Y121.081530 Z0.000000 I0.014664 J1.854737
G02 X167.424930 Y122.137420 Z0.000000 I1.679064 J2.828765
G03 X166.478989 Y123.075251 Z0.000000 I-2.564842 J-1.641046
G03 X165.923110 Y123.080190 Z0.000000 I-0.281952 J-0.449144
G03 X165.489131 Y122.710075 Z0.000000 I0.905905 J-1.501711
G03 X165.299864 Y122.354896 Z0.000000 I0.731601 J-0.617871
G03 X165.276205 Y121.952581 Z0.000000 I0.891346 J-0.254271
G03 X165.438783 Y121.477922 Z0.000000 I1.467315 J0.237407
G03 X166.101006 Y120.693811 Z0.000000 I2.247983 J1.226844
G03 X167.788330 Y119.662490 Z0.000000 I5.152826 J6.534476
G02 X169.276456 Y118.860465 Z0.000000 I-5.436385 J-11.868594
G02 X169.917535 Y118.253819 Z0.000000 I-1.185886 J-1.895252
G02 X170.270003 Y117.447133 Z0.000000 I-1.789709 J-1.262328
G02 X170.503990 Y115.812270 Z0.000000 I-11.989288 J-2.550126
G02 X170.304193 Y113.265293 Z0.000000 I-8.356856 J-0.625772
G02 X169.618260 Y112.051590 Z0.000000 I-2.429030 J0.572101
G02 X168.206453 Y111.239599 Z0.000000 I-2.287036 J2.343114
G02 X166.210004 Y110.999709 Z0.000000 I-1.786452 J6.439964
G02 X164.253909 Y111.379641 Z0.000000 I0.196000 J6.234593
G02 X163.101230 Y112.256470 Z0.000000 I0.850782 J2.314507
G03 X162.450345 Y113.083539 Z0.000000 I-9.651554 J-6.925907
G03 X162.204989 Y113.196025 Z0.000000 I-0.245357 J-0.211345
G03 X161.966150 Y113.079829 Z0.000000 I0.000000 J-0.303563
G03 X161.381820 Y112.256470 Z0.000000 I8.275519 J-6.492081
G02 X160.227808 Y111.320061 Z0.000000 I-1.990162 J1.273342
G02 X158.325219 Y110.978517 Z0.000000 I-1.868307 J4.937499
G02 X156.383569 Y111.315954 Z0.000000 I0.038824 J5.978366
G02 X154.884970 Y112.298670 Z0.000000 I1.234781 J3.516992
G01 X153.671440 Y113.607510 Z0.000000
G01 X152.732210 Y112.298670 Z0.000000
G02 X151.585792 Y111.393485 Z0.000000 I-2.147016 J1.540635
G02 X149.532860 Y110.989790 Z0.000000 I-2.052932 J5.018100
G02 X148.107335 Y111.127038 Z0.000000 I0.000000 J7.471726
G02 X147.059246 Y111.476877 Z0.000000 I0.811894 J4.177280
G02 X146.162249 Y112.095160 Z0.000000 I1.581258 J3.253886
G02 X145.446156 Y112.996825 Z0.000000 I2.729979 J2.903311
G02 X144.718047 Y115.148829 Z0.000000 I4.944888 J2.872230
G02 X144.597030 Y119.487420 Z0.000000 I21.915048 J2.782264
G03 X144.668196 Y121.422432 Z0.000000 I-28.620447 J2.021423
G03 X144.585896 Y122.107930 Z0.000000 I-2.825122 J0.008508
G03 X144.274270 Y122.531383 Z0.000000 I-0.667340 J-0.164714
G03 X143.825550 Y122.613080 Z0.000000 I-0.331633 J-0.548350
G03 X143.432062 Y122.354557 Z0.000000 I0.111098 J-0.597816
G03 X142.963554 Y121.278969 Z0.000000 I2.701600 J-1.816604
G03 X142.741731 Y119.967552 Z0.000000 I10.440147 J-2.440395
G03 X142.484980 Y116.878040 Z0.000000 I68.267375 J-7.228715
G02 X142.214764 Y113.565307 Z0.000000 I-78.794397 J4.759778
G02 X141.991905 Y112.334527 Z0.000000 I-8.120300 J0.834790
G02 X141.489405 Y111.399840 Z0.000000 I-2.182179 J0.570747
G02 X140.976830 Y111.111850 Z0.000000 I-0.679224 J0.608764
G02 X140.605351 Y111.092385 Z0.000000 I-0.259377 J1.395606
G02 X140.349345 Y111.189369 Z0.000000 I0.038702 J0.488539
G02 X140.174249 Y111.402651 Z0.000000 I0.351642 J0.467198
G02 X139.981577 Y111.968086 Z0.000000 I2.233046 J1.076452
G02 X139.827400 Y113.175973 Z0.000000 I7.392844 J1.557422
G02 X139.703280 Y117.157200 Z0.000000 I131.626401 J6.096183
G01 X139.703280 Y117.157190 Z0.000000
G00 Z5.000000

(End cutting path id: path3724)


(Start cutting path id: path3724)
(Change tool to Cylindrical cutter)

G00 Z5.000000
G00 X140.959000 Y118.350090

G01 Z0.000000 F100.0(Penetrate)
G03 X140.885587 Y118.776186 Z0.000000 I-4.858872 J-0.617772 F400.000000
G03 X140.854029 Y118.840138 Z0.000000 I-0.144414 J-0.031502
G01 X140.823646 Y118.834635 Z0.000000
G03 X140.768066 Y118.602589 Z0.000000 I1.036138 J-0.370854
G03 X140.720145 Y118.011186 Z0.000000 I6.454116 J-0.820615
G03 X140.688650 Y116.223780 Z0.000000 I50.703142 J-1.787406
G03 X140.720145 Y114.436374 Z0.000000 I50.734637 J0.000000
G03 X140.768066 Y113.844971 Z0.000000 I6.502036 J0.229212
G03 X140.823646 Y113.612925 Z0.000000 I1.091717 J0.138807
G01 X140.854029 Y113.607422 Z0.000000
G03 X140.885587 Y113.671374 Z0.000000 I-0.112856 J0.095453
G03 X140.959000 Y114.097470 Z0.000000 I-4.785459 J1.043868
G03 X141.093622 Y116.223780 Z0.000000 I-16.724884 J2.126310
G03 X140.959000 Y118.350090 Z0.000000 I-16.859506 J0.000000
G01 X140.959000 Y118.350090 Z0.000000
G00 Z5.000000

(End cutting path id: path3724)


(Start cutting path id: path3724)
(Change tool to Cylindrical cutter)

G00 Z5.000000
G00 X151.198710 Y114.915280

G01 Z0.000000 F100.0(Penetrate)
G02 X152.374632 Y115.959763 Z0.000000 I2.050430 J-1.124266 F400.000000
G02 X154.180389 Y116.300569 Z0.000000 I1.757760 J-4.359181
G02 X155.909670 Y115.896935 Z0.000000 I-0.041716 J-4.084908
G02 X156.770470 Y114.858380 Z0.000000 I-0.700921 J-1.456966
G03 X157.032262 Y114.250907 Z0.000000 I2.209077 J0.591860
G03 X157.354836 Y113.904114 Z0.000000 I1.029137 J0.633846
G03 X157.782693 Y113.720795 Z0.000000 I0.624657 J0.866962
G03 X158.349100 Y113.720960 Z0.000000 I0.282764 J1.509055
G03 X159.108073 Y113.968834 Z0.000000 I-0.569476 J3.029592
G03 X159.491901 Y114.250405 Z0.000000 I-0.550631 J1.152998
G03 X159.710189 Y114.651580 Z0.000000 I-0.669303 J0.624157
G03 X159.714120 Y115.108095 Z0.000000 I-0.940910 J0.236377
G03 X159.251147 Y115.921144 Z0.000000 I-1.600111 J-0.372809
G03 X157.568210 Y117.072580 Z0.000000 I-4.311859 J-4.496599
G02 X156.588180 Y117.620322 Z0.000000 I3.203072 J6.881612
G02 X155.701793 Y118.291003 Z0.000000 I4.784004 J7.243729
G02 X154.920240 Y119.082342 Z0.000000 I4.556046 J5.281313
G02 X154.571290 Y119.657940 Z0.000000 I1.675071 J1.409065
G03 X154.131698 Y120.644405 Z0.000000 I-17.475395 J-7.196274
G03 X154.043465 Y120.674474 Z0.000000 I-0.058878 J-0.028281
G03 X153.978303 Y120.576190 Z0.000000 I0.053402 J-0.106148
G03 X153.922350 Y119.331470 Z0.000000 I29.167801 J-1.934781
G02 X153.773221 Y118.249554 Z0.000000 I-4.824619 J0.113780
G02 X153.409809 Y117.787876 Z0.000000 I-0.703531 J0.179919
G02 X152.752456 Y117.602274 Z0.000000 I-0.759291 J1.432317
G02 X150.528430 Y117.532280 Z0.000000 I-2.224026 J35.298736
G03 X148.098105 Y117.365190 Z0.000000 I-0.000000 J-17.758094
G03 X147.444191 Y117.039927 Z0.000000 I0.156847 J-1.135280
G03 X147.271795 Y116.432934 Z0.000000 I0.458668 J-0.458248
G03 X147.870860 Y114.872270 Z0.000000 I6.043401 J1.424466
G03 X148.739817 Y113.901906 Z0.000000 I2.518120 J1.380710
G03 X149.529985 Y113.658006 Z0.000000 I0.772782 J1.101691
G03 X150.319596 Y113.919239 Z0.000000 I-0.017802 J1.377779
G03 X151.198710 Y114.915270 Z0.000000 I-1.771057 J2.449141
G01 X151.198710 Y114.915280 Z0.000000
G00 Z5.000000

(End cutting path id: path3724)


(Start cutting path id: path3724)
(Change tool to Cylindrical cutter)

G00 Z5.000000
G00 X167.620760 Y115.090080

G01 Z0.000000 F100.0(Penetrate)
G03 X167.494099 Y115.543300 Z0.000000 I-0.874192 J-0.000000 F400.000000
G03 X166.947859 Y116.229601 Z0.000000 I-2.955918 J-1.792142
G03 X166.255484 Y116.798261 Z0.000000 I-3.734166 J-3.840728
G03 X165.274750 Y117.370990 Z0.000000 I-4.285143 J-6.211754
G02 X164.117531 Y118.053330 Z0.000000 I3.703071 J7.602716
G02 X163.382871 Y118.707361 Z0.000000 I2.460660 J3.503636
G02 X162.840169 Y119.513457 Z0.000000 I2.679987 J2.390029
G02 X162.505330 Y120.476400 Z0.000000 I3.753846 J1.844993
G03 X162.300331 Y121.296490 Z0.000000 I-12.718843 J-2.743686
G03 X162.183006 Y121.622361 Z0.000000 I-2.446059 J-0.696605
G03 X162.102324 Y121.764321 Z0.000000 I-0.726410 J-0.318944
G01 X162.066823 Y121.784009 Z0.000000
G01 X162.038343 Y121.766117 Z0.000000
G03 X162.002620 Y121.621340 Z0.000000 I0.477027 J-0.194501
G02 X161.620527 Y120.974939 Z0.000000 I-0.882608 J0.085587
G02 X160.997797 Y120.849485 Z0.000000 I-0.459333 J0.671761
G02 X160.273387 Y121.178137 Z0.000000 I0.359908 J1.755999
G02 X159.365900 Y122.161760 Z0.000000 I2.312165 J3.043629
G03 X158.807279 Y122.887108 Z0.000000 I-4.433440 J-2.836595
G03 X158.475746 Y123.096301 Z0.000000 I-0.551874 J-0.507312
G03 X158.107742 Y123.078805 Z0.000000 I-0.159724 J-0.519391
G03 X157.520680 Y122.729210 Z0.000000 I0.914124 J-2.202771
G03 X157.137890 Y122.316078 Z0.000000 I1.246864 J-1.539193
G03 X156.991817 Y121.966151 Z0.000000 I0.751080 J-0.518983
G03 X157.009067 Y121.593768 Z0.000000 I0.794816 J-0.149771
G03 X157.221184 Y121.163255 Z0.000000 I1.296004 J0.371037
G03 X157.946209 Y120.494372 Z0.000000 I2.111903 J1.561781
G03 X159.912380 Y119.495060 Z0.000000 I6.777451 J10.900902
G02 X160.714753 Y119.086948 Z0.000000 I-1.956854 J-4.840109
G02 X161.419386 Y118.569885 Z0.000000 I-3.033672 J-4.872822
G02 X162.023549 Y117.942131 Z0.000000 I-2.982024 J-3.474564
G02 X162.281340 Y117.461920 Z0.000000 I-1.203514 J-0.955381
G03 X162.888401 Y116.505261 Z0.000000 I2.168515 J0.705123
G03 X163.599030 Y116.223780 Z0.000000 I0.710629 J0.756288
G02 X164.303071 Y115.933222 Z0.000000 I0.000000 J-0.998248
G02 X164.951710 Y114.878070 Z0.000000 I-1.861825 J-1.871475
G03 X165.669493 Y113.957106 Z0.000000 I1.629618 J0.529900
G03 X166.483162 Y113.757199 Z0.000000 I0.708272 J1.126964
G03 X167.208125 Y114.092244 Z0.000000 I-0.091301 J1.149406
G03 X167.620760 Y115.090080 Z0.000000 I-1.000169 J0.997836
G01 X167.620760 Y115.090080 Z0.000000
G00 Z5.000000

(End cutting path id: path3724)


(Start cutting path id: path3724)
(Change tool to Cylindrical cutter)

G00 Z5.000000
G00 X151.198710 Y121.050550

G01 Z0.000000 F100.0(Penetrate)
G03 X150.988552 Y121.851585 Z0.000000 I-1.631683 J0.000000 F400.000000
G03 X150.264300 Y122.708750 Z0.000000 I-2.610047 J-1.470773
G03 X149.715078 Y123.034298 Z0.000000 I-1.383260 J-1.707595
G03 X149.299989 Y123.085240 Z0.000000 I-0.300602 J-0.732780
G03 X148.894703 Y122.931061 Z0.000000 I0.144604 J-0.989884
G03 X148.253440 Y122.415000 Z0.000000 I2.368522 J-3.599604
G03 X147.309238 Y121.195621 Z0.000000 I3.898060 J-3.993636
G03 X147.276914 Y120.695603 Z0.000000 I0.493929 J-0.282984
G03 X147.652310 Y120.361552 Z0.000000 I0.531316 J0.219122
G03 X149.187850 Y120.149280 Z0.000000 I1.535540 J5.447795
G03 X150.844441 Y120.503543 Z0.000000 I-0.000000 J4.050377
G03 X151.198710 Y121.050550 Z0.000000 I-0.245168 J0.547007
G01 X151.198710 Y121.050550 Z0.000000
G00 Z5.000000

(End cutting path id: path3724)


(Start cutting path id: path3724)
(Change tool to Cylindrical cutter)

G00 Z5.000000
G00 X61.380193 Y136.964100

G01 Z0.000000 F100.0(Penetrate)
G02 X59.399751 Y138.113800 Z0.000000 I9.918464 J19.365856 F400.000000
G02 X58.023709 Y139.183995 Z0.000000 I5.791940 J8.866939
G02 X56.844097 Y140.465741 Z0.000000 I7.070896 J7.691143
G02 X55.567143 Y142.308360 Z0.000000 I16.266821 J12.636859
G02 X54.058217 Y145.428841 Z0.000000 I14.614885 J8.992175
G02 X52.788943 Y149.729585 Z0.000000 I33.862608 J12.331507
G02 X52.089805 Y154.171170 Z0.000000 I31.971990 J7.308446
G02 X52.243373 Y156.848740 Z0.000000 I9.256815 J0.812277
G01 X52.632943 Y158.750000 Z0.000000
G01 X48.292833 Y158.750000 Z0.000000
G01 X43.952723 Y158.750000 Z0.000000
G01 X43.952723 Y147.954880 Z0.000000
G01 X43.952723 Y137.159770 Z0.000000
G01 X37.920133 Y137.159770 Z0.000000
G01 X31.887543 Y137.159770 Z0.000000
G01 X31.887543 Y163.998760 Z0.000000
G01 X31.887543 Y190.837750 Z0.000000
G01 X44.120293 Y190.659430 Z0.000000
G01 X56.353043 Y190.481100 Z0.000000
G01 X56.544883 Y184.102170 Z0.000000
G01 X56.736723 Y177.723240 Z0.000000
G01 X50.344723 Y177.723240 Z0.000000
G01 X43.952723 Y177.723240 Z0.000000
G01 X43.952723 Y174.779110 Z0.000000
G01 X43.952723 Y171.834990 Z0.000000
G01 X49.650163 Y171.834990 Z0.000000
G01 X55.347603 Y171.834990 Z0.000000
G01 X55.347603 Y169.622090 Z0.000000
G01 X55.347603 Y167.409190 Z0.000000
G01 X57.876293 Y169.877370 Z0.000000
G02 X64.431578 Y173.396809 Z0.000000 I9.384126 J-9.614178
G02 X71.975653 Y172.914220 Z0.000000 I2.920193 J-13.557743
G02 X73.992022 Y171.898324 Z0.000000 I-2.976471 J-8.416762
G02 X76.340579 Y170.031955 Z0.000000 I-10.765619 J-15.957834
G02 X78.369039 Y167.821668 Z0.000000 I-12.985488 J-13.953187
G02 X79.488143 Y165.922750 Z0.000000 I-6.635154 J-5.189571
G03 X79.869745 Y165.112322 Z0.000000 I10.647581 J4.518514
G03 X80.193329 Y164.553509 Z0.000000 I6.221469 J3.229487
G03 X80.583850 Y164.049339 Z0.000000 I3.049395 J1.958673
G03 X80.733433 Y163.984000 Z0.000000 I0.149583 J0.138555
G03 X80.883458 Y164.052596 Z0.000000 I-0.000000 J0.198358
G03 X81.514413 Y164.871869 Z0.000000 I-6.884078 J5.954297
G03 X82.070022 Y165.735862 Z0.000000 I-15.179150 J10.371919
G03 X82.798733 Y167.006530 Z0.000000 I-27.433167 J16.576836
G02 X86.027444 Y170.884122 Z0.000000 I11.353767 J-6.170810
G02 X89.952117 Y173.004055 Z0.000000 I7.635643 J-9.443136
G02 X94.298360 Y173.453277 Z0.000000 I3.239708 J-10.094655
G02 X98.220563 Y171.955900 Z0.000000 I-0.851826 J-8.116820
G01 X100.320790 Y170.441190 Z0.000000
G01 X100.255490 Y179.479770 Z0.000000
G02 X100.208670 Y188.518150 Z0.000000 I2213.760642 J15.986821
G02 X100.223490 Y189.675130 Z0.000000 I36.280208 J0.113872
G02 X100.311839 Y189.998476 Z0.000000 I0.710946 J-0.020513
G02 X100.643232 Y190.306189 Z0.000000 I0.633376 J-0.349812
G02 X101.144279 Y190.460031 Z0.000000 I0.827066 J-1.800816
G02 X102.648869 Y190.631319 Z0.000000 I2.400524 J-14.392409
G02 X105.669183 Y190.721957 Z0.000000 I2.951110 J-47.971231
G02 X116.176190 Y190.656510 Z0.000000 I-1.579611 J-1097.037745
G01 X132.095550 Y190.481100 Z0.000000
G01 X132.287390 Y184.102170 Z0.000000
G01 X132.479240 Y177.723240 Z0.000000
G01 X126.087230 Y177.723240 Z0.000000
G01 X119.695230 Y177.723240 Z0.000000
G01 X119.695230 Y174.779110 Z0.000000
G01 X119.695230 Y171.834990 Z0.000000
G01 X131.753560 Y171.834990 Z0.000000
G01 X143.811890 Y171.834990 Z0.000000
G01 X146.259640 Y168.236620 Z0.000000
G03 X148.753599 Y164.725578 Z0.000000 I87.796845 J59.722492
G03 X148.927040 Y164.638250 Z0.000000 I0.173441 J0.128568
G03 X149.098975 Y164.726578 Z0.000000 I0.000000 J0.211504
G03 X151.504970 Y168.236620 Z0.000000 I-83.338418 J59.704821
G01 X153.863240 Y171.834990 Z0.000000
G01 X159.904160 Y171.834990 Z0.000000
G02 X163.501722 Y171.772617 Z0.000000 I-0.000000 J-103.781790
G02 X164.792565 Y171.643600 Z0.000000 I-0.346454 J-9.988427
G02 X165.421794 Y171.485307 Z0.000000 I-0.649716 J-3.912436
G02 X165.701659 Y171.337532 Z0.000000 I-0.325404 J-0.955172
G02 X165.886743 Y171.105646 Z0.000000 I-0.354263 J-0.472568
G02 X165.945070 Y170.831810 Z0.000000 I-0.613642 J-0.273836
G02 X165.844628 Y170.417250 Z0.000000 I-0.905744 J-0.000000
G02 X164.558238 Y168.105730 Z0.000000 I-36.278292 J18.675638
G02 X163.194839 Y165.916632 Z0.000000 I-65.930592 J39.543313
G02 X161.223940 Y162.960270 Z0.000000 I-105.061973 J67.905840
G03 X156.597580 Y156.041570 Z0.000000 I267.733184 J-184.032544
G03 X156.113480 Y155.101590 Z0.000000 I4.395569 J-2.858413
G03 X156.116762 Y154.650403 Z0.000000 I0.563428 J-0.221507
G03 X157.236266 Y152.324331 Z0.000000 I20.104573 J8.243600
G03 X158.557513 Y150.094675 Z0.000000 I42.025592 J23.397163
G03 X160.834600 Y146.621600 Z0.000000 I95.295921 J59.996820
G02 X162.971933 Y143.401329 Z0.000000 I-124.540857 J-84.978700
G02 X164.443870 Y141.042361 Z0.000000 I-76.476966 J-49.358430
G02 X165.844820 Y138.553158 Z0.000000 I-40.826333 J-24.616327
G02 X165.945070 Y138.145850 Z0.000000 I-0.777304 J-0.407308
G02 X165.884382 Y137.881498 Z0.000000 I-0.606093 J-0.000000
G02 X165.687301 Y137.650630 Z0.000000 I-0.540850 J0.262144
G02 X165.394339 Y137.505896 Z0.000000 I-0.625193 J0.896612
G02 X164.732866 Y137.349570 Z0.000000 I-1.347029 J4.222150
G02 X163.381435 Y137.221798 Z0.000000 I-1.720915 J10.991051
G02 X159.647220 Y137.159770 Z0.000000 I-3.734215 J112.373319
G01 X153.349360 Y137.159770 Z0.000000
G01 X151.198740 Y140.431010 Z0.000000
G03 X150.249894 Y141.802000 Z0.000000 I-29.247002 J-19.227670
G03 X149.524029 Y142.741331 Z0.000000 I-16.732024 J-12.179496
G03 X148.713608 Y143.622773 Z0.000000 I-8.147877 J-6.678091
G03 X148.517590 Y143.702260 Z0.000000 I-0.196018 J-0.201950
G03 X148.321579 Y143.622776 Z0.000000 I0.000000 J-0.281426
G03 X147.511159 Y142.741331 Z0.000000 I7.337717 J-7.559749
G03 X146.785293 Y141.802001 Z0.000000 I16.006733 J-13.119297
G03 X145.836440 Y140.431010 Z0.000000 I28.299271 J-20.599561
G01 X143.685830 Y137.159770 Z0.000000
G01 X121.971340 Y137.159770 Z0.000000
G02 X107.642564 Y137.209644 Z0.000000 I0.000000 J2058.335453
G02 X103.526354 Y137.332324 Z0.000000 I0.627789 J90.180038
G02 X101.465282 Y137.519560 Z0.000000 I1.434081 J27.223774
G02 X100.796316 Y137.675905 Z0.000000 I0.436655 J3.377714
G02 X100.337314 Y138.010316 Z0.000000 I0.312908 J0.911697
G02 X100.236490 Y138.304700 Z0.000000 I0.405692 J0.303403
G03 X100.191741 Y139.058942 Z0.000000 I-9.110891 J-0.162096
G03 X100.121428 Y139.122506 Z0.000000 I-0.070312 J-0.007107
G03 X100.018873 Y139.068128 Z0.000000 I0.000002 J-0.123900
G03 X99.532893 Y138.304690 Z0.000000 I12.982003 J-8.800320
G02 X98.583955 Y137.243457 Z0.000000 I-3.210102 J1.915543
G02 X96.777292 Y136.151620 Z0.000000 I-6.033510 J7.942993
G02 X94.783198 Y135.436180 Z0.000000 I-4.827638 J10.319013
G02 X92.890293 Y135.197020 Z0.000000 I-1.892905 J7.371394
G02 X91.059568 Y135.449493 Z0.000000 I-0.000000 J6.763701
G02 X88.550423 Y136.365014 Z0.000000 I4.774877 J16.982511
G02 X86.207289 Y137.645984 Z0.000000 I7.391147 J16.303286
G02 X84.745843 Y138.889330 Z0.000000 I4.025223 J6.211878
G02 X83.746254 Y140.174888 Z0.000000 I8.057595 J7.296598
G02 X82.342063 Y142.511250 Z0.000000 I25.377332 J16.842337
G01 X81.038133 Y144.918600 Z0.000000
G01 X78.743913 Y141.590980 Z0.000000
G02 X76.579191 Y139.019987 Z0.000000 I-14.402509 J9.929785
G02 X74.322503 Y137.289541 Z0.000000 I-8.268069 J8.445750
G02 X71.717159 Y136.141993 Z0.000000 I-6.114436 J10.350651
G02 X68.335873 Y135.442650 Z0.000000 I-5.470113 J17.923855
G02 X66.414088 Y135.337572 Z0.000000 I-1.880440 J16.765179
G02 X64.989509 Y135.493324 Z0.000000 I0.016528 J6.743982
G02 X63.605140 Y135.930519 Z0.000000 I1.715367 J7.842052
G02 X61.380203 Y136.964100 Z0.000000 I12.325740 J29.444545
G01 X61.380193 Y136.964100 Z0.000000
G00 Z5.000000

(End cutting path id: path3724)


(Start cutting path id: path3724)
(Change tool to Cylindrical cutter)

G00 Z5.000000
G00 X72.775083 Y138.305720

G01 Z0.000000 F100.0(Penetrate)
G03 X74.366478 Y139.420901 Z0.000000 I-2.714024 J5.566060 F400.000000
G03 X76.910538 Y142.168069 Z0.000000 I-23.687361 J24.487646
G03 X77.962761 Y143.513929 Z0.000000 I-23.082395 J19.130580
G03 X78.724637 Y144.638749 Z0.000000 I-13.773699 J10.149793
G03 X79.360069 Y145.838293 Z0.000000 I-8.425488 J5.231290
G03 X79.477953 Y146.393200 Z0.000000 I-1.247095 J0.554907
G03 X79.366778 Y146.553462 Z0.000000 I-0.171098 J0.000000
G03 X78.425538 Y146.803044 Z0.000000 I-1.731932 J-4.631946
G03 X77.416427 Y146.920041 Z0.000000 I-1.799173 J-11.107643
G03 X75.895263 Y146.973510 Z0.000000 I-1.521164 J-21.611603
G03 X73.915179 Y146.888334 Z0.000000 I-0.000000 J-23.058140
G03 X72.819875 Y146.693356 Z0.000000 I0.530369 J-6.153353
G03 X71.834390 Y146.267303 Z0.000000 I1.000481 J-3.666936
G03 X71.099363 Y145.665010 Z0.000000 I1.821710 J-2.972833
G02 X69.913556 Y144.841142 Z0.000000 I-2.470588 J2.290647
G02 X68.181457 Y144.408036 Z0.000000 I-2.336436 J5.663900
G02 X66.380197 Y144.466636 Z0.000000 I-0.678793 J6.848167
G02 X64.694503 Y145.030150 Z0.000000 I0.916811 J5.545594
G02 X63.585642 Y145.915478 Z0.000000 I1.718131 J3.289014
G02 X62.424711 Y147.618170 Z0.000000 I7.403885 J6.295247
G02 X61.631488 Y149.525620 Z0.000000 I9.294499 J4.983820
G02 X61.380193 Y151.211130 Z0.000000 I5.526955 J1.685510
G01 X61.380193 Y152.896740 Z0.000000
G01 X71.249143 Y152.715680 Z0.000000
G01 X81.118093 Y152.534630 Z0.000000
G01 X81.601393 Y149.766960 Z0.000000
G03 X83.727796 Y143.516885 Z0.000000 I21.055559 J3.676771
G03 X87.097783 Y139.286080 Z0.000000 I12.706260 J6.663429
G03 X88.611860 Y138.130917 Z0.000000 I10.914398 J12.735713
G03 X89.714179 Y137.561747 Z0.000000 I2.945505 J4.352580
G03 X90.918097 Y137.269476 Z0.000000 I1.812164 J4.838915
G03 X92.775543 Y137.159770 Z0.000000 I1.857446 J15.669466
G03 X94.691758 Y137.268308 Z0.000000 I0.000000 J16.969435
G03 X95.805818 Y137.557087 Z0.000000 I-0.464117 J4.083796
G03 X96.795895 Y138.143526 Z0.000000 I-1.575923 J3.789595
G03 X98.220733 Y139.424180 Z0.000000 I-10.558125 J13.179785
G02 X100.067958 Y141.003956 Z0.000000 I10.606014 J-10.531701
G02 X100.793587 Y141.272635 Z0.000000 I0.845407 J-1.169012
G02 X101.140785 Y141.193052 Z0.000000 I0.048709 J-0.584650
G02 X101.401517 Y140.914757 Z0.000000 I-0.345990 J-0.585442
G02 X101.533733 Y140.507092 Z0.000000 I-1.238344 J-0.626900
G02 X101.597440 Y139.705500 Z0.000000 I-5.011191 J-0.801592
G03 X101.755463 Y139.035738 Z0.000000 I1.498364 J-0.000000
G03 X102.223741 Y138.646517 Z0.000000 I0.677128 J0.338358
G03 X102.990447 Y138.538153 Z0.000000 I0.770288 J2.683481
G03 X105.451590 Y138.599180 Z0.000000 I0.060579 J47.214936
G01 X109.305750 Y138.795390 Z0.000000
G01 X109.481280 Y163.820430 Z0.000000
G01 X109.656820 Y188.845480 Z0.000000
G01 X105.627130 Y188.845480 Z0.000000
G01 X101.597440 Y188.845480 Z0.000000
G01 X101.597440 Y178.704610 Z0.000000
G02 X101.458665 Y170.990779 Z0.000000 I-214.456049 J0.000000
G02 X101.132089 Y169.274746 Z0.000000 I-5.761502 J0.207371
G02 X100.932852 Y168.877878 Z0.000000 I-1.677244 J0.593571
G02 X100.749477 Y168.700790 Z0.000000 I-0.502180 J0.336520
G02 X100.513029 Y168.629047 Z0.000000 I-0.252569 J0.406899
G02 X100.202347 Y168.676322 Z0.000000 I-0.028803 J0.855218
G02 X99.617435 Y168.996861 Z0.000000 I0.666281 J1.909749
G02 X98.498513 Y169.948020 Z0.000000 I12.089389 J15.355404
G03 X96.829439 Y170.980772 Z0.000000 I-3.548566 J-3.869880
G03 X94.041953 Y171.656510 Z0.000000 I-4.013679 J-10.469630
G03 X90.459676 Y171.403696 Z0.000000 I-1.096609 J-9.967629
G03 X87.429203 Y169.984264 Z0.000000 I2.224462 J-8.693933
G03 X85.024749 Y167.569802 Z0.000000 I6.189716 J-8.568535
G03 X82.867133 Y163.584070 Z0.000000 I14.746798 J-10.559820
G02 X82.274695 Y162.251556 Z0.000000 I-14.325573 J5.571219
G02 X81.742597 Y161.325167 Z0.000000 I-8.594723 J4.320621
G02 X81.084508 Y160.510093 Z0.000000 I-4.298470 J2.797366
G02 X80.785633 Y160.385620 Z0.000000 I-0.298875 J0.296581
G02 X80.482012 Y160.502239 Z0.000000 I-0.000000 J0.453552
G02 X79.927572 Y161.136927 Z0.000000 I2.369293 J2.629241
G02 X79.490231 Y161.883414 Z0.000000 I5.204656 J3.550584
G02 X79.040823 Y162.943260 Z0.000000 I8.567618 J4.258143
G03 X77.913844 Y165.408796 Z0.000000 I-14.554628 J-5.162482
G03 X76.375700 Y167.689776 Z0.000000 I-15.614844 J-8.870526
G03 X74.489708 Y169.687021 Z0.000000 I-12.419968 J-9.839049
G03 X72.773723 Y170.854310 Z0.000000 I-5.325593 J-5.983998
G03 X70.495338 Y171.591444 Z0.000000 I-3.505269 J-6.944671
G03 X67.224277 Y171.804822 Z0.000000 I-2.776514 J-17.384392
G03 X63.965950 Y171.424108 Z0.000000 I0.522975 J-18.609331
G03 X61.396423 Y170.534570 Z0.000000 I2.150981 J-10.369290
G03 X60.328481 Y169.889305 Z0.000000 I3.415806 J-6.859694
G03 X59.096404 Y168.893080 Z0.000000 I8.442449 J-11.701147
G03 X57.981031 Y167.767671 Z0.000000 I9.663706 J-10.692950
G03 X57.233823 Y166.772640 Z0.000000 I5.693316 J-5.053403
G02 X55.440859 Y164.457297 Z0.000000 I-12.837617 J8.089349
G02 X54.798278 Y164.195054 Z0.000000 I-0.608903 J0.573621
G02 X54.499699 Y164.339631 Z0.000000 I0.016727 J0.415142
G02 X54.202913 Y164.887971 Z0.000000 I1.118759 J0.960011
G02 X54.071157 Y165.574043 Z0.000000 I3.600896 J1.047218
G02 X54.007033 Y166.902650 Z0.000000 I13.731928 J1.328607
G01 X54.007033 Y169.821300 Z0.000000
G01 X48.142013 Y170.010330 Z0.000000
G01 X42.277003 Y170.199370 Z0.000000
G01 X42.277003 Y174.451990 Z0.000000
G01 X42.277003 Y178.704610 Z0.000000
G01 X48.477163 Y178.892730 Z0.000000
G01 X54.677323 Y179.080840 Z0.000000
G01 X54.677323 Y183.963160 Z0.000000
G01 X54.677323 Y188.845480 Z0.000000
G01 X43.944753 Y188.845480 Z0.000000
G01 X33.212193 Y188.845480 Z0.000000
G01 X33.387723 Y163.820430 Z0.000000
G01 X33.563263 Y138.795390 Z0.000000
G01 X37.736213 Y138.601030 Z0.000000
G01 X41.909153 Y138.406650 Z0.000000
G01 X42.093083 Y149.396140 Z0.000000
G01 X42.277003 Y160.385620 Z0.000000
G01 X48.142013 Y160.574660 Z0.000000
G01 X54.007033 Y160.763690 Z0.000000
G01 X54.007033 Y155.725290 Z0.000000
G03 X54.661875 Y149.345221 Z0.000000 I31.407661 J0.000000
G03 X56.279715 Y144.508891 Z0.000000 I21.162138 J4.390359
G03 X59.076501 Y140.374476 Z0.000000 I14.743448 J6.960250
G03 X62.333553 Y138.087760 Z0.000000 I6.986598 J6.488337
G03 X64.666197 Y137.423274 Z0.000000 I3.823964 J8.997272
G03 X67.602832 Y137.228771 Z0.000000 I2.583228 J16.735854
G03 X70.528155 Y137.548201 Z0.000000 I-0.349815 J16.758274
G03 X72.775083 Y138.305720 Z0.000000 I-1.807569 J9.072698
G01 X72.775083 Y138.305720 Z0.000000
G00 Z5.000000

(End cutting path id: path3724)


(Start cutting path id: path3724)
(Change tool to Cylindrical cutter)

G00 Z5.000000
G00 X91.704623 Y146.482820

G01 Z0.000000 F100.0(Penetrate)
G02 X90.455082 Y148.097410 Z0.000000 I6.946786 J6.666971 F400.000000
G02 X89.561364 Y149.966365 Z0.000000 I8.306213 J5.120117
G02 X89.054682 Y151.987779 Z0.000000 I10.456394 J3.695183
G02 X88.861983 Y154.526730 Z0.000000 I16.629962 J2.538951
G02 X90.271564 Y160.762057 Z0.000000 I14.495878 J-0.000000
G02 X92.732518 Y163.515058 Z0.000000 I5.932463 J-2.826685
G02 X94.463665 Y164.164472 Z0.000000 I2.486782 J-3.996955
G02 X96.241893 Y164.053432 Z0.000000 I0.644945 J-3.965737
G02 X97.826029 Y163.222382 Z0.000000 I-1.287716 J-4.379976
G02 X99.619523 Y161.219740 Z0.000000 I-5.304017 J-6.554503
G02 X100.294755 Y159.925296 Z0.000000 I-6.878934 J-4.411655
G02 X100.702523 Y158.464988 Z0.000000 I-5.899570 J-2.434445
G02 X100.833191 Y156.887659 Z0.000000 I-11.089861 J-1.712774
G02 X100.792810 Y153.622910 Z0.000000 I-66.801699 J-0.806375
G02 X100.585711 Y150.104539 Z0.000000 I-80.086746 J2.948795
G02 X100.335285 Y148.760880 Z0.000000 I-6.594584 J0.533907
G02 X99.747623 Y147.644141 Z0.000000 I-3.096218 J0.916331
G02 X98.711333 Y146.589730 Z0.000000 I-6.013266 J4.873479
G02 X96.767282 Y145.423573 Z0.000000 I-4.629287 J5.513789
G02 X95.012472 Y145.070164 Z0.000000 I-1.829648 J4.551538
G02 X93.283830 Y145.401924 Z0.000000 I-0.065998 J4.325547
G02 X91.704623 Y146.482820 Z0.000000 I1.800188 J4.324179
G01 X91.704623 Y146.482820 Z0.000000
G00 Z5.000000

(End cutting path id: path3724)


(Start cutting path id: path3724)
(Change tool to Cylindrical cutter)

G00 Z5.000000
G00 X98.738843 Y149.661160

G01 Z0.000000 F100.0(Penetrate)
G03 X99.329205 Y151.443788 Z0.000000 I-4.997923 J2.644258 F400.000000
G03 X99.543244 Y154.459641 Z0.000000 I-18.212437 J2.808084
G03 X99.282464 Y157.469547 Z0.000000 I-20.118726 J-0.226850
G03 X98.625323 Y159.729100 Z0.000000 I-9.585474 J-1.562389
G03 X97.231057 Y161.746530 Z0.000000 I-5.666434 J-2.425618
G03 X95.824831 Y162.508451 Z0.000000 I-2.083638 J-2.166980
G03 X94.271979 Y162.399840 Z0.000000 I-0.599061 J-2.590141
G03 X92.476643 Y161.151200 Z0.000000 I1.645314 J-4.280706
G03 X91.176533 Y159.010598 Z0.000000 I5.349263 J-4.714029
G03 X90.523033 Y156.407259 Z0.000000 I10.174656 J-3.937775
G03 X90.477391 Y153.667537 Z0.000000 I12.856626 J-1.584420
G03 X90.957479 Y151.144584 Z0.000000 I12.974815 J1.161798
G03 X91.964230 Y148.806187 Z0.000000 I10.218683 J3.013536
G03 X93.174918 Y147.414906 Z0.000000 I4.226592 J2.455558
G03 X94.686538 Y146.820734 Z0.000000 I1.749959 J2.232104
G03 X96.570283 Y147.269960 Z0.000000 I0.260048 J3.083714
G03 X97.748136 Y148.248559 Z0.000000 I-2.860168 J4.640669
G03 X98.738843 Y149.661160 Z0.000000 I-5.126001 J4.648755
G01 X98.738843 Y149.661160 Z0.000000
G00 Z5.000000

(End cutting path id: path3724)


(Start cutting path id: path3724)
(Change tool to Cylindrical cutter)

G00 Z5.000000
G00 X61.752723 Y159.345210

G01 Z0.000000 F100.0(Penetrate)
G02 X61.578411 Y160.023832 Z0.000000 I0.961145 J0.608579 F400.000000
G02 X61.812941 Y161.089193 Z0.000000 I3.524647 J-0.217425
G02 X62.328949 Y162.114816 Z0.000000 I5.675584 J-2.212857
G02 X63.173816 Y163.279306 Z0.000000 I9.081565 J-5.700173
G02 X64.162296 Y164.324241 Z0.000000 I8.796232 J-7.330992
G02 X65.199613 Y165.152757 Z0.000000 I5.933805 J-6.365611
G02 X66.350064 Y165.769618 Z0.000000 I3.490034 J-5.127706
G02 X67.254603 Y165.946750 Z0.000000 I0.904539 J-2.220988
G02 X68.848406 Y165.514235 Z0.000000 I-0.000000 J-3.152810
G02 X70.818667 Y163.993764 Z0.000000 I-4.956031 J-8.458929
G02 X72.342233 Y162.026177 Z0.000000 I-6.919539 J-6.931692
G02 X72.775083 Y160.435950 Z0.000000 I-2.704708 J-1.590227
G02 X72.758602 Y159.825033 Z0.000000 I-11.331279 J-0.000000
G02 X72.684940 Y159.467892 Z0.000000 I-1.222671 J0.066015
G02 X72.497763 Y159.195641 Z0.000000 I-0.627964 J0.231266
G02 X72.091141 Y158.966639 Z0.000000 I-0.750825 J0.857680
G02 X71.131191 Y158.803828 Z0.000000 I-1.062938 J3.355800
G02 X67.452343 Y158.750000 Z0.000000 I-3.678848 J125.688422
G02 X65.186165 Y158.803395 Z0.000000 I0.000000 J48.116749
G02 X63.582447 Y158.924841 Z0.000000 I1.330548 J28.219583
G02 X61.981675 Y159.184520 Z0.000000 I1.484353 J14.213960
G02 X61.752723 Y159.345210 Z0.000000 I0.078576 J0.355407
G01 X61.752723 Y159.345210 Z0.000000
G00 Z5.000000

(End cutting path id: path3724)


(Start cutting path id: path3724)
(Change tool to Cylindrical cutter)

G00 Z5.000000
G00 X70.429073 Y162.021250

G01 Z0.000000 F100.0(Penetrate)
G03 X69.081007 Y163.504475 Z0.000000 I-3.572417 J-1.892656 F400.000000
G03 X67.539603 Y164.038700 Z0.000000 I-1.821288 J-2.764156
G03 X65.941194 Y163.764442 Z0.000000 I-0.272243 J-3.208329
G03 X64.434493 Y162.529920 Z0.000000 I1.549138 J-3.427386
G03 X63.508448 Y161.038089 Z0.000000 I10.669245 J-7.656205
G03 X63.391053 Y160.567180 Z0.000000 I0.885788 J-0.470909
G03 X63.492252 Y160.432406 Z0.000000 I0.140343 J0.000000
G03 X64.577494 Y160.207922 Z0.000000 I1.966031 J6.769087
G03 X65.713373 Y160.105440 Z0.000000 I2.018769 J16.029261
G03 X67.429993 Y160.058500 Z0.000000 I1.716620 J31.365240
G01 X71.468933 Y160.058500 Z0.000000
G01 X70.429073 Y162.021250 Z0.000000
G00 Z5.000000

(End cutting path id: path3724)


(Start cutting path id: path3724)
(Change tool to Cylindrical cutter)

G00 Z5.000000
G00 X131.090090 Y143.677710

G01 Z0.000000 F100.0(Penetrate)
G01 X131.090090 Y148.887160 Z0.000000 F400.000000
G01 X124.889930 Y149.075270 Z0.000000
G01 X118.689770 Y149.263380 Z0.000000
G01 X118.689770 Y154.824500 Z0.000000
G01 X118.689770 Y160.385620 Z0.000000
G01 X124.889930 Y160.573740 Z0.000000
G01 X131.090090 Y160.761850 Z0.000000
G01 X131.090090 Y165.292500 Z0.000000
G01 X131.090090 Y169.823140 Z0.000000
G01 X124.889930 Y170.011250 Z0.000000
G01 X118.689770 Y170.199370 Z0.000000
G01 X118.689770 Y174.451990 Z0.000000
G01 X118.689770 Y178.704610 Z0.000000
G01 X124.889930 Y178.892730 Z0.000000
G01 X131.090090 Y179.080840 Z0.000000
G01 X131.090090 Y183.963160 Z0.000000
G01 X131.090090 Y188.845480 Z0.000000
G01 X120.700630 Y188.845480 Z0.000000
G01 X110.311180 Y188.845480 Z0.000000
G01 X110.311180 Y163.656870 Z0.000000
G01 X110.311180 Y138.468270 Z0.000000
G01 X120.700630 Y138.468270 Z0.000000
G01 X131.090090 Y138.468270 Z0.000000
G01 X131.090090 Y143.677710 Z0.000000
G00 Z5.000000

(End cutting path id: path3724)


(Start cutting path id: path3724)
(Change tool to Cylindrical cutter)

G00 Z5.000000
G00 X145.166130 Y142.393760

G01 Z0.000000 F100.0(Penetrate)
G02 X146.366553 Y144.039277 Z0.000000 I37.316606 J-25.962249 F400.000000
G02 X147.277190 Y145.166146 Z0.000000 I21.314338 J-16.293008
G02 X148.286600 Y146.227443 Z0.000000 I10.381944 J-8.863695
G02 X148.517560 Y146.319260 Z0.000000 I0.230960 J-0.244574
G02 X148.748526 Y146.227441 Z0.000000 I-0.000000 J-0.336400
G02 X149.757935 Y145.166146 Z0.000000 I-9.372430 J-9.924900
G02 X150.668572 Y144.039278 Z0.000000 I-20.403886 J-17.420035
G02 X151.869000 Y142.393760 Z0.000000 I-36.118336 J-27.609441
G01 X154.600100 Y138.468270 Z0.000000
G01 X159.543460 Y138.468270 Z0.000000
G01 X164.486820 Y138.468270 Z0.000000
G01 X159.183340 Y146.326050 Z0.000000
G02 X156.939367 Y149.682743 Z0.000000 I377.921413 J255.071463
G02 X155.437759 Y151.978391 Z0.000000 I204.660536 J135.509653
G02 X153.920284 Y154.390308 Z0.000000 I98.994367 J63.966332
G02 X153.879860 Y154.533720 Z0.000000 I0.234177 J0.143412
G02 X153.973849 Y154.854348 Z0.000000 I0.593880 J-0.000000
G02 X157.127670 Y159.597360 Z0.000000 I145.260299 J-93.169407
G03 X160.347641 Y164.329644 Z0.000000 I-403.582937 J278.070087
G03 X162.163230 Y167.091680 Z0.000000 I-135.650107 J91.145617
G01 X163.950990 Y169.872240 Z0.000000
G01 X159.257420 Y169.872240 Z0.000000
G01 X154.563850 Y169.872240 Z0.000000
G01 X152.116090 Y166.273870 Z0.000000
G02 X151.028177 Y164.773729 Z0.000000 I-25.452345 J17.313665
G02 X150.169124 Y163.739475 Z0.000000 I-14.959052 J11.551129
G02 X149.205286 Y162.797264 Z0.000000 I-7.394836 J6.600486
G02 X148.925380 Y162.699170 Z0.000000 I-0.266809 J0.312932
G02 X148.644567 Y162.807683 Z0.000000 I0.014477 J0.455068
G02 X147.707740 Y163.717905 Z0.000000 I6.491280 J7.618233
G02 X146.871228 Y164.711751 Z0.000000 I13.834306 J12.493179
G02 X145.823530 Y166.133980 Z0.000000 I23.259478 J18.231328
G01 X143.464640 Y169.545120 Z0.000000
G01 X138.617940 Y169.737340 Z0.000000
G03 X136.554636 Y169.787790 Z0.000000 I-2.691493 J-67.858555
G03 X135.194956 Y169.773479 Z0.000000 I-0.318036 J-34.380623
G03 X133.842724 Y169.671144 Z0.000000 I0.454291 J-14.988133
G03 X133.771240 Y169.590460 Z0.000000 I0.009792 J-0.080684
G03 X133.810158 Y169.451398 Z0.000000 I0.267911 J0.000000
G03 X135.149520 Y167.309775 Z0.000000 I82.216055 J49.927968
G03 X136.479147 Y165.271962 Z0.000000 I167.693545 J107.963542
G03 X138.463250 Y162.302630 Z0.000000 I307.260916 J203.163748
G02 X140.424755 Y159.314800 Z0.000000 I-114.098870 J-77.043457
G02 X141.776984 Y157.121640 Z0.000000 I-70.354301 J-44.891565
G02 X143.061707 Y154.808029 Z0.000000 I-37.676204 J-22.434691
G02 X143.155260 Y154.423000 Z0.000000 I-0.745540 J-0.385029
G02 X143.085242 Y154.137017 Z0.000000 I-0.619044 J-0.000000
G02 X142.000977 Y152.171246 Z0.000000 I-41.782432 J21.764127
G02 X140.882340 Y150.300318 Z0.000000 I-85.604054 J49.913192
G02 X139.279348 Y147.725924 Z0.000000 I-183.542700 J112.499858
G02 X135.581357 Y142.038879 Z0.000000 I-227.772835 J144.063047
G02 X133.581370 Y139.286080 Z0.000000 I-36.117443 J24.137427
G03 X133.463479 Y139.046024 Z0.000000 I0.501505 J-0.395263
G03 X133.491288 Y138.889774 Z0.000000 I0.188072 J-0.047127
G03 X133.627133 Y138.776167 Z0.000000 I0.268083 J0.182538
G03 X134.059443 Y138.638487 Z0.000000 I0.830161 J1.859119
G03 X134.984631 Y138.526897 Z0.000000 I1.189239 J5.968741
G03 X137.685910 Y138.468270 Z0.000000 I2.701279 J62.202792
G01 X142.435030 Y138.468270 Z0.000000
G01 X145.166130 Y142.393760 Z0.000000
G00 Z5.000000

(End cutting path id: path3724)


(Start cutting path id: path3724)
(Change tool to Cylindrical cutter)

G00 Z5.000000
G00 X137.745330 Y148.153970

G01 Z0.000000 F100.0(Penetrate)
G01 X141.898210 Y154.241310 Z0.000000 F400.000000
G01 X137.332010 Y161.120630 Z0.000000
G01 X132.765810 Y167.999950 Z0.000000
G01 X132.430660 Y163.538540 Z0.000000
G01 X132.095520 Y159.077130 Z0.000000
G01 X125.895360 Y158.889010 Z0.000000
G01 X119.695200 Y158.700900 Z0.000000
G01 X119.695200 Y154.472830 Z0.000000
G01 X119.695200 Y150.244760 Z0.000000
G01 X126.062930 Y150.244760 Z0.000000
G01 X132.430660 Y150.244760 Z0.000000
G01 X132.430660 Y145.534160 Z0.000000
G03 X132.486428 Y143.466854 Z0.000000 I38.345107 J-0.000000
G03 X132.596295 Y142.343923 Z0.000000 I12.927483 J0.697977
G03 X132.846659 Y141.472812 Z0.000000 I3.244233 J0.460885
G03 X133.011560 Y141.445100 Z0.000000 I0.091630 J0.040767
G03 X133.546952 Y142.103073 Z0.000000 I-4.523122 J4.227270
G03 X137.745330 Y148.153970 Z0.000000 I-381.185791 J268.965400
G01 X137.745330 Y148.153970 Z0.000000
G00 Z5.000000

(End cutting path id: path3724)


(Start cutting path id: path3724)
(Change tool to Cylindrical cutter)

G00 Z5.000000
G00 X70.492423 Y147.300630

G01 Z0.000000 F100.0(Penetrate)
G02 X71.603769 Y148.140016 Z0.000000 I5.286951 J-5.844517 F400.000000
G02 X72.691086 Y148.625115 Z0.000000 I2.280409 J-3.650257
G02 X73.896692 Y148.845249 Z0.000000 I1.696711 J-5.880937
G02 X76.161643 Y148.936260 Z0.000000 I2.264951 J-28.137849
G03 X78.663621 Y148.998086 Z0.000000 I-0.000000 J50.656126
G03 X79.361292 Y149.141763 Z0.000000 I-0.114912 J2.323720
G03 X79.643055 Y149.325434 Z0.000000 I-0.268069 J0.719191
G03 X79.755465 Y149.535466 Z0.000000 I-0.307905 J0.299890
G03 X79.764071 Y149.799740 Z0.000000 I-0.729907 J0.156044
G03 X79.672173 Y150.244760 Z0.000000 I-3.869760 J-0.567116
G03 X79.515857 Y150.657617 Z0.000000 I-2.132058 J-0.571218
G03 X79.269818 Y150.963947 Z0.000000 I-0.825854 J-0.411340
G03 X78.921444 Y151.157896 Z0.000000 I-0.733893 J-0.908381
G03 X78.119714 Y151.356551 Z0.000000 I-1.459608 J-4.173520
G03 X76.471502 Y151.496878 Z0.000000 I-1.911836 J-12.705813
G03 X70.976013 Y151.553260 Z0.000000 I-5.495489 J-267.790617
G03 X65.126588 Y151.508835 Z0.000000 I0.000000 J-385.118428
G03 X63.731688 Y151.369101 Z0.000000 I0.125916 J-8.289158
G03 X63.121391 Y151.141037 Z0.000000 I0.346904 J-1.858915
G03 X62.954144 Y150.932062 Z0.000000 I0.189731 J-0.323258
G03 X62.941149 Y150.625444 Z0.000000 I0.552945 J-0.177020
G03 X63.087783 Y150.081190 Z0.000000 I7.219918 J1.653330
G03 X63.811340 Y148.556688 Z0.000000 I5.697278 J1.770076
G03 X65.000414 Y147.100368 Z0.000000 I7.875623 J5.216790
G03 X66.464919 Y145.952069 Z0.000000 I5.436750 J5.425823
G03 X67.495083 Y145.665010 Z0.000000 I1.030164 J1.704936
G03 X67.989442 Y145.751292 Z0.000000 I-0.000000 J1.459371
G03 X68.866096 Y146.145474 Z0.000000 I-2.117178 J5.880495
G03 X69.680742 Y146.652013 Z0.000000 I-4.050097 J7.421959
G03 X70.492423 Y147.300630 Z0.000000 I-4.891255 J6.953106
G01 X70.492423 Y147.300630 Z0.000000
G00 Z5.000000

(End cutting path id: path3724)


(Start cutting path id: path3724)
(Change tool to Cylindrical cutter)

G00 Z5.000000
G00 X172.891950 Y136.616470

G01 Z0.000000 F100.0(Penetrate)
G02 X171.069744 Y138.360920 Z0.000000 I1.702578 J3.602408 F400.000000
G02 X170.019958 Y141.633696 Z0.000000 I8.746120 J4.610188
G02 X170.100098 Y145.127772 Z0.000000 I10.961469 J1.496543
G02 X171.355990 Y147.866650 Z0.000000 I6.027531 J-1.106500
G02 X173.152313 Y149.226841 Z0.000000 I3.625439 J-2.921658
G02 X175.330836 Y149.695989 Z0.000000 I2.298515 J-5.380681
G02 X177.486248 Y149.289595 Z0.000000 I0.109499 J-5.338319
G02 X179.030830 Y148.024080 Z0.000000 I-1.323706 J-3.190958
G02 X180.321082 Y144.760300 Z0.000000 I-6.837556 J-4.589977
G02 X180.298170 Y141.302581 Z0.000000 I-10.182529 J-1.661462
G02 X179.075589 Y138.177105 Z0.000000 I-8.405635 J1.486147
G02 X176.993570 Y136.501360 Z0.000000 I-3.549572 J2.278876
G02 X175.573083 Y136.032030 Z0.000000 I-7.182655 J19.354926
G02 X174.863466 Y135.941129 Z0.000000 I-0.644807 J2.218404
G02 X174.166780 Y136.077483 Z0.000000 I0.060545 J2.157348
G02 X172.891950 Y136.616470 Z0.000000 I5.851720 J15.617802
G01 X172.891950 Y136.616470 Z0.000000
G00 Z5.000000

(End cutting path id: path3724)


(Start cutting path id: path3724)
(Change tool to Cylindrical cutter)

G00 Z5.000000
G00 X176.166920 Y137.593060

G01 Z0.000000 F100.0(Penetrate)
G03 X175.329068 Y137.752113 Z0.000000 I-0.837852 J-2.127266 F400.000000
G03 X174.491200 Y137.593060 Z0.000000 I0.000000 J-2.286408
G03 X174.334176 Y137.510400 Z0.000000 I0.297869 J-0.756317
G03 X174.298099 Y137.464933 Z0.000000 I0.053892 J-0.079810
G01 X174.306711 Y137.418878 Z0.000000
G03 X174.391700 Y137.360006 Z0.000000 I0.167868 J0.151558
G03 X174.630486 Y137.301077 Z0.000000 I0.339210 J0.861251
G03 X175.329060 Y137.263070 Z0.000000 I0.698574 J6.400961
G03 X176.027630 Y137.301077 Z0.000000 I0.000000 J6.438948
G03 X176.266420 Y137.360006 Z0.000000 I-0.100428 J0.920215
G03 X176.351411 Y137.418878 Z0.000000 I-0.082881 J0.210438
G01 X176.360024 Y137.464933 Z0.000000
G03 X176.323947 Y137.510400 Z0.000000 I-0.089968 J-0.034341
G03 X176.166920 Y137.593060 Z0.000000 I-0.454893 J-0.673666
G01 X176.166920 Y137.593060 Z0.000000
G00 Z5.000000

(End cutting path id: path3724)


(Start cutting path id: path3724)
(Change tool to Cylindrical cutter)

G00 Z5.000000
G00 X173.011690 Y138.423060

G01 Z0.000000 F100.0(Penetrate)
G02 X172.935490 Y138.959070 Z0.000000 I0.556799 J0.352577 F400.000000
G02 X173.307270 Y139.443040 Z0.000000 I0.804308 J-0.233077
G03 X173.741588 Y139.985903 Z0.000000 I-0.519068 J0.860451
G03 X173.921670 Y141.287440 Z0.000000 I-3.405429 J1.134405
G03 X173.848310 Y142.212653 Z0.000000 I-14.237963 J-0.663406
G01 X173.789070 Y142.249539 Z0.000000
G03 X173.714912 Y142.174723 Z0.000000 I0.041459 J-0.115256
G03 X173.359620 Y141.085260 Z0.000000 I25.476104 J-8.910838
G02 X172.632396 Y139.847530 Z0.000000 I-2.923487 J0.885180
G02 X171.972400 Y139.650110 Z0.000000 I-0.505754 J0.488863
G03 X171.498197 Y139.695646 Z0.000000 I-0.417775 J-1.858729
G03 X171.418533 Y139.616164 Z0.000000 I0.002433 J-0.082104
G03 X171.465290 Y139.457858 Z0.000000 I0.262939 J-0.008395
G03 X171.946300 Y138.832300 Z0.000000 I6.593852 J4.572490
G03 X172.744746 Y138.033869 Z0.000000 I5.331867 J4.533518
G03 X173.065761 Y137.843323 Z0.000000 I0.719041 J0.845694
G03 X173.192944 Y137.843672 Z0.000000 I0.063140 J0.164382
G03 X173.240679 Y137.915883 Z0.000000 I-0.027303 J0.069931
G03 X173.210982 Y138.047942 Z0.000000 I-0.356670 J-0.010837
G03 X173.011750 Y138.423060 Z0.000000 I-2.555592 J-1.116855
G01 X173.011690 Y138.423060 Z0.000000
G00 Z5.000000

(End cutting path id: path3724)


(Start cutting path id: path3724)
(Change tool to Cylindrical cutter)

G00 Z5.000000
G00 X176.244460 Y138.968970

G01 Z0.000000 F100.0(Penetrate)
G02 X175.662199 Y139.573641 Z0.000000 I0.941592 J1.489372 F400.000000
G02 X175.205740 Y140.758140 Z0.000000 I3.484473 J2.022977
G03 X175.000009 Y141.448222 Z0.000000 I-4.401896 J-0.936609
G03 X174.908641 Y141.474393 Z0.000000 I-0.055606 J-0.021556
G03 X174.814770 Y141.337902 Z0.000000 I0.155411 J-0.207409
G03 X174.550860 Y140.267450 Z0.000000 I14.959646 J-4.255917
G03 X174.410903 Y139.194758 Z0.000000 I6.924574 J-1.448945
G03 X174.505395 Y138.802513 Z0.000000 I0.705412 J-0.037570
G03 X174.801907 Y138.576883 Z0.000000 I0.419368 J0.243468
G03 X175.589580 Y138.478280 Z0.000000 I0.766269 J2.925808
G03 X176.215703 Y138.535396 Z0.000000 I-0.026538 J3.751336
G03 X176.405953 Y138.617849 Z0.000000 I-0.077759 J0.440135
G03 X176.438838 Y138.743239 Z0.000000 I-0.062488 J0.083396
G03 X176.244460 Y138.968970 Z0.000000 I-0.467107 J-0.205673
G01 X176.244460 Y138.968970 Z0.000000
G00 Z5.000000

(End cutting path id: path3724)


(Start cutting path id: path3724)
(Change tool to Cylindrical cutter)

G00 Z5.000000
G00 X177.801980 Y142.884450

G01 Z0.000000 F100.0(Penetrate)
G03 X177.722195 Y143.105757 Z0.000000 I-1.347697 J-0.360835 F400.000000
G03 X177.682953 Y143.148319 Z0.000000 I-0.085066 J-0.039057
G01 X177.643844 Y143.140115 Z0.000000
G03 X177.585480 Y143.020408 Z0.000000 I0.278668 J-0.209947
G03 X177.530977 Y142.698738 Z0.000000 I1.683032 J-0.450624
G03 X177.495430 Y141.739510 Z0.000000 I12.924658 J-0.959228
G03 X177.530977 Y140.780281 Z0.000000 I12.960205 J-0.000000
G03 X177.585480 Y140.458614 Z0.000000 I1.737513 J0.128953
G03 X177.643844 Y140.338908 Z0.000000 I0.337018 J0.090236
G01 X177.682953 Y140.330705 Z0.000000
G03 X177.722195 Y140.373269 Z0.000000 I-0.045829 J0.081622
G03 X177.801980 Y140.594580 Z0.000000 I-1.267969 J0.582156
G03 X177.952591 Y141.739506 Z0.000000 I-4.276478 J1.144926
G03 X177.801980 Y142.884450 Z0.000000 I-4.427223 J0.000000
G01 X177.801980 Y142.884450 Z0.000000
G00 Z5.000000

(End cutting path id: path3724)


(Start cutting path id: path3724)
(Change tool to Cylindrical cutter)

G00 Z5.000000
G00 X176.457230 Y141.862180

G01 Z0.000000 F100.0(Penetrate)
G03 X176.271615 Y142.145011 Z0.000000 I-0.821420 J-0.336755 F400.000000
G03 X176.186571 Y142.146075 Z0.000000 I-0.043054 J-0.041955
G03 X176.120106 Y142.024070 Z0.000000 I0.164896 J-0.168938
G03 X176.052270 Y141.466910 Z0.000000 I3.485707 J-0.707105
G03 X176.195132 Y140.651527 Z0.000000 I1.932859 J-0.081553
G03 X176.404320 Y140.608200 Z0.000000 I0.119202 J0.048868
G03 X176.600099 Y141.046808 Z0.000000 I-0.454930 J0.466063
G03 X176.457220 Y141.862180 Z0.000000 I-1.932659 J0.081542
G01 X176.457230 Y141.862180 Z0.000000
G00 Z5.000000

(End cutting path id: path3724)


(Start cutting path id: path3724)
(Change tool to Cylindrical cutter)

G00 Z5.000000
G00 X171.099100 Y144.192950

G01 Z0.000000 F100.0(Penetrate)
G03 X171.019315 Y144.414257 Z0.000000 I-1.347741 J-0.360847 F400.000000
G03 X170.980075 Y144.456819 Z0.000000 I-0.085065 J-0.039056
G01 X170.940967 Y144.448616 Z0.000000
G03 X170.882605 Y144.328908 Z0.000000 I0.278675 J-0.209944
G03 X170.828104 Y144.007239 Z0.000000 I1.683090 J-0.450619
G03 X170.792560 Y143.048010 Z0.000000 I12.925502 J-0.959229
G03 X170.828104 Y142.088781 Z0.000000 I12.961046 J0.000000
G03 X170.882605 Y141.767114 Z0.000000 I1.737568 J0.128949
G03 X170.940967 Y141.647408 Z0.000000 I0.337023 J0.090233
G01 X170.980075 Y141.639205 Z0.000000
G03 X171.019315 Y141.681769 Z0.000000 I-0.045830 J0.081621
G03 X171.099100 Y141.903080 Z0.000000 I-1.268014 J0.582168
G03 X171.249711 Y143.048006 Z0.000000 I-4.276478 J1.144926
G03 X171.099100 Y144.192950 Z0.000000 I-4.427223 J-0.000000
G01 X171.099100 Y144.192950 Z0.000000
G00 Z5.000000

(End cutting path id: path3724)


(Start cutting path id: path3724)
(Change tool to Cylindrical cutter)

G00 Z5.000000
G00 X172.439680 Y144.192950

G01 Z0.000000 F100.0(Penetrate)
G03 X172.359895 Y144.414257 Z0.000000 I-1.347697 J-0.360835 F400.000000
G03 X172.320653 Y144.456819 Z0.000000 I-0.085066 J-0.039057
G01 X172.281544 Y144.448615 Z0.000000
G03 X172.223180 Y144.328908 Z0.000000 I0.278668 J-0.209947
G03 X172.168677 Y144.007238 Z0.000000 I1.683032 J-0.450624
G03 X172.133130 Y143.048010 Z0.000000 I12.924658 J-0.959228
G03 X172.168677 Y142.088781 Z0.000000 I12.960205 J-0.000000
G03 X172.223180 Y141.767114 Z0.000000 I1.737513 J0.128953
G03 X172.281544 Y141.647408 Z0.000000 I0.337018 J0.090236
G01 X172.320653 Y141.639205 Z0.000000
G03 X172.359895 Y141.681769 Z0.000000 I-0.045829 J0.081622
G03 X172.439680 Y141.903080 Z0.000000 I-1.267969 J0.582156
G03 X172.590291 Y143.048006 Z0.000000 I-4.276478 J1.144926
G03 X172.439680 Y144.192950 Z0.000000 I-4.427223 J-0.000000
G01 X172.439680 Y144.192950 Z0.000000
G00 Z5.000000

(End cutting path id: path3724)


(Start cutting path id: path3724)
(Change tool to Cylindrical cutter)

G00 Z5.000000
G00 X173.617960 Y147.683640

G01 Z0.000000 F100.0(Penetrate)
G03 X173.156478 Y148.010598 Z0.000000 I-0.628517 J-0.397959 F400.000000
G03 X172.590670 Y147.920350 Z0.000000 I-0.171432 J-0.743997
G03 X172.257624 Y147.466101 Z0.000000 I0.377716 J-0.626150
G03 X172.348150 Y146.917630 Z0.000000 I0.692311 J-0.167439
G03 X172.809637 Y146.590675 Z0.000000 I0.628528 J0.397984
G03 X173.375450 Y146.680920 Z0.000000 I0.171437 J0.744013
G03 X173.708490 Y147.135161 Z0.000000 I-0.377709 J0.626138
G03 X173.617960 Y147.683640 Z0.000000 I-0.692316 J0.167439
G01 X173.617960 Y147.683640 Z0.000000
G00 Z5.000000

(End cutting path id: path3724)


(Start cutting path id: path3724)
(Change tool to Cylindrical cutter)

G00 Z5.000000
G00 X175.817820 Y148.677290

G01 Z0.000000 F100.0(Penetrate)
G03 X175.371589 Y148.869497 Z0.000000 I-0.473450 J-0.485080 F400.000000
G03 X174.533100 Y148.728890 Z0.000000 I-0.083331 J-2.073483
G03 X174.243281 Y148.547082 Z0.000000 I0.333175 J-0.853013
G03 X174.242246 Y148.464708 Z0.000000 I0.038686 J-0.041680
G03 X174.365825 Y148.400040 Z0.000000 I0.169676 J0.173836
G03 X174.938070 Y148.333620 Z0.000000 I0.725889 J3.755634
G03 X175.776555 Y148.474178 Z0.000000 I0.083359 J2.073967
G03 X175.817820 Y148.677240 Z0.000000 I-0.044852 J0.114838
G01 X175.817820 Y148.677290 Z0.000000
G00 Z5.000000

(End cutting path id: path3724)


(Footer)
M5
G00 X0.0000 Y0.0000
M2
(Using default footer. To add your own footer create file "footer" in the output dir.)
(end)
%