%
(Header)
(Generated by gcodetools from Inkscape.)
(Using default header. To add your own header create file "header" in the output dir.)
M3
(Header end.)
G21 (All units in mm)

(Start cutting path id: path7016)
(Change tool to Cylindrical cutter)

G00 Z5.000000
G00 X188.764850 Y197.854590

G01 Z0.000000 F100.0(Penetrate)
G01 X188.764850 Y193.637790 Z0.000000 F400.000000
G03 X188.786057 Y192.746417 Z0.000000 I18.743486 J0.000000
G03 X188.826850 Y192.335550 Z0.000000 I4.014739 J0.191143
G03 X188.929296 Y191.949867 Z0.000000 I2.641346 J0.495153
G03 X189.037690 Y191.727830 Z0.000000 I0.973321 J0.337680
G03 X189.193455 Y191.550285 Z0.000000 I0.827647 J0.569018
G03 X189.409770 Y191.392970 Z0.000000 I0.861643 J0.957416
G03 X189.652536 Y191.286795 Z0.000000 I0.855546 J1.625552
G03 X190.215920 Y191.107710 Z0.000000 I3.050183 J8.619873
G01 X190.215920 Y190.500000 Z0.000000
G01 X184.982130 Y190.500000 Z0.000000
G01 X184.982130 Y191.107710 Z0.000000
G03 X185.723117 Y191.358056 Z0.000000 I-1.335175 J5.173703
G03 X186.011520 Y191.541800 Z0.000000 I-0.396877 J0.941144
G03 X186.214417 Y191.820352 Z0.000000 I-0.662781 J0.695942
G03 X186.346390 Y192.236330 Z0.000000 I-1.388301 J0.669374
G03 X186.404112 Y192.685610 Z0.000000 I-3.463330 J0.673305
G03 X186.433190 Y193.600590 Z0.000000 I-14.380993 J0.914980
G01 X186.433190 Y204.328613 Z0.000000
G03 X186.411856 Y205.182666 Z0.000000 I-17.105615 J0.000000
G03 X186.371190 Y205.568847 Z0.000000 I-3.529617 J-0.176448
G03 X186.275586 Y205.952112 Z0.000000 I-2.183497 J-0.341107
G03 X186.160350 Y206.176562 Z0.000000 I-0.851813 J-0.295527
G03 X185.999507 Y206.373764 Z0.000000 I-0.802739 J-0.490542
G03 X185.788280 Y206.523828 Z0.000000 I-0.665455 J-0.712987
G03 X185.543571 Y206.638810 Z0.000000 I-0.792725 J-1.369223
G03 X184.982130 Y206.821484 Z0.000000 I-2.613147 J-7.077257
G01 X184.982130 Y207.429199 Z0.000000
G01 X191.121290 Y207.429199 Z0.000000
G02 X193.914080 Y207.094933 Z0.000000 I0.000000 J-11.833992
G02 X195.462110 Y206.375000 Z0.000000 I-1.028912 J-4.236696
G02 X196.479421 Y205.107183 Z0.000000 I-1.853232 J-2.529114
G02 X196.900780 Y203.100781 Z0.000000 I-4.566301 J-2.006402
G02 X196.644829 Y201.490710 Z0.000000 I-5.192079 J-0.000000
G02 X195.958200 Y200.211035 Z0.000000 I-3.916879 J1.277611
G02 X194.885325 Y199.217988 Z0.000000 I-3.597237 J2.810324
G02 X193.155270 Y198.350683 Z0.000000 I-4.423774 J6.665152
G01 X193.155270 Y198.251463 Z0.000000
G02 X193.860920 Y197.868482 Z0.000000 I-1.408500 J-3.436768
G02 X194.445120 Y197.358494 Z0.000000 I-1.972337 J-2.848944
G02 X194.936455 Y196.748394 Z0.000000 I-3.326363 J-3.181731
G02 X195.648140 Y195.572558 Z0.000000 I-11.752896 J-7.916840
G01 X196.764350 Y193.538568 Z0.000000
G03 X197.269779 Y192.659405 Z0.000000 I17.607633 J9.537731
G03 X197.595310 Y192.174318 Z0.000000 I5.675530 J3.456946
G03 X197.971548 Y191.732916 Z0.000000 I3.298553 J2.430538
G03 X198.302250 Y191.454978 Z0.000000 I1.621164 J1.593219
G03 X198.682833 Y191.258643 Z0.000000 I0.956086 J1.386277
G03 X199.257230 Y191.107708 Z0.000000 I1.106854 J3.043808
G01 X199.257230 Y190.500000 Z0.000000
G01 X195.821780 Y190.500000 Z0.000000
G02 X195.370548 Y191.170043 Z0.000000 I11.181912 J8.017288
G02 X194.928810 Y191.913870 Z0.000000 I13.341722 J8.426346
G02 X194.512123 Y192.673109 Z0.000000 I57.718533 J32.171136
G02 X194.097850 Y193.451760 Z0.000000 I60.293676 J32.578164
G01 X193.006440 Y195.522950 Z0.000000
G03 X192.488589 Y196.452038 Z0.000000 I-19.599777 J-10.315573
G03 X192.187890 Y196.912010 Z0.000000 I-5.093463 J-3.001493
G03 X191.849868 Y197.329385 Z0.000000 I-2.993724 J-2.078977
G03 X191.604980 Y197.532129 Z0.000000 I-0.930545 J-0.874709
G03 X191.331111 Y197.687190 Z0.000000 I-0.872177 J-1.221053
G03 X191.034470 Y197.780176 Z0.000000 I-0.583776 J-1.342690
G03 X190.733766 Y197.829780 Z0.000000 I-0.454056 J-1.816286
G03 X190.129100 Y197.854586 Z0.000000 I-0.604666 J-7.357166
G01 X188.764850 Y197.854590 Z0.000000
G00 Z5.000000

(End cutting path id: path7016)


(Start cutting path id: path7016)
(Change tool to Cylindrical cutter)

G00 Z5.000000
G00 X188.764850 Y206.288183

G01 Z0.000000 F100.0(Penetrate)
G01 X188.764850 Y198.921191 Z0.000000 F400.000000
G01 X190.166320 Y198.921191 Z0.000000
G03 X191.240312 Y198.966810 Z0.000000 I0.000000 J12.665036
G03 X191.915050 Y199.070019 Z0.000000 I-0.433042 J5.088248
G03 X192.553462 Y199.297202 Z0.000000 I-0.752079 J3.124026
G03 X193.155280 Y199.665332 Z0.000000 I-1.507146 J3.139873
G03 X193.647902 Y200.160558 Z0.000000 I-1.541642 J2.026166
G03 X194.060650 Y200.868359 Z0.000000 I-2.798969 J2.106439
G03 X194.308063 Y201.670898 Z0.000000 I-3.227073 J1.434272
G03 X194.407920 Y202.778320 Z0.000000 I-6.090742 J1.107422
G03 X194.289208 Y203.927334 Z0.000000 I-5.620014 J0.000000
G03 X193.998640 Y204.737890 Z0.000000 I-3.056853 J-0.638461
G03 X193.500381 Y205.417205 Z0.000000 I-2.316137 J-1.176435
G03 X192.783210 Y205.928515 Z0.000000 I-1.987030 J-2.028427
G03 X191.935160 Y206.212830 Z0.000000 I-1.431563 J-2.863106
G03 X190.575600 Y206.337793 Z0.000000 I-1.359560 J-7.333349
G03 X189.459925 Y206.322513 Z0.000000 I-0.000000 J-40.737079
G03 X188.764850 Y206.288183 Z0.000000 I0.434013 J-15.841329
G01 X188.764850 Y206.288183 Z0.000000
G00 Z5.000000

(End cutting path id: path7016)


(Start cutting path id: path7014)
(Change tool to Cylindrical cutter)

G00 Z5.000000
G00 X177.528330 Y190.500000

G01 Z0.000000 F100.0(Penetrate)
G01 X177.528330 Y191.107710 Z0.000000 F400.000000
G03 X178.139010 Y191.259224 Z0.000000 I-1.348004 J6.739587
G03 X178.446100 Y191.380570 Z0.000000 I-0.539432 J1.814390
G03 X178.722935 Y191.565086 Z0.000000 I-0.514348 J1.071621
G03 X178.904990 Y191.789840 Z0.000000 I-0.598005 J0.670508
G03 X179.009271 Y192.074056 Z0.000000 I-0.903305 J0.492670
G03 X179.053810 Y192.509180 Z0.000000 I-2.103225 J0.435124
G03 X179.030904 Y192.928535 Z0.000000 I-3.850242 J-0.000000
G03 X178.954610 Y193.414550 Z0.000000 I-5.251818 J-0.575434
G03 X178.841787 Y193.907202 Z0.000000 I-8.924622 J-1.784601
G03 X178.669350 Y194.518360 Z0.000000 I-13.910991 J-3.595048
G01 X178.210470 Y196.118260 Z0.000000
G01 X172.430970 Y196.118260 Z0.000000
G01 X172.009290 Y194.902830 Z0.000000
G03 X171.707059 Y193.979403 Z0.000000 I21.247129 J-7.465214
G03 X171.587610 Y193.513770 Z0.000000 I5.274732 J-1.601262
G03 X171.510487 Y193.040182 Z0.000000 I5.102570 J-1.074020
G03 X171.488410 Y192.658010 Z0.000000 I3.296848 J-0.382172
G03 X171.603477 Y191.963872 Z0.000000 I2.151213 J-0.000000
G03 X171.860480 Y191.566600 Z0.000000 I0.920770 J0.313898
G03 X172.284534 Y191.303806 Z0.000000 I0.934940 J1.035122
G03 X173.026300 Y191.107710 Z0.000000 I1.208371 J3.069894
G01 X173.026300 Y190.500000 Z0.000000
G01 X167.730500 Y190.500000 Z0.000000
G01 X167.730500 Y191.107710 Z0.000000
G03 X168.345312 Y191.349627 Z0.000000 I-0.245144 J1.525217
G03 X168.933520 Y191.913870 Z0.000000 I-1.308810 J1.953116
G03 X169.387831 Y192.644876 Z0.000000 I-3.942535 J2.956915
G03 X169.938110 Y193.898240 Z0.000000 I-11.121551 J5.630300
G01 X175.109890 Y207.627636 Z0.000000
G01 X177.069460 Y207.627636 Z0.000000
G01 X181.286260 Y193.799020 Z0.000000
G03 X181.603274 Y192.838843 Z0.000000 I23.689306 J7.288885
G03 X181.807160 Y192.323140 Z0.000000 I7.029677 J2.481068
G03 X182.083217 Y191.844757 Z0.000000 I2.805440 J1.300073
G03 X182.365260 Y191.529390 Z0.000000 I1.484219 J1.043582
G03 X182.715484 Y191.297210 Z0.000000 I1.005989 J1.137218
G03 X183.245830 Y191.107710 Z0.000000 I1.178009 J2.459968
G01 X183.245830 Y190.500000 Z0.000000
G01 X177.528330 Y190.500000 Z0.000000
G00 Z5.000000

(End cutting path id: path7014)


(Start cutting path id: path7014)
(Change tool to Cylindrical cutter)

G00 Z5.000000
G00 X172.765830 Y197.197266

G01 Z0.000000 F100.0(Penetrate)
G01 X177.950010 Y197.197266 Z0.000000 F400.000000
G01 X175.593560 Y205.196777 Z0.000000
G01 X172.765830 Y197.197266 Z0.000000
G00 Z5.000000

(End cutting path id: path7014)


(Start cutting path id: path7012)
(Change tool to Cylindrical cutter)

G00 Z5.000000
G00 X166.130570 Y206.821484

G01 Z0.000000 F100.0(Penetrate)
G03 X165.593737 Y206.662434 Z0.000000 I1.577298 J-6.309263 F400.000000
G03 X165.336820 Y206.548633 Z0.000000 I0.532481 J-1.549038
G03 X165.120523 Y206.391032 Z0.000000 I0.640296 J-1.105989
G03 X164.952340 Y206.201367 Z0.000000 I0.768514 J-0.850870
G03 X164.845787 Y205.990615 Z0.000000 I0.727453 J-0.500101
G03 X164.741500 Y205.593652 Z0.000000 I2.519141 J-0.873988
G03 X164.700419 Y205.182799 Z0.000000 I4.028892 J-0.610323
G03 X164.679500 Y204.328613 Z0.000000 I17.428697 J-0.854186
G01 X164.679500 Y193.600590 Z0.000000
G03 X164.696426 Y192.770717 Z0.000000 I20.352655 J0.000000
G03 X164.729100 Y192.385160 Z0.000000 I4.419182 J0.180341
G03 X164.816462 Y192.009467 Z0.000000 I2.777898 J0.447955
G03 X164.915140 Y191.777440 Z0.000000 I1.149689 J0.351952
G03 X165.074980 Y191.577811 Z0.000000 I0.863963 J0.527960
G03 X165.299610 Y191.405370 Z0.000000 I0.863398 J0.892172
G03 X165.569977 Y191.280863 Z0.000000 I0.844112 J1.477182
G03 X166.130570 Y191.107710 Z0.000000 I2.229207 J6.223146
G01 X166.130570 Y190.500000 Z0.000000
G01 X160.958790 Y190.500000 Z0.000000
G01 X160.958790 Y191.107710 Z0.000000
G03 X161.642048 Y191.328736 Z0.000000 I-1.190483 J4.846742
G03 X161.938570 Y191.504590 Z0.000000 I-0.431834 J1.066070
G03 X162.155723 Y191.762360 Z0.000000 I-0.580112 J0.709055
G03 X162.310640 Y192.161910 Z0.000000 I-1.288803 J0.729515
G03 X162.375381 Y192.599887 Z0.000000 I-2.772676 J0.633623
G03 X162.409840 Y193.600590 Z0.000000 I-14.513014 J1.000703
G01 X162.409840 Y198.350683 Z0.000000
G02 X162.422116 Y200.223278 Z0.000000 I142.824610 J0.000000
G02 X162.459440 Y202.133398 Z0.000000 I148.643789 J-1.949058
G02 X162.540252 Y204.054470 Z0.000000 I98.045543 J-3.162161
G02 X162.595870 Y204.762695 Z0.000000 I13.372951 J-0.693901
G01 X162.385030 Y204.762695 Z0.000000
G01 X157.473700 Y192.471970 Z0.000000
G01 X156.047430 Y192.471970 Z0.000000
G01 X151.483400 Y204.961133 Z0.000000
G01 X151.272560 Y204.961133 Z0.000000
G02 X151.318996 Y204.203758 Z0.000000 I-18.416202 J-1.509239
G02 X151.384180 Y202.220215 Z0.000000 I-126.297524 J-5.143288
G02 X151.430259 Y200.235591 Z0.000000 I-123.700830 J-3.864920
G02 X151.446180 Y198.139844 Z0.000000 I-137.926237 J-2.095747
G01 X151.446180 Y193.600590 Z0.000000
G03 X151.463106 Y192.770717 Z0.000000 I20.352655 J-0.000000
G03 X151.495780 Y192.385160 Z0.000000 I4.419182 J0.180341
G03 X151.583142 Y192.009467 Z0.000000 I2.777898 J0.447955
G03 X151.681820 Y191.777440 Z0.000000 I1.149689 J0.351952
G03 X151.841660 Y191.577811 Z0.000000 I0.863963 J0.527960
G03 X152.066290 Y191.405370 Z0.000000 I0.863398 J0.892172
G03 X152.336657 Y191.280863 Z0.000000 I0.844112 J1.477182
G03 X152.897250 Y191.107710 Z0.000000 I2.229207 J6.223146
G01 X152.897250 Y190.500000 Z0.000000
G01 X148.370390 Y190.500000 Z0.000000
G01 X148.370390 Y191.107710 Z0.000000
G03 X149.111386 Y191.358056 Z0.000000 I-1.335178 J5.173781
G03 X149.399790 Y191.541800 Z0.000000 I-0.396870 J0.941136
G03 X149.602679 Y191.820350 Z0.000000 I-0.662796 J0.695931
G03 X149.734650 Y192.236330 Z0.000000 I-1.388369 J0.669387
G03 X149.792372 Y192.685610 Z0.000000 I-3.463330 J0.673305
G03 X149.821450 Y193.600590 Z0.000000 I-14.380993 J0.914980
G01 X149.821450 Y204.328613 Z0.000000
G03 X149.800116 Y205.182666 Z0.000000 I-17.105615 J0.000000
G03 X149.759450 Y205.568847 Z0.000000 I-3.529617 J-0.176448
G03 X149.663846 Y205.952112 Z0.000000 I-2.183497 J-0.341107
G03 X149.548610 Y206.176562 Z0.000000 I-0.851813 J-0.295527
G03 X149.387767 Y206.373764 Z0.000000 I-0.802739 J-0.490542
G03 X149.176540 Y206.523828 Z0.000000 I-0.665455 J-0.712987
G03 X148.931831 Y206.638810 Z0.000000 I-0.792725 J-1.369223
G03 X148.370390 Y206.821484 Z0.000000 I-2.613147 J-7.077257
G01 X148.370390 Y207.429199 Z0.000000
G01 X152.798030 Y207.429199 Z0.000000
G01 X157.151250 Y195.361720 Z0.000000
G01 X161.938550 Y207.429199 Z0.000000
G01 X166.130550 Y207.429199 Z0.000000
G01 X166.130570 Y206.821484 Z0.000000
G00 Z5.000000

(End cutting path id: path7012)


(Start cutting path id: path7010)
(Change tool to Cylindrical cutter)

G00 Z5.000000
G00 X144.401670 Y196.353910

G01 Z0.000000 F100.0(Penetrate)
G02 X144.330435 Y195.010927 Z0.000000 I-12.695111 J0.000000 F400.000000
G02 X144.153620 Y194.022270 Z0.000000 I-7.040387 J0.748987
G02 X143.848922 Y193.122438 Z0.000000 I-5.880031 J1.489572
G02 X143.446690 Y192.372750 Z0.000000 I-4.471340 J1.916269
G02 X142.961909 Y191.777220 Z0.000000 I-3.512639 J2.364326
G02 X142.367680 Y191.268950 Z0.000000 I-3.139691 J3.069177
G02 X141.692463 Y190.886643 Z0.000000 I-2.447371 J3.535036
G02 X140.804990 Y190.562010 Z0.000000 I-2.628441 J5.810165
G02 X139.876920 Y190.375512 Z0.000000 I-1.654014 J5.828454
G02 X138.646980 Y190.301560 Z0.000000 I-1.229940 J10.190911
G02 X137.160862 Y190.397614 Z0.000000 I-0.000000 J11.544444
G02 X136.067290 Y190.636430 Z0.000000 I0.839585 J6.467789
G02 X135.074840 Y191.089104 Z0.000000 I1.323805 J4.216598
G02 X134.293760 Y191.727830 Z0.000000 I1.981795 J3.220426
G02 X133.701215 Y192.554306 Z0.000000 I3.358941 J3.033858
G02 X133.289170 Y193.526170 Z0.000000 I4.257648 J2.378411
G02 X133.071890 Y194.581484 Z0.000000 I5.996269 J1.784606
G02 X132.979110 Y196.167870 Z0.000000 I13.515955 J1.586386
G01 X132.979110 Y204.328613 Z0.000000
G03 X132.956145 Y205.293888 Z0.000000 I-20.297568 J-0.000000
G03 X132.917110 Y205.630859 Z0.000000 I-2.502528 J-0.119145
G03 X132.829969 Y205.968441 Z0.000000 I-2.261909 J-0.403836
G03 X132.731070 Y206.176562 Z0.000000 I-0.949938 J-0.323851
G03 X132.596992 Y206.353340 Z0.000000 I-0.710532 J-0.399670
G03 X132.396210 Y206.511426 Z0.000000 I-0.764720 J-0.764711
G03 X132.160250 Y206.632049 Z0.000000 I-0.638119 J-0.957171
G03 X131.565250 Y206.821484 Z0.000000 I-2.232851 J-5.984075
G01 X131.565250 Y207.429199 Z0.000000
G01 X136.774240 Y207.429199 Z0.000000
G01 X136.774240 Y206.821484 Z0.000000
G03 X136.103122 Y206.601207 Z0.000000 I1.187909 J-4.751689
G03 X135.806850 Y206.424609 Z0.000000 I0.443269 J-1.080477
G03 X135.590873 Y206.177410 Z0.000000 I0.518415 J-0.670886
G03 X135.434780 Y205.779687 Z0.000000 I1.244164 J-0.717786
G03 X135.370169 Y205.341703 Z0.000000 I2.762156 J-0.631231
G03 X135.335580 Y204.328613 Z0.000000 I14.819240 J-1.013090
G01 X135.335580 Y195.547750 Z0.000000
G03 X135.408450 Y194.355529 Z0.000000 I9.789343 J-0.000000
G03 X135.583630 Y193.526170 Z0.000000 I4.893464 J0.600433
G03 X135.919788 Y192.753697 Z0.000000 I3.926767 J1.249437
G03 X136.302970 Y192.248730 Z0.000000 I2.032891 J1.144743
G03 X136.800213 Y191.865284 Z0.000000 I1.911234 J1.964315
G03 X137.394370 Y191.591410 Z0.000000 I1.535019 J2.548712
G03 X138.035863 Y191.451549 Z0.000000 I1.101413 J3.510713
G03 X138.969470 Y191.392970 Z0.000000 I0.933607 J7.410420
G03 X139.819888 Y191.475161 Z0.000000 I-0.000000 J4.440681
G03 X140.494960 Y191.690620 Z0.000000 I-0.585003 J2.998207
G03 X141.089876 Y192.074706 Z0.000000 I-1.143092 J2.423328
G03 X141.586360 Y192.620800 Z0.000000 I-1.887971 J2.215197
G03 X141.946436 Y193.277468 Z0.000000 I-2.487695 J1.791155
G03 X142.194080 Y194.146290 Z0.000000 I-4.144090 J1.650910
G03 X142.304923 Y195.056111 Z0.000000 I-8.206958 J1.461511
G03 X142.355310 Y196.577150 Z0.000000 I-22.932653 J1.521039
G01 X142.355310 Y204.328613 Z0.000000
G03 X142.314777 Y205.402026 Z0.000000 I-14.233573 J0.000000
G03 X142.243690 Y205.804492 Z0.000000 I-2.054587 J-0.155387
G03 X142.096263 Y206.171423 Z0.000000 I-1.403422 J-0.350789
G03 X141.896420 Y206.412207 Z0.000000 I-0.786450 J-0.449405
G03 X141.635493 Y206.576004 Z0.000000 I-0.609476 J-0.681166
G03 X140.904240 Y206.821484 Z0.000000 I-2.185009 J-5.296956
G01 X140.904240 Y207.429199 Z0.000000
G01 X145.852770 Y207.429199 Z0.000000
G01 X145.852770 Y206.821484 Z0.000000
G03 X145.156883 Y206.589210 Z0.000000 I1.330576 J-5.144928
G03 X144.860580 Y206.412207 Z0.000000 I0.448531 J-1.087351
G03 X144.652150 Y206.157312 Z0.000000 I0.609420 J-0.710993
G03 X144.500920 Y205.767285 Z0.000000 I1.320096 J-0.736191
G03 X144.436601 Y205.341557 Z0.000000 I2.586713 J-0.608523
G03 X144.401720 Y204.328613 Z0.000000 I14.690471 J-1.012944
G01 X144.401670 Y196.353910 Z0.000000
G00 Z5.000000

(End cutting path id: path7010)


(Start cutting path id: path7008)
(Change tool to Cylindrical cutter)

G00 Z5.000000
G00 X120.080670 Y199.776953

G01 Z0.000000 F100.0(Penetrate)
G01 X120.452740 Y199.776953 Z0.000000 F400.000000
G03 X120.916552 Y199.816984 Z0.000000 I-0.000000 J2.706949
G03 X121.308500 Y199.925781 Z0.000000 I-0.354101 J2.036077
G03 X121.683262 Y200.112314 Z0.000000 I-0.714310 J1.904852
G03 X122.189070 Y200.483887 Z0.000000 I-2.448023 J3.862449
G03 X122.650711 Y200.915757 Z0.000000 I-4.098716 J4.843927
G03 X123.664950 Y202.009375 Z0.000000 I-25.387181 J24.561605
G03 X124.835061 Y203.353033 Z0.000000 I-44.827608 J40.218987
G03 X125.289650 Y203.931738 Z0.000000 I-7.846750 J6.631742
G03 X125.793823 Y204.662030 Z0.000000 I-6.610238 J5.102702
G03 X126.021390 Y205.122363 Z0.000000 I-2.382192 J1.464059
G03 X126.135476 Y205.488936 Z0.000000 I-1.959903 J0.811005
G03 X126.170220 Y205.816894 Z0.000000 I-1.530452 J0.327958
G03 X126.083518 Y206.270745 Z0.000000 I-1.231212 J0.000000
G03 X125.884970 Y206.536230 Z0.000000 I-0.589166 J-0.233631
G03 X125.575401 Y206.713576 Z0.000000 I-0.670749 J-0.811975
G03 X125.103620 Y206.821484 Z0.000000 I-0.664620 J-1.820487
G01 X125.103620 Y207.429199 Z0.000000
G01 X130.511040 Y207.429199 Z0.000000
G01 X130.511040 Y206.821484 Z0.000000
G03 X130.126140 Y206.703867 Z0.000000 I0.530219 J-2.423728
G03 X129.729690 Y206.511426 Z0.000000 I1.097173 J-2.764889
G03 X129.363507 Y206.275393 Z0.000000 I1.477563 J-2.694359
G03 X128.935940 Y205.916113 Z0.000000 I3.029776 J-4.039697
G03 X128.550314 Y205.533025 Z0.000000 I6.424288 J-6.852493
G03 X127.757720 Y204.675879 Z0.000000 I31.412566 J-29.841880
G01 X123.590530 Y199.987793 Z0.000000
G01 X128.104990 Y193.426950 Z0.000000
G03 X128.850102 Y192.406326 Z0.000000 I19.764510 J13.646901
G03 X129.233600 Y191.963480 Z0.000000 I4.087470 J3.152206
G03 X129.664370 Y191.583203 Z0.000000 I3.269503 J3.269503
G03 X130.014950 Y191.355760 Z0.000000 I1.501478 J1.930461
G03 X130.397075 Y191.201687 Z0.000000 I1.147471 J2.295004
G03 X130.808700 Y191.107710 Z0.000000 I0.803708 J2.571833
G01 X130.808700 Y190.500000 Z0.000000
G01 X125.339260 Y190.500000 Z0.000000
G01 X125.339260 Y191.107710 Z0.000000
G03 X125.785200 Y191.183013 Z0.000000 I-0.211741 J2.611979
G03 X126.008990 Y191.281350 Z0.000000 I-0.192134 J0.741063
G03 X126.161388 Y191.449565 Z0.000000 I-0.239454 J0.370082
G03 X126.219830 Y191.690620 Z0.000000 I-0.467922 J0.241055
G03 X126.190187 Y191.907124 Z0.000000 I-0.805453 J0.000000
G03 X126.071000 Y192.223930 Z0.000000 I-1.861375 J-0.519451
G03 X125.915282 Y192.535757 Z0.000000 I-2.552577 J-1.079894
G03 X125.624520 Y192.992870 Z0.000000 I-5.790606 J-3.362278
G01 X122.734770 Y197.296484 Z0.000000
G03 X122.209140 Y198.051794 Z0.000000 I-16.186253 J-10.703674
G03 X121.990630 Y198.313476 Z0.000000 I-2.149482 J-1.572790
G03 X121.736031 Y198.533792 Z0.000000 I-1.251117 J-1.188538
G03 X121.482140 Y198.673144 Z0.000000 I-0.737366 J-1.042471
G03 X121.201066 Y198.759246 Z0.000000 I-0.471478 J-1.037279
G03 X120.750400 Y198.797168 Z0.000000 I-0.450666 J-2.658924
G01 X120.093070 Y198.797168 Z0.000000
G01 X120.093070 Y193.600590 Z0.000000
G03 X120.109996 Y192.770717 Z0.000000 I20.352655 J-0.000000
G03 X120.142670 Y192.385160 Z0.000000 I4.419182 J0.180341
G03 X120.230032 Y192.009467 Z0.000000 I2.777898 J0.447955
G03 X120.328710 Y191.777440 Z0.000000 I1.149689 J0.351952
G03 X120.488550 Y191.577811 Z0.000000 I0.863963 J0.527960
G03 X120.713180 Y191.405370 Z0.000000 I0.863398 J0.892172
G03 X120.983547 Y191.280863 Z0.000000 I0.844112 J1.477182
G03 X121.544140 Y191.107710 Z0.000000 I2.229207 J6.223146
G01 X121.544140 Y190.500000 Z0.000000
G01 X116.322750 Y190.500000 Z0.000000
G01 X116.322750 Y191.107710 Z0.000000
G03 X117.063745 Y191.358057 Z0.000000 I-1.335145 J5.173654
G03 X117.352140 Y191.541800 Z0.000000 I-0.396845 J0.941069
G03 X117.555037 Y191.820352 Z0.000000 I-0.662781 J0.695942
G03 X117.687010 Y192.236330 Z0.000000 I-1.388301 J0.669374
G03 X117.744732 Y192.685610 Z0.000000 I-3.463330 J0.673305
G03 X117.773810 Y193.600590 Z0.000000 I-14.380993 J0.914980
G01 X117.773810 Y204.328613 Z0.000000
G03 X117.752476 Y205.182666 Z0.000000 I-17.105615 J0.000000
G03 X117.711810 Y205.568847 Z0.000000 I-3.529617 J-0.176448
G03 X117.616206 Y205.952112 Z0.000000 I-2.183497 J-0.341107
G03 X117.500970 Y206.176562 Z0.000000 I-0.851813 J-0.295527
G03 X117.340127 Y206.373764 Z0.000000 I-0.802739 J-0.490542
G03 X117.128900 Y206.523828 Z0.000000 I-0.665455 J-0.712987
G03 X116.884191 Y206.638810 Z0.000000 I-0.792725 J-1.369223
G03 X116.322750 Y206.821484 Z0.000000 I-2.613147 J-7.077257
G01 X116.322750 Y207.429199 Z0.000000
G01 X121.544140 Y207.429199 Z0.000000
G01 X121.544140 Y206.821484 Z0.000000
G03 X121.007307 Y206.662434 Z0.000000 I1.577298 J-6.309263
G03 X120.750390 Y206.548633 Z0.000000 I0.532481 J-1.549038
G03 X120.534093 Y206.391032 Z0.000000 I0.640296 J-1.105989
G03 X120.365910 Y206.201367 Z0.000000 I0.768514 J-0.850870
G03 X120.259357 Y205.990615 Z0.000000 I0.727453 J-0.500101
G03 X120.155070 Y205.593652 Z0.000000 I2.519141 J-0.873988
G03 X120.113989 Y205.182799 Z0.000000 I4.028892 J-0.610323
G03 X120.093070 Y204.328613 Z0.000000 I17.428697 J-0.854186
G01 X120.080670 Y199.776953 Z0.000000
G00 Z5.000000

(End cutting path id: path7008)


(Start cutting path id: path7006)
(Change tool to Cylindrical cutter)

G00 Z5.000000
G00 X106.239650 Y193.600590

G01 Z0.000000 F100.0(Penetrate)
G03 X106.252035 Y192.881889 Z0.000000 I20.858778 J-0.000000 F400.000000
G03 X106.276850 Y192.521580 Z0.000000 I5.262717 J0.181438
G03 X106.332834 Y192.166447 Z0.000000 I3.356633 J0.347170
G03 X106.400880 Y191.938670 Z0.000000 I1.443122 J0.307064
G03 X106.502678 Y191.737321 Z0.000000 I1.346295 J0.554251
G03 X106.611720 Y191.591410 Z0.000000 I0.811188 J0.492515
G03 X106.747597 Y191.470632 Z0.000000 I0.633504 J0.575879
G03 X106.958980 Y191.343360 Z0.000000 I0.916667 J1.283297
G03 X107.200202 Y191.247162 Z0.000000 I0.884373 J1.867071
G03 X107.678320 Y191.107710 Z0.000000 I2.365438 J7.220685
G01 X107.678320 Y190.500000 Z0.000000
G01 X102.481730 Y190.500000 Z0.000000
G01 X102.481730 Y191.107710 Z0.000000
G03 X103.143094 Y191.323950 Z0.000000 I-1.286869 J5.055355
G03 X103.436720 Y191.492190 Z0.000000 I-0.460824 J1.144616
G03 X103.652697 Y191.739389 Z0.000000 I-0.518417 J0.670888
G03 X103.808790 Y192.137110 Z0.000000 I-1.244157 J0.717784
G03 X103.881399 Y192.576125 Z0.000000 I-2.457844 J0.632014
G03 X103.920410 Y193.600590 Z0.000000 I-13.432032 J1.024465
G01 X103.920410 Y198.797168 Z0.000000
G01 X97.024703 Y198.797168 Z0.000000
G01 X97.024703 Y193.600590 Z0.000000
G03 X97.041632 Y192.770718 Z0.000000 I20.348549 J0.000000
G03 X97.074313 Y192.385160 Z0.000000 I4.418315 J0.180342
G03 X97.161679 Y192.009465 Z0.000000 I2.778575 J0.448136
G03 X97.260348 Y191.777440 Z0.000000 I1.149905 J0.352008
G03 X97.420193 Y191.577810 Z0.000000 I0.864018 J0.528017
G03 X97.644821 Y191.405370 Z0.000000 I0.863423 J0.892205
G03 X97.915188 Y191.280863 Z0.000000 I0.844110 J1.477172
G03 X98.475778 Y191.107710 Z0.000000 I2.229199 J6.223103
G01 X98.475778 Y190.500000 Z0.000000
G01 X93.254391 Y190.500000 Z0.000000
G01 X93.254391 Y191.107710 Z0.000000
G03 X93.995382 Y191.358056 Z0.000000 I-1.335177 J5.173742
G03 X94.283786 Y191.541800 Z0.000000 I-0.396873 J0.941140
G03 X94.486681 Y191.820352 Z0.000000 I-0.662769 J0.695926
G03 X94.618649 Y192.236330 Z0.000000 I-1.388278 J0.669349
G03 X94.676384 Y192.685612 Z0.000000 I-3.462554 J0.673309
G03 X94.705469 Y193.600590 Z0.000000 I-14.377660 J0.914978
G01 X94.705469 Y204.328613 Z0.000000
G03 X94.684132 Y205.182665 Z0.000000 I-17.102852 J-0.000000
G03 X94.643459 Y205.568847 Z0.000000 I-3.529072 J-0.176449
G03 X94.547850 Y205.952114 Z0.000000 I-2.183824 J-0.341213
G03 X94.432620 Y206.176562 Z0.000000 I-0.851898 J-0.295555
G03 X94.271772 Y206.373765 Z0.000000 I-0.802795 J-0.490598
G03 X94.060549 Y206.523828 Z0.000000 I-0.665470 J-0.713004
G03 X93.815836 Y206.638810 Z0.000000 I-0.792755 J-1.369299
G03 X93.254397 Y206.821484 Z0.000000 I-2.613190 J-7.077394
G01 X93.254397 Y207.429199 Z0.000000
G01 X98.475784 Y207.429199 Z0.000000
G01 X98.475784 Y206.821484 Z0.000000
G03 X97.938958 Y206.662435 Z0.000000 I1.577354 J-6.309406
G03 X97.682034 Y206.548633 Z0.000000 I0.532530 J-1.549180
G03 X97.465742 Y206.391032 Z0.000000 I0.640296 J-1.105967
G03 X97.297561 Y206.201367 Z0.000000 I0.768528 J-0.850870
G03 X97.191004 Y205.990614 Z0.000000 I0.727395 J-0.500084
G03 X97.086721 Y205.593652 Z0.000000 I2.518897 J-0.873904
G03 X97.045634 Y205.182799 Z0.000000 I4.028253 J-0.610325
G03 X97.024711 Y204.328613 Z0.000000 I17.425876 J-0.854186
G01 X97.024711 Y199.938183 Z0.000000
G01 X103.920418 Y199.938183 Z0.000000
G01 X103.920418 Y204.328613 Z0.000000
G03 X103.879885 Y205.402026 Z0.000000 I-14.233573 J0.000000
G03 X103.808798 Y205.804492 Z0.000000 I-2.054587 J-0.155387
G03 X103.661371 Y206.171423 Z0.000000 I-1.403422 J-0.350789
G03 X103.461528 Y206.412207 Z0.000000 I-0.786450 J-0.449405
G03 X103.190102 Y206.578652 Z0.000000 I-0.670428 J-0.788748
G03 X102.481738 Y206.821484 Z0.000000 I-2.207032 J-5.283531
G01 X102.481738 Y207.429199 Z0.000000
G01 X107.678328 Y207.429199 Z0.000000
G01 X107.678328 Y206.821484 Z0.000000
G03 X107.007218 Y206.601209 Z0.000000 I1.187938 J-4.751737
G03 X106.710938 Y206.424609 Z0.000000 I0.443307 J-1.080568
G03 X106.494961 Y206.177410 Z0.000000 I0.518415 J-0.670886
G03 X106.338868 Y205.779687 Z0.000000 I1.244164 J-0.717786
G03 X106.274257 Y205.341703 Z0.000000 I2.762156 J-0.631231
G03 X106.239668 Y204.328613 Z0.000000 I14.819240 J-1.013090
G01 X106.239650 Y193.600590 Z0.000000
G00 Z5.000000

(End cutting path id: path7006)


(Start cutting path id: path7004)
(Change tool to Cylindrical cutter)

G00 Z5.000000
G00 X81.782230 Y194.357130

G01 Z0.000000 F100.0(Penetrate)
G03 X82.106278 Y193.298368 Z0.000000 I7.348201 J1.670041 F400.000000
G03 X82.451957 Y192.633200 Z0.000000 I3.219595 J1.250775
G03 X82.940947 Y192.079279 Z0.000000 I2.280246 J1.520160
G03 X83.543363 Y191.690620 Z0.000000 I1.686332 J1.952591
G03 X84.231918 Y191.481696 Z0.000000 I1.184978 J2.666254
G03 X85.267288 Y191.392970 Z0.000000 I1.035370 J5.996643
G03 X86.626161 Y191.618151 Z0.000000 I-0.000000 J4.212710
G03 X87.487308 Y192.149510 Z0.000000 I-0.733366 J2.152018
G03 X88.036343 Y193.004479 Z0.000000 I-1.545668 J1.596353
G03 X88.268656 Y194.357130 Z0.000000 I-3.821778 J1.352651
G03 X88.175959 Y195.265035 Z0.000000 I-4.492527 J-0.000000
G03 X87.946195 Y195.919820 Z0.000000 I-2.543782 J-0.524909
G03 X87.554566 Y196.494630 Z0.000000 I-2.453514 J-1.250810
G03 X86.891996 Y197.110449 Z0.000000 I-3.487326 J-3.087725
G03 X86.130264 Y197.620284 Z0.000000 I-4.503409 J-5.904469
G03 X84.659574 Y198.412695 Z0.000000 I-12.429011 J-21.306879
G02 X83.247082 Y199.192205 Z0.000000 I8.135248 J16.410766
G02 X82.365140 Y199.814160 Z0.000000 I4.272288 J6.994454
G02 X81.599099 Y200.571459 Z0.000000 I3.778648 J4.588358
G02 X81.100101 Y201.314844 Z0.000000 I3.139748 J2.646729
G02 X80.797406 Y202.146502 Z0.000000 I3.276461 J1.663433
G02 X80.690824 Y203.075976 Z0.000000 I3.999556 J0.929474
G02 X80.867021 Y204.413881 Z0.000000 I5.167612 J0.000000
G02 X81.335746 Y205.482031 Z0.000000 I3.729501 J-0.999660
G02 X82.116883 Y206.367619 Z0.000000 I3.233241 J-2.064598
G02 X83.245706 Y207.069531 Z0.000000 I3.107106 J-3.738235
G02 X84.542866 Y207.475254 Z0.000000 I2.446534 J-5.545485
G02 X86.135453 Y207.627636 Z0.000000 I1.592587 J-8.246070
G02 X87.076623 Y207.602217 Z0.000000 I0.000000 J-17.436839
G02 X87.970999 Y207.528416 Z0.000000 I-0.855071 J-15.818615
G02 X88.869336 Y207.390607 Z0.000000 I-1.149917 J-10.492858
G02 X90.228226 Y207.081931 Z0.000000 I-4.815283 J-24.343904
G01 X90.228226 Y203.733299 Z0.000000
G01 X89.000394 Y203.733299 Z0.000000
G03 X88.640775 Y204.789882 Z0.000000 I-7.462194 J-1.950347
G03 X88.281058 Y205.432420 Z0.000000 I-3.091760 J-1.308921
G03 X87.786753 Y205.963705 Z0.000000 I-2.293263 J-1.638047
G03 X87.264066 Y206.275779 Z0.000000 I-1.266003 J-1.526651
G03 X86.665964 Y206.449325 Z0.000000 I-1.019192 J-2.395098
G03 X85.750980 Y206.523826 Z0.000000 I-0.914984 J-5.581398
G03 X84.962409 Y206.443780 Z0.000000 I0.000000 J-3.924332
G03 X84.299906 Y206.226170 Z0.000000 I0.610351 J-2.975464
G03 X83.736350 Y205.851550 Z0.000000 I0.984764 J-2.092621
G03 X83.295316 Y205.320799 Z0.000000 I1.610095 J-1.786544
G03 X83.026065 Y204.695998 Z0.000000 I1.908771 J-1.192980
G03 X82.923246 Y203.894529 Z0.000000 I3.072301 J-0.801469
G03 X83.011803 Y203.035249 Z0.000000 I4.213109 J-0.000000
G03 X83.233304 Y202.406248 Z0.000000 I2.458049 J0.512093
G03 X83.617347 Y201.850276 Z0.000000 I2.564042 J1.360512
G03 X84.225492 Y201.277635 Z0.000000 I3.331433 J2.928734
G03 X84.924415 Y200.803456 Z0.000000 I3.995619 J5.137214
G03 X86.209867 Y200.111814 Z0.000000 I9.847274 J16.761308
G02 X87.760485 Y199.259860 Z0.000000 I-10.210117 J-20.420234
G02 X88.665531 Y198.635935 Z0.000000 I-4.540085 J-7.554090
G02 X89.463600 Y197.883326 Z0.000000 I-3.468199 J-4.477127
G02 X90.029788 Y197.073240 Z0.000000 I-3.463149 J-3.023383
G02 X90.390096 Y196.169018 Z0.000000 I-3.029066 J-1.730900
G02 X90.525882 Y195.039258 Z0.000000 I-4.632009 J-1.129760
G02 X90.408513 Y193.762304 Z0.000000 I-7.005194 J-0.000000
G02 X90.116605 Y192.831638 Z0.000000 I-3.984911 J0.738774
G02 X89.617300 Y192.009871 Z0.000000 I-3.768929 J1.727426
G02 X88.975589 Y191.368158 Z0.000000 I-2.912400 J2.270680
G02 X88.212243 Y190.899951 Z0.000000 I-2.507964 J3.232518
G02 X87.239261 Y190.549608 Z0.000000 I-2.326625 J4.935293
G02 X86.226532 Y190.368477 Z0.000000 I-1.895758 J7.677725
G02 X85.031644 Y190.301558 Z0.000000 I-1.194888 J10.634364
G02 X83.102343 Y190.442044 Z0.000000 I-0.000000 J13.317860
G02 X80.541996 Y190.958888 Z0.000000 I3.517605 J24.025692
G01 X80.541996 Y194.357128 Z0.000000
G01 X81.782230 Y194.357130 Z0.000000
G00 Z5.000000

(End cutting path id: path7004)


(Start cutting path id: path7002)
(Change tool to Cylindrical cutter)

G00 Z5.000000
G00 X77.615046 Y207.429199

G01 Z0.000000 F100.0(Penetrate)
G01 X77.615046 Y203.683691 Z0.000000 F400.000000
G01 X76.399616 Y203.683691 Z0.000000
G03 X76.198991 Y204.286037 Z0.000000 I-12.415099 J-3.800536
G03 X76.015144 Y204.750293 Z0.000000 I-7.555674 J-2.723551
G03 X75.798948 Y205.199416 Z0.000000 I-5.651850 J-2.444053
G03 X75.605866 Y205.519238 Z0.000000 I-3.053445 J-1.625224
G03 X75.373151 Y205.807920 Z0.000000 I-1.887983 J-1.283822
G03 X75.134577 Y206.015332 Z0.000000 I-1.203132 J-1.142975
G03 X74.871106 Y206.165887 Z0.000000 I-0.733954 J-0.978603
G03 X74.539265 Y206.263379 Z0.000000 I-0.611189 J-1.466851
G03 X74.189720 Y206.316277 Z0.000000 I-0.608638 J-2.840470
G03 X73.708308 Y206.337789 Z0.000000 I-0.481412 J-5.376063
G01 X69.789167 Y206.337789 Z0.000000
G01 X69.789167 Y199.838961 Z0.000000
G01 X72.443269 Y199.838961 Z0.000000
G03 X72.978460 Y199.885153 Z0.000000 I-0.000000 J3.123544
G03 X73.299031 Y199.987789 Z0.000000 I-0.210135 J1.208275
G03 X73.568376 Y200.190160 Z0.000000 I-0.473589 J0.910749
G03 X73.807527 Y200.521090 Z0.000000 I-1.091214 J1.040459
G03 X73.981053 Y200.907756 Z0.000000 I-1.970211 J1.116449
G03 X74.204402 Y201.686910 Z0.000000 I-7.840686 J2.669171
G01 X75.370222 Y201.686910 Z0.000000
G01 X75.370222 Y196.924406 Z0.000000
G01 X74.204402 Y196.924406 Z0.000000
G03 X73.994158 Y197.654250 Z0.000000 I-7.220341 J-1.684738
G03 X73.819929 Y198.040621 Z0.000000 I-2.182935 J-0.751898
G03 X73.570251 Y198.386055 Z0.000000 I-1.507670 J-0.826787
G03 X73.311433 Y198.586324 Z0.000000 I-0.741616 J-0.691051
G03 X73.012395 Y198.695155 Z0.000000 I-0.475477 J-0.841232
G03 X72.443269 Y198.747554 Z0.000000 I-0.569126 J-3.064535
G01 X69.789167 Y198.747554 Z0.000000
G01 X69.789167 Y191.591406 Z0.000000
G01 X73.646296 Y191.591406 Z0.000000
G03 X74.250017 Y191.621890 Z0.000000 I-0.000000 J5.993355
G03 X74.626081 Y191.690606 Z0.000000 I-0.241460 J2.384866
G03 X74.989126 Y191.840527 Z0.000000 I-0.503165 J1.732988
G03 X75.283406 Y192.050276 Z0.000000 I-0.733241 J1.340055
G03 X75.528554 Y192.331445 Z0.000000 I-1.408192 J1.475242
G03 X75.767097 Y192.720006 Z0.000000 I-2.469923 J1.783823
G03 X75.959811 Y193.136739 Z0.000000 I-4.798491 J2.471936
G03 X76.114363 Y193.563366 Z0.000000 I-4.874997 J2.007352
G03 X76.257970 Y194.011483 Z0.000000 I-19.198301 J6.399491
G03 X76.511238 Y194.853206 Z0.000000 I-67.489576 J20.766084
G01 X77.739070 Y194.853206 Z0.000000
G01 X77.503425 Y190.500000 Z0.000000
G01 X66.018855 Y190.500000 Z0.000000
G01 X66.018855 Y191.107710 Z0.000000
G03 X66.759846 Y191.358056 Z0.000000 I-1.335173 J5.173729
G03 X67.048249 Y191.541800 Z0.000000 I-0.396871 J0.941133
G03 X67.251145 Y191.820352 Z0.000000 I-0.662767 J0.695927
G03 X67.383113 Y192.236330 Z0.000000 I-1.388271 J0.669348
G03 X67.440848 Y192.685612 Z0.000000 I-3.462554 J0.673309
G03 X67.469933 Y193.600590 Z0.000000 I-14.377660 J0.914978
G01 X67.469933 Y204.328613 Z0.000000
G03 X67.448596 Y205.182665 Z0.000000 I-17.102852 J-0.000000
G03 X67.407923 Y205.568847 Z0.000000 I-3.529072 J-0.176449
G03 X67.312314 Y205.952114 Z0.000000 I-2.183824 J-0.341213
G03 X67.197084 Y206.176562 Z0.000000 I-0.851898 J-0.295555
G03 X67.036236 Y206.373765 Z0.000000 I-0.802795 J-0.490598
G03 X66.825013 Y206.523828 Z0.000000 I-0.665470 J-0.713004
G03 X66.580300 Y206.638810 Z0.000000 I-0.792755 J-1.369299
G03 X66.018861 Y206.821484 Z0.000000 I-2.613190 J-7.077394
G01 X66.018861 Y207.429199 Z0.000000
G01 X77.615046 Y207.429199 Z0.000000
G00 Z5.000000

(End cutting path id: path7002)


(Start cutting path id: path7000)
(Change tool to Cylindrical cutter)

G00 Z5.000000
G00 X62.992682 Y206.821484

G01 Z0.000000 F100.0(Penetrate)
G03 X62.455856 Y206.662435 Z0.000000 I1.577354 J-6.309406 F400.000000
G03 X62.198932 Y206.548633 Z0.000000 I0.532530 J-1.549180
G03 X61.982641 Y206.391032 Z0.000000 I0.640298 J-1.105965
G03 X61.814460 Y206.201367 Z0.000000 I0.768534 J-0.850874
G03 X61.707903 Y205.990614 Z0.000000 I0.727395 J-0.500084
G03 X61.603620 Y205.593652 Z0.000000 I2.518897 J-0.873904
G03 X61.562533 Y205.182799 Z0.000000 I4.028253 J-0.610325
G03 X61.541610 Y204.328613 Z0.000000 I17.425876 J-0.854186
G01 X61.541610 Y193.600590 Z0.000000
G03 X61.558539 Y192.770718 Z0.000000 I20.348549 J-0.000000
G03 X61.591220 Y192.385160 Z0.000000 I4.418315 J0.180342
G03 X61.678586 Y192.009465 Z0.000000 I2.778575 J0.448136
G03 X61.777255 Y191.777440 Z0.000000 I1.149905 J0.352008
G03 X61.937099 Y191.577810 Z0.000000 I0.864011 J0.528009
G03 X62.161727 Y191.405370 Z0.000000 I0.863419 J0.892199
G03 X62.432094 Y191.280862 Z0.000000 I0.844118 J1.477192
G03 X62.992684 Y191.107710 Z0.000000 I2.229207 J6.223123
G01 X62.992684 Y190.500000 Z0.000000
G01 X57.820907 Y190.500000 Z0.000000
G01 X57.820907 Y191.107710 Z0.000000
G03 X58.504169 Y191.328736 Z0.000000 I-1.190487 J4.846786
G03 X58.800692 Y191.504590 Z0.000000 I-0.431833 J1.066073
G03 X59.017840 Y191.762358 Z0.000000 I-0.580139 J0.709067
G03 X59.172763 Y192.161910 Z0.000000 I-1.288896 J0.729570
G03 X59.237517 Y192.599889 Z0.000000 I-2.772138 J0.633628
G03 X59.271983 Y193.600590 Z0.000000 I-14.510066 J1.000701
G01 X59.271983 Y198.350683 Z0.000000
G02 X59.284262 Y200.223278 Z0.000000 I142.795821 J0.000000
G02 X59.321593 Y202.133398 Z0.000000 I148.613862 J-1.949059
G02 X59.402408 Y204.054471 Z0.000000 I98.081057 J-3.163816
G02 X59.458018 Y204.762695 Z0.000000 I13.377740 J-0.694124
G01 X59.247179 Y204.762695 Z0.000000
G01 X54.335851 Y192.471970 Z0.000000
G01 X52.909581 Y192.471970 Z0.000000
G01 X48.345515 Y204.961133 Z0.000000
G01 X48.134675 Y204.961133 Z0.000000
G02 X48.181116 Y204.203758 Z0.000000 I-18.410476 J-1.509014
G02 X48.246296 Y202.220215 Z0.000000 I-126.258116 J-5.141729
G02 X48.292382 Y200.235591 Z0.000000 I-123.680900 J-3.864921
G02 X48.308306 Y198.139844 Z0.000000 I-137.903989 J-2.095747
G01 X48.308306 Y193.600590 Z0.000000
G03 X48.325235 Y192.770718 Z0.000000 I20.348549 J0.000000
G03 X48.357916 Y192.385160 Z0.000000 I4.418315 J0.180342
G03 X48.445282 Y192.009465 Z0.000000 I2.778575 J0.448136
G03 X48.543951 Y191.777440 Z0.000000 I1.149905 J0.352008
G03 X48.703796 Y191.577810 Z0.000000 I0.864018 J0.528017
G03 X48.928424 Y191.405370 Z0.000000 I0.863423 J0.892205
G03 X49.198791 Y191.280863 Z0.000000 I0.844110 J1.477172
G03 X49.759381 Y191.107710 Z0.000000 I2.229199 J6.223103
G01 X49.759381 Y190.500000 Z0.000000
G01 X45.232525 Y190.500000 Z0.000000
G01 X45.232525 Y191.107710 Z0.000000
G03 X45.973517 Y191.358056 Z0.000000 I-1.335174 J5.173737
G03 X46.261920 Y191.541800 Z0.000000 I-0.396870 J0.941133
G03 X46.464815 Y191.820352 Z0.000000 I-0.662769 J0.695926
G03 X46.596783 Y192.236330 Z0.000000 I-1.388278 J0.669349
G03 X46.654518 Y192.685612 Z0.000000 I-3.462554 J0.673309
G03 X46.683603 Y193.600590 Z0.000000 I-14.377660 J0.914978
G01 X46.683603 Y204.328613 Z0.000000
G03 X46.662266 Y205.182665 Z0.000000 I-17.102852 J-0.000000
G03 X46.621593 Y205.568847 Z0.000000 I-3.529072 J-0.176449
G03 X46.525984 Y205.952114 Z0.000000 I-2.183806 J-0.341210
G03 X46.410753 Y206.176562 Z0.000000 I-0.851894 J-0.295555
G03 X46.249905 Y206.373765 Z0.000000 I-0.802799 J-0.490601
G03 X46.038683 Y206.523828 Z0.000000 I-0.665470 J-0.713002
G03 X45.793969 Y206.638810 Z0.000000 I-0.792762 J-1.369317
G03 X45.232530 Y206.821484 Z0.000000 I-2.613201 J-7.077432
G01 X45.232530 Y207.429199 Z0.000000
G01 X49.660167 Y207.429199 Z0.000000
G01 X54.013390 Y195.361720 Z0.000000
G01 X58.800694 Y207.429199 Z0.000000
G01 X62.992686 Y207.429199 Z0.000000
G01 X62.992682 Y206.821484 Z0.000000
G00 Z5.000000

(End cutting path id: path7000)


(Start cutting path id: path6998)
(Change tool to Cylindrical cutter)

G00 Z5.000000
G00 X29.518757 Y207.429199

G01 Z0.000000 F100.0(Penetrate)
G01 X42.938092 Y207.429199 Z0.000000 F400.000000
G01 X42.938092 Y203.113183 Z0.000000
G01 X41.722663 Y203.113183 Z0.000000
G03 X41.417276 Y204.168551 Z0.000000 I-17.044510 J-4.360229
G03 X41.176960 Y204.799902 Z0.000000 I-6.328585 J-2.047483
G03 X40.877583 Y205.394984 Z0.000000 I-4.487652 J-1.884820
G03 X40.618854 Y205.742480 Z0.000000 I-1.771527 J-1.048932
G03 X40.295418 Y206.027246 Z0.000000 I-1.532824 J-1.414913
G03 X39.973932 Y206.201367 Z0.000000 I-0.870531 J-1.223448
G03 X39.630262 Y206.292832 Z0.000000 I-0.530674 J-1.302560
G03 X38.956940 Y206.337793 Z0.000000 I-0.673322 J-5.019299
G01 X37.381842 Y206.337793 Z0.000000
G01 X37.381842 Y193.637790 Z0.000000
G03 X37.405110 Y192.908030 Z0.000000 I11.455257 J0.000000
G03 X37.456262 Y192.471970 Z0.000000 I4.133792 J0.263880
G03 X37.573205 Y192.049777 Z0.000000 I2.952648 J0.590557
G03 X37.704308 Y191.777440 Z0.000000 I1.349797 J0.482069
G03 X37.902717 Y191.557612 Z0.000000 I0.984589 J0.689204
G03 X38.163195 Y191.380570 Z0.000000 I0.889300 J1.028267
G03 X38.456187 Y191.266479 Z0.000000 I0.907905 J1.898290
G03 X39.056164 Y191.107710 Z0.000000 I2.395797 J7.840551
G01 X39.056164 Y190.500000 Z0.000000
G01 X33.388293 Y190.500000 Z0.000000
G01 X33.388293 Y191.107710 Z0.000000
G03 X33.757884 Y191.203067 Z0.000000 I-1.860144 J7.973546
G03 X34.045617 Y191.293750 Z0.000000 I-1.392930 J4.921557
G03 X34.320711 Y191.411531 Z0.000000 I-0.704101 J2.024674
G03 X34.504504 Y191.529390 Z0.000000 I-0.521260 J1.015106
G03 X34.669965 Y191.694852 Z0.000000 I-0.661872 J0.827328
G03 X34.802160 Y191.901460 Z0.000000 I-0.909033 J0.727226
G03 X34.900829 Y192.133493 Z0.000000 I-1.051415 J0.584097
G03 X34.988195 Y192.509180 Z0.000000 I-2.691327 J0.823868
G03 X35.038178 Y192.895992 Z0.000000 I-3.057065 J0.591662
G03 X35.062605 Y193.637790 Z0.000000 I-11.251183 J0.741798
G01 X35.062605 Y206.337793 Z0.000000
G01 X33.499910 Y206.337793 Z0.000000
G03 X32.921728 Y206.304547 Z0.000000 I0.000000 J-5.044158
G03 X32.532527 Y206.226172 Z0.000000 I0.271716 J-2.354871
G03 X32.192295 Y206.064403 Z0.000000 I0.356607 J-1.188689
G03 X31.837996 Y205.754883 Z0.000000 I1.086697 J-1.601448
G03 X31.558110 Y205.380272 Z0.000000 I1.608645 J-1.493740
G03 X31.242683 Y204.750293 Z0.000000 I4.286879 J-2.540375
G03 X31.011921 Y204.095911 Z0.000000 I7.184476 J-2.901420
G03 X30.746590 Y203.113183 Z0.000000 I15.958147 J-4.835793
G01 X29.518758 Y203.113183 Z0.000000
G01 X29.518757 Y207.429199 Z0.000000
G00 Z5.000000

(End cutting path id: path6998)


(Start cutting path id: path6996)
(Change tool to Cylindrical cutter)

G00 Z5.000000
G00 X24.235358 Y190.500000

G01 Z0.000000 F100.0(Penetrate)
G01 X24.235358 Y191.107710 Z0.000000 F400.000000
G03 X24.846045 Y191.259225 Z0.000000 I-1.347985 J6.739567
G03 X25.153131 Y191.380570 Z0.000000 I-0.539405 J1.814306
G03 X25.429964 Y191.565086 Z0.000000 I-0.514344 J1.071610
G03 X25.612018 Y191.789840 Z0.000000 I-0.598000 J0.670498
G03 X25.716305 Y192.074057 Z0.000000 I-0.903267 J0.492675
G03 X25.760846 Y192.509180 Z0.000000 I-2.103107 J0.435123
G03 X25.737936 Y192.928534 Z0.000000 I-3.849466 J0.000000
G03 X25.661626 Y193.414550 Z0.000000 I-5.250835 J-0.575442
G03 X25.548794 Y193.907204 Z0.000000 I-8.931825 J-1.786401
G03 X25.376373 Y194.518360 Z0.000000 I-13.921779 J-3.597747
G01 X24.917486 Y196.118260 Z0.000000
G01 X19.137994 Y196.118260 Z0.000000
G01 X18.716314 Y194.902830 Z0.000000
G03 X18.414082 Y193.979403 Z0.000000 I21.246651 J-7.465069
G03 X18.294634 Y193.513770 Z0.000000 I5.274606 J-1.601224
G03 X18.217495 Y193.040181 Z0.000000 I5.101589 J-1.074030
G03 X18.195414 Y192.658010 Z0.000000 I3.296175 J-0.382171
G03 X18.310481 Y191.963872 Z0.000000 I2.151213 J-0.000000
G03 X18.567484 Y191.566600 Z0.000000 I0.920770 J0.313898
G03 X18.991541 Y191.303805 Z0.000000 I0.934950 J1.035141
G03 X19.733304 Y191.107710 Z0.000000 I1.208370 J3.069890
G01 X19.733304 Y190.500000 Z0.000000
G01 X14.437503 Y190.500000 Z0.000000
G01 X14.437503 Y191.107710 Z0.000000
G03 X15.052318 Y191.349627 Z0.000000 I-0.245146 J1.525232
G03 X15.640531 Y191.913870 Z0.000000 I-1.308820 J1.953144
G03 X16.094841 Y192.644875 Z0.000000 I-3.942577 J2.956935
G03 X16.645121 Y193.898240 Z0.000000 I-11.121695 J5.630373
G01 X21.816898 Y207.627636 Z0.000000
G01 X23.776468 Y207.627636 Z0.000000
G01 X27.993265 Y193.799020 Z0.000000
G03 X28.310282 Y192.838841 Z0.000000 I23.693303 J7.290262
G03 X28.514163 Y192.323140 Z0.000000 I7.030774 J2.481446
G03 X28.790224 Y191.844757 Z0.000000 I2.805489 J1.300123
G03 X29.072269 Y191.529390 Z0.000000 I1.484240 J1.043607
G03 X29.422493 Y191.297209 Z0.000000 I1.006002 J1.137235
G03 X29.952835 Y191.107710 Z0.000000 I1.178005 J2.459949
G01 X29.952835 Y190.500000 Z0.000000
G01 X24.235358 Y190.500000 Z0.000000
G00 Z5.000000

(End cutting path id: path6996)


(Start cutting path id: path6996)
(Change tool to Cylindrical cutter)

G00 Z5.000000
G00 X19.472858 Y197.197266

G01 Z0.000000 F100.0(Penetrate)
G01 X24.657038 Y197.197266 Z0.000000 F400.000000
G01 X22.300592 Y205.196777 Z0.000000
G01 X19.472858 Y197.197266 Z0.000000
G00 Z5.000000

(End cutting path id: path6996)


(Footer)
M5
G00 X0.0000 Y0.0000
M2
(Using default footer. To add your own footer create file "footer" in the output dir.)
(end)
%