%
(Header)
(Generated by gcodetools from Inkscape.)
(Using default header. To add your own header create file "header" in the output dir.)
M3
(Header end.)
G21 (All units in mm)

(Start cutting path id: path21)
(Change tool to Cylindrical cutter)

G00 Z5.000000
G00 X99.900470 Y86.077820

G01 Z0.000000 F100.0(Penetrate)
G02 X100.358760 Y86.419829 Z0.000000 I1.242157 J-1.186426 F400.000000
G02 X100.518440 Y86.394750 Z0.000000 I0.062629 J-0.122119
G02 X100.520001 Y86.258562 Z0.000000 I-0.068893 J-0.068893
G02 X100.061720 Y85.916570 Z0.000000 I-1.242123 J1.186435
G02 X99.902032 Y85.941646 Z0.000000 I-0.062634 J0.122129
G02 X99.900470 Y86.077820 Z0.000000 I0.068886 J0.068886
G01 X99.900470 Y86.077820 Z0.000000
G00 Z5.000000

(End cutting path id: path21)


(Start cutting path id: path21)
(Change tool to Cylindrical cutter)

G00 Z5.000000
G00 X93.490624 Y88.307290

G01 Z0.000000 F100.0(Penetrate)
G02 X93.570326 Y88.492175 Z0.000000 I0.254290 J-0.000000 F400.000000
G02 X93.770823 Y88.571880 Z0.000000 I0.200497 J-0.212321
G02 X93.899989 Y88.487670 Z0.000000 I0.000000 J-0.141167
G02 X93.887499 Y88.307290 Z0.000000 I-0.177621 J-0.078323
G02 X93.702808 Y88.080677 Z0.000000 I-0.957460 J0.591767
G02 X93.607300 Y88.042710 Z0.000000 I-0.095508 J0.101145
G02 X93.536671 Y88.088755 Z0.000000 I0.000000 J0.077192
G02 X93.490624 Y88.307290 Z0.000000 I0.495548 J0.218535
G01 X93.490624 Y88.307290 Z0.000000
G00 Z5.000000

(End cutting path id: path21)


(Start cutting path id: path21)
(Change tool to Cylindrical cutter)

G00 Z5.000000
G00 X104.894080 Y89.813030

G01 Z0.000000 F100.0(Penetrate)
G02 X104.973450 Y90.600517 Z0.000000 I3.012880 J0.094079 F400.000000
G02 X105.132290 Y90.820840 Z0.000000 I0.345502 J-0.081668
G02 X105.303390 Y90.725443 Z0.000000 I0.058956 J-0.095397
G02 X105.132290 Y89.630210 Z0.000000 I-3.590918 J-0.000000
G02 X105.007769 Y89.591263 Z0.000000 I-0.075960 J0.024326
G02 X104.894080 Y89.813030 Z0.000000 I0.177175 J0.230854
G01 X104.894080 Y89.813030 Z0.000000
G00 Z5.000000

(End cutting path id: path21)


(Start cutting path id: path21)
(Change tool to Cylindrical cutter)

G00 Z5.000000
G00 X108.307290 Y96.377090

G01 Z0.000000 F100.0(Penetrate)
G02 X108.947233 Y96.995702 Z0.000000 I6.739398 J-6.331477 F400.000000
G02 X109.060990 Y97.038540 Z0.000000 I0.113757 J-0.129622
G01 X109.084690 Y96.991535 Z0.000000
G02 X108.571870 Y96.377090 Z0.000000 I-5.483223 J4.055110
G02 X107.931928 Y95.758468 Z0.000000 I-6.736948 J6.328817
G02 X107.818170 Y95.715630 Z0.000000 I-0.113758 J0.129626
G01 X107.794470 Y95.762635 Z0.000000
G02 X108.307290 Y96.377090 Z0.000000 I5.485085 J-4.056585
G01 X108.307290 Y96.377090 Z0.000000
G00 Z5.000000

(End cutting path id: path21)


(Start cutting path id: path21)
(Change tool to Cylindrical cutter)

G00 Z5.000000
G00 X99.155115 Y99.289130

G01 Z0.000000 F100.0(Penetrate)
G02 X99.086899 Y99.992027 Z0.000000 I2.304773 J0.578436 F400.000000
G02 X99.263647 Y101.358450 Z0.000000 I9.032845 J-0.473762
G01 X99.548037 Y102.727090 Z0.000000
G01 X99.419119 Y101.095620 Z0.000000
G03 X99.417630 Y99.528759 Z0.000000 I10.035057 J-0.792966
G03 X99.557655 Y99.298870 Z0.000000 I0.296226 J0.022841
G03 X99.950455 Y99.475438 Z0.000000 I0.136678 J0.221145
G03 X99.982213 Y101.738290 Z0.000000 I-7.072403 J1.230907
G02 X100.037479 Y102.431815 Z0.000000 I1.551339 J0.225340
G02 X100.208850 Y102.462500 Z0.000000 I0.093682 J-0.029317
G02 X100.681715 Y101.141960 Z0.000000 I-1.798251 J-1.388858
G02 X100.299750 Y99.440690 Z0.000000 I-3.509501 J-0.105570
G02 X99.629515 Y98.966920 Z0.000000 I-0.786071 J0.401072
G02 X99.155115 Y99.289130 Z0.000000 I-0.056550 J0.427083
G01 X99.155115 Y99.289130 Z0.000000
G00 Z5.000000

(End cutting path id: path21)


(Start cutting path id: path21)
(Change tool to Cylindrical cutter)

G00 Z5.000000
G00 X103.721180 Y100.919100

G01 Z0.000000 F100.0(Penetrate)
G02 X103.592735 Y101.115330 Z0.000000 I0.405730 J0.405730 F400.000000
G02 X103.544790 Y101.368890 Z0.000000 I0.646518 J0.253560
G02 X103.627754 Y101.441999 Z0.000000 I0.073694 J0.000000
G02 X103.857880 Y101.329190 Z0.000000 I-0.049787 J-0.392694
G02 X104.062812 Y101.016106 Z0.000000 I-0.647322 J-0.647322
G02 X104.034270 Y100.879400 Z0.000000 I-0.118697 J-0.046551
G02 X103.897549 Y100.832637 Z0.000000 I-0.116052 J0.116052
G02 X103.721180 Y100.919100 Z0.000000 I0.038222 J0.301076
G01 X103.721180 Y100.919100 Z0.000000
G00 Z5.000000

(End cutting path id: path21)


(Start cutting path id: path21)
(Change tool to Cylindrical cutter)

G00 Z5.000000
G00 X101.519430 Y105.119750

G01 Z0.000000 F100.0(Penetrate)
G02 X101.627232 Y105.335122 Z0.000000 I0.152288 J0.058440 F400.000000
G02 X101.903400 Y105.228590 Z0.000000 I0.067193 J-0.237039
G02 X102.043605 Y104.812803 Z0.000000 I-0.805805 J-0.503253
G02 X101.951200 Y104.711460 Z0.000000 I-0.092405 J-0.008544
G02 X101.735163 Y104.797425 Z0.000000 I-0.000000 J0.314443
G02 X101.519400 Y105.119750 Z0.000000 I0.601196 J0.635815
G01 X101.519430 Y105.119750 Z0.000000
G00 Z5.000000

(End cutting path id: path21)


(Start cutting path id: path21)
(Change tool to Cylindrical cutter)

G00 Z5.000000
G00 X104.603120 Y105.769790

G01 Z0.000000 F100.0(Penetrate)
G02 X104.682821 Y105.954674 Z0.000000 I0.254290 J0.000000 F400.000000
G02 X104.883320 Y106.034380 Z0.000000 I0.200499 J-0.212323
G02 X105.012489 Y105.950171 Z0.000000 I0.000000 J-0.141172
G02 X105.000000 Y105.769790 Z0.000000 I-0.177612 J-0.078325
G02 X104.815321 Y105.543175 Z0.000000 I-0.956370 J0.590831
G02 X104.719800 Y105.505210 Z0.000000 I-0.095521 J0.101185
G02 X104.649151 Y105.551273 Z0.000000 I0.000000 J0.077210
G02 X104.603120 Y105.769790 Z0.000000 I0.495652 J0.218517
G01 X104.603120 Y105.769790 Z0.000000
G00 Z5.000000

(End cutting path id: path21)


(Start cutting path id: path21)
(Change tool to Cylindrical cutter)

G00 Z5.000000
G00 X100.546180 Y107.269100

G01 Z0.000000 F100.0(Penetrate)
G02 X100.417735 Y107.465330 Z0.000000 I0.405730 J0.405730 F400.000000
G02 X100.369790 Y107.718890 Z0.000000 I0.646518 J0.253560
G02 X100.452754 Y107.791999 Z0.000000 I0.073694 J0.000000
G02 X100.682880 Y107.679190 Z0.000000 I-0.049787 J-0.392694
G02 X100.887812 Y107.366106 Z0.000000 I-0.647322 J-0.647322
G02 X100.859270 Y107.229400 Z0.000000 I-0.118697 J-0.046551
G02 X100.722549 Y107.182637 Z0.000000 I-0.116052 J0.116052
G02 X100.546180 Y107.269100 Z0.000000 I0.038222 J0.301076
G01 X100.546180 Y107.269100 Z0.000000
G00 Z5.000000

(End cutting path id: path21)


(Start cutting path id: path21)
(Change tool to Cylindrical cutter)

G00 Z5.000000
G00 X102.659760 Y108.899480

G01 Z0.000000 F100.0(Penetrate)
G02 X102.272054 Y109.402676 Z0.000000 I2.980682 J2.697533 F400.000000
G02 X102.221870 Y109.571650 Z0.000000 I0.259381 J0.168974
G03 X102.174567 Y109.744388 Z0.000000 I-0.339049 J0.000000
G03 X101.662050 Y110.517180 Z0.000000 I-7.822587 J-4.631608
G02 X101.236347 Y111.293397 Z0.000000 I2.644298 J1.955063
G02 X101.234370 Y111.630940 Z0.000000 I0.446344 J0.171391
G02 X101.369962 Y111.684214 Z0.000000 I0.091594 J-0.033933
G02 X101.576460 Y111.458340 Z0.000000 I-0.194158 J-0.384833
G03 X101.815223 Y110.949475 Z0.000000 I4.283711 J1.699502
G03 X101.937990 Y110.796140 Z0.000000 I0.493993 J0.269699
G02 X103.465622 Y108.861849 Z0.000000 I-4.490364 J-5.116704
G02 X103.196820 Y108.415630 Z0.000000 I-0.268802 J-0.142147
G02 X103.112012 Y108.448202 Z0.000000 I-0.000000 J0.126693
G02 X102.659760 Y108.899480 Z0.000000 I4.200994 J4.662315
G01 X102.659760 Y108.899480 Z0.000000
G00 Z5.000000

(End cutting path id: path21)


(Start cutting path id: path21)
(Change tool to Cylindrical cutter)

G00 Z5.000000
G00 X114.089670 Y111.005290

G01 Z0.000000 F100.0(Penetrate)
G02 X114.740607 Y112.636521 Z0.000000 I13.605985 J-4.483926 F400.000000
G02 X114.853560 Y112.623600 Z0.000000 I0.054284 J-0.025624
G02 X114.721401 Y110.460654 Z0.000000 I-3.911165 J-0.846532
G02 X113.623240 Y109.092100 Z0.000000 I-2.477284 J0.862960
G01 X113.556091 Y109.140885 Z0.000000
G02 X114.089670 Y111.005290 Z0.000000 I23.804765 J-5.804186
G01 X114.089670 Y111.005290 Z0.000000
G00 Z5.000000

(End cutting path id: path21)


(Start cutting path id: path21)
(Change tool to Cylindrical cutter)

G00 Z5.000000
G00 X76.401330 Y110.732350

G01 Z0.000000 F100.0(Penetrate)
G02 X76.911809 Y111.208955 Z0.000000 I2.281530 J-1.932004 F400.000000
G02 X77.036627 Y111.199490 Z0.000000 I0.056900 J-0.077383
G03 X77.157570 Y111.186044 Z0.000000 I0.068876 J0.068866
G03 X77.457171 Y111.465540 Z0.000000 I-0.590089 J0.932858
G02 X77.626871 Y111.468800 Z0.000000 I0.086096 J-0.063234
G02 X77.776089 Y111.064560 Z0.000000 I-0.538847 J-0.428566
G02 X77.516624 Y110.565880 Z0.000000 I-0.570207 J-0.020160
G02 X77.177755 Y110.676010 Z0.000000 I-0.124848 J0.192257
G03 X76.952104 Y110.816345 Z0.000000 I-0.205507 J-0.078861
G03 X76.458454 Y110.609910 Z0.000000 I0.081677 J-0.888768
G01 X75.895833 Y110.135470 Z0.000000
G01 X76.401330 Y110.732350 Z0.000000
G00 Z5.000000

(End cutting path id: path21)


(Start cutting path id: path21)
(Change tool to Cylindrical cutter)

G00 Z5.000000
G00 X113.473120 Y111.590630

G01 Z0.000000 F100.0(Penetrate)
G02 X113.825495 Y112.444218 Z0.000000 I2.463222 J-0.517331 F400.000000
G02 X113.988630 Y112.384380 Z0.000000 I0.074738 J-0.048539
G02 X113.747399 Y111.238922 Z0.000000 I-7.225319 J0.923508
G02 X113.557540 Y110.929170 Z0.000000 I-0.672759 J0.199298
G02 X113.448185 Y110.968152 Z0.000000 I-0.044793 J0.047221
G02 X113.473140 Y111.590630 Z0.000000 I1.858988 J0.237213
G01 X113.473120 Y111.590630 Z0.000000
G00 Z5.000000

(End cutting path id: path21)


(Start cutting path id: path21)
(Change tool to Cylindrical cutter)

G00 Z5.000000
G00 X69.950754 Y111.804680

G01 Z0.000000 F100.0(Penetrate)
G03 X69.852845 Y111.985339 Z0.000000 I-0.225228 J-0.005202 F400.000000
G03 X69.681156 Y111.989380 Z0.000000 I-0.088948 J-0.129847
G02 X69.582390 Y112.024239 Z0.000000 I-0.035351 J0.057185
G02 X69.585686 Y112.260530 Z0.000000 I0.322844 J0.113665
G02 X69.778589 Y112.424094 Z0.000000 I0.245760 J-0.094309
G02 X69.975479 Y112.340430 Z0.000000 I0.037819 J-0.184506
G03 X70.118757 Y112.270336 Z0.000000 I0.128694 J0.081578
G03 X70.203242 Y112.362330 Z0.000000 I-0.008943 J0.093004
G02 X70.273920 Y112.573816 Z0.000000 I0.363351 J-0.003877
G02 X70.363838 Y112.580620 Z0.000000 I0.047883 J-0.035234
G02 X70.415862 Y112.410479 Z0.000000 I-0.133996 J-0.133996
G02 X70.239592 Y111.941200 Z0.000000 I-1.476720 J0.286939
G02 X70.034575 Y111.752942 Z0.000000 I-0.405448 J0.235780
G02 X69.950756 Y111.804680 Z0.000000 I-0.025100 J0.053102
G01 X69.950754 Y111.804680 Z0.000000
G00 Z5.000000

(End cutting path id: path21)


(Start cutting path id: path21)
(Change tool to Cylindrical cutter)

G00 Z5.000000
G00 X64.183278 Y112.384380

G01 Z0.000000 F100.0(Penetrate)
G02 X64.552528 Y112.843599 Z0.000000 I2.105362 J-1.314824 F400.000000
G02 X64.723996 Y112.913540 Z0.000000 I0.171468 J-0.175214
G02 X64.796114 Y112.830798 Z0.000000 I0.000000 J-0.072800
G02 X64.651046 Y112.384380 Z0.000000 I-1.318954 J0.181827
G02 X64.317278 Y111.939627 Z0.000000 I-1.614801 J0.864222
G02 X64.110328 Y111.855210 Z0.000000 I-0.206950 J0.211464
G02 X64.026424 Y111.951474 Z0.000000 I0.000000 J0.084697
G02 X64.183278 Y112.384380 Z0.000000 I1.090898 J-0.150393
G01 X64.183278 Y112.384380 Z0.000000
G00 Z5.000000

(End cutting path id: path21)


(Start cutting path id: path21)
(Change tool to Cylindrical cutter)

G00 Z5.000000
G00 X66.900000 Y112.119790

G01 Z0.000000 F100.0(Penetrate)
G02 X67.099699 Y112.319491 Z0.000000 I0.522868 J-0.323163 F400.000000
G02 X67.328105 Y112.384380 Z0.000000 I0.228406 J-0.369545
G02 X67.446494 Y112.302868 Z0.000000 I0.000000 J-0.126731
G02 X67.429167 Y112.119790 Z0.000000 I-0.193789 J-0.074018
G02 X67.229468 Y111.920095 Z0.000000 I-0.522825 J0.323137
G02 X67.001062 Y111.855210 Z0.000000 I-0.228406 J0.369571
G02 X66.882675 Y111.936719 Z0.000000 I0.000000 J0.126730
G02 X66.900000 Y112.119790 Z0.000000 I0.193776 J0.074017
G01 X66.900000 Y112.119790 Z0.000000
G00 Z5.000000

(End cutting path id: path21)


(Start cutting path id: path21)
(Change tool to Cylindrical cutter)

G00 Z5.000000
G00 X67.970897 Y112.364050

G01 Z0.000000 F100.0(Penetrate)
G02 X68.060956 Y113.005548 Z0.000000 I0.431253 J0.266528 F400.000000
G02 X68.820358 Y113.136990 Z0.000000 I0.482942 J-0.530751
G02 X68.869088 Y113.013423 Z0.000000 I-0.035647 J-0.085450
G02 X68.574321 Y112.592460 Z0.000000 I-1.262476 J0.570330
G02 X68.130830 Y112.309682 Z0.000000 I-0.899187 J0.921066
G02 X67.970897 Y112.364050 Z0.000000 I-0.047000 J0.124162
G01 X67.970897 Y112.364050 Z0.000000
G00 Z5.000000

(End cutting path id: path21)


(Start cutting path id: path21)
(Change tool to Cylindrical cutter)

G00 Z5.000000
G00 X76.028125 Y112.263780

G01 Z0.000000 F100.0(Penetrate)
G02 X76.047618 Y112.310442 Z0.000000 I0.065597 J-0.000000 F400.000000
G02 X76.380902 Y112.612360 Z0.000000 I3.648572 J-3.692712
G02 X76.628051 Y112.680210 Z0.000000 I0.198573 J-0.239264
G02 X76.733681 Y112.556560 Z0.000000 I-0.019558 J-0.123650
G02 X76.630977 Y112.310698 Z0.000000 I-0.345637 J-0.000000
G02 X76.380902 Y112.207990 Z0.000000 I-0.250075 J0.253091
G02 X76.053840 Y112.233689 Z0.000000 I-0.000000 J2.094033
G01 X76.028125 Y112.263790 Z0.000000
G01 X76.028125 Y112.263780 Z0.000000
G00 Z5.000000

(End cutting path id: path21)


(Start cutting path id: path21)
(Change tool to Cylindrical cutter)

G00 Z5.000000
G00 X56.986480 Y112.516670

G01 Z0.000000 F100.0(Penetrate)
G02 X57.051161 Y112.756951 Z0.000000 I0.443544 J0.009449 F400.000000
G02 X57.631383 Y113.575000 Z0.000000 I6.148000 J-3.745830
G02 X58.187026 Y114.090471 Z0.000000 I2.157743 J-1.768691
G02 X58.291527 Y114.038020 Z0.000000 I0.038129 J-0.054361
G02 X58.225608 Y113.780577 Z0.000000 I-0.481877 J-0.013775
G02 X58.097741 Y113.707290 Z0.000000 I-0.127867 J0.074904
G03 X57.934839 Y113.634708 Z0.000000 I0.000000 J-0.219100
G03 X57.443323 Y112.979690 Z0.000000 I3.434908 J-3.089424
G02 X57.056842 Y112.488687 Z0.000000 I-2.379168 J1.475098
G01 X56.986480 Y112.516670 Z0.000000
G01 X56.986480 Y112.516670 Z0.000000
G00 Z5.000000

(End cutting path id: path21)


(Start cutting path id: path21)
(Change tool to Cylindrical cutter)

G00 Z5.000000
G00 X70.393116 Y113.266320

G01 Z0.000000 F100.0(Penetrate)
G02 X70.414340 Y113.511462 Z0.000000 I0.262559 J0.100758 F400.000000
G02 X70.604167 Y113.619100 Z0.000000 I0.189827 J-0.113569
G02 X70.793993 Y113.511461 Z0.000000 I-0.000000 J-0.221202
G02 X70.815217 Y113.266320 Z0.000000 I-0.241346 J-0.144385
G02 X70.658619 Y112.944417 Z0.000000 I-1.937686 J0.743597
G02 X70.604167 Y112.913540 Z0.000000 I-0.054452 J0.032575
G02 X70.549716 Y112.944415 Z0.000000 I0.000000 J0.063451
G02 X70.393116 Y113.266320 Z0.000000 I1.780635 J1.065289
G01 X70.393116 Y113.266320 Z0.000000
G00 Z5.000000

(End cutting path id: path21)


(Start cutting path id: path21)
(Change tool to Cylindrical cutter)

G00 Z5.000000
G00 X99.740019 Y113.971450

G01 Z0.000000 F100.0(Penetrate)
G03 X98.021761 Y116.044157 Z0.000000 I-10.456498 J-6.919793 F400.000000
G03 X95.446543 Y118.143530 Z0.000000 I-13.307892 J-13.695116
G02 X94.715013 Y118.801100 Z0.000000 I2.048270 J3.014337
G02 X94.698132 Y119.026280 Z0.000000 I0.146500 J0.124206
G03 X94.695265 Y119.282111 Z0.000000 I-0.203314 J0.125653
G03 X92.456019 Y122.478640 Z0.000000 I-46.639095 J-30.289224
G03 X90.101567 Y125.516579 Z0.000000 I-116.704547 J-88.016590
G01 X90.051041 Y125.498920 Z0.000000
G02 X89.982685 Y125.444480 Z0.000000 I-0.055857 J0.000000
G02 X89.499213 Y125.625670 Z0.000000 I0.436047 J1.899130
G02 X89.092903 Y125.942544 Z0.000000 I0.714563 J1.335177
G02 X89.095946 Y126.069560 Z0.000000 I0.068148 J0.061912
G02 X89.249973 Y126.103306 Z0.000000 I0.103358 J-0.103371
G02 X89.690800 Y125.849680 Z0.000000 I-0.526739 J-1.425437
G03 X89.918338 Y125.780366 Z0.000000 I0.197034 J0.238678
G03 X89.977566 Y125.878080 Z0.000000 I-0.007039 J0.071074
G02 X89.141817 Y128.958056 Z0.000000 I12.658973 J5.088381
G02 X89.499697 Y129.088960 Z0.000000 I0.192407 J0.028636
G03 X89.750086 Y128.826333 Z0.000000 I0.747481 J0.461975
G03 X89.941715 Y128.785740 Z0.000000 I0.144837 J0.211126
G02 X90.118008 Y128.739791 Z0.000000 I0.039139 J-0.211003
G02 X90.277188 Y128.506920 Z0.000000 I-0.328620 J-0.395469
G02 X90.226999 Y128.384394 Z0.000000 I-0.096294 J-0.032098
G02 X90.051041 Y128.391620 Z0.000000 I-0.081558 J0.159963
G03 X89.875085 Y128.398842 Z0.000000 I-0.094395 J-0.152743
G03 X89.824894 Y128.276310 Z0.000000 I0.046108 J-0.090432
G03 X89.978328 Y128.026894 Z0.000000 I0.609973 J0.203336
G03 X90.123802 Y127.974900 Z0.000000 I0.127067 J0.126013
G02 X90.315975 Y127.987891 Z0.000000 I0.279245 J-2.702838
G02 X90.740807 Y127.994700 Z0.000000 I0.424832 J-13.250679
G03 X90.981673 Y128.121396 Z0.000000 I0.000000 J0.292308
G03 X91.013693 Y128.391580 Z0.000000 I-0.240731 J0.165519
G02 X91.175363 Y128.587641 Z0.000000 I0.136293 J0.052301
G02 X91.772301 Y128.257660 Z0.000000 I-0.182819 J-1.035643
G03 X92.255294 Y127.832790 Z0.000000 I2.100806 J1.901232
G03 X92.368672 Y127.842890 Z0.000000 I0.050651 J0.072827
G02 X93.737475 Y128.064070 Z0.000000 I0.837614 J-0.837589
G02 X94.548958 Y126.749060 Z0.000000 I-0.659746 J-1.315010
G02 X94.493418 Y126.696021 Z0.000000 I-0.053095 J0.000000
G02 X94.152083 Y126.767460 Z0.000000 I0.050326 J1.091631
G03 X93.848391 Y126.784225 Z0.000000 I-0.177888 J-0.463362
G03 X93.755208 Y126.663480 Z0.000000 I0.031638 J-0.120745
G03 X93.831466 Y126.483453 Z0.000000 I0.250631 J0.000000
G03 X94.019791 Y126.407200 Z0.000000 I0.188325 J0.194432
G02 X94.205657 Y126.328483 Z0.000000 I0.000000 J-0.258793
G02 X94.284374 Y126.134110 Z0.000000 I-0.200623 J-0.194373
G02 X94.109937 Y126.023943 Z0.000000 I-0.122007 J0.000000
G02 X91.425858 Y127.494520 Z0.000000 I11.537457 J24.242787
G03 X90.879760 Y127.658344 Z0.000000 I-0.572742 J-0.917095
G03 X90.525547 Y127.516720 Z0.000000 I-0.011928 J-0.483934
G03 X90.395038 Y126.714529 Z0.000000 I0.491705 J-0.491708
G03 X92.508644 Y123.542550 Z0.000000 I13.685718 J6.829120
G02 X93.483350 Y122.360538 Z0.000000 I-25.052505 J-21.651574
G02 X94.932347 Y120.460800 Z0.000000 I-63.308803 J-49.790332
G03 X96.429957 Y118.604901 Z0.000000 I22.728786 J16.808710
G03 X98.454954 Y116.453790 Z0.000000 I32.584666 J28.645612
G02 X100.484698 Y114.323932 Z0.000000 I-37.100508 J-37.388691
G02 X100.691380 Y113.971800 Z0.000000 I-0.753606 J-0.679047
G03 X100.886770 Y113.942113 Z0.000000 I0.105403 J0.035889
G03 X101.944640 Y115.691590 Z0.000000 I-9.629927 J7.017576
G02 X102.899936 Y117.519014 Z0.000000 I38.976891 J-19.211993
G02 X103.465750 Y118.440490 Z0.000000 I10.456555 J-5.786181
G02 X103.730100 Y118.318760 Z0.000000 I0.122078 J-0.082791
G02 X102.713180 Y115.690770 Z0.000000 I-13.338123 J3.650538
G02 X100.837839 Y113.713237 Z0.000000 I-4.280342 J2.181168
G02 X99.740019 Y113.971370 Z0.000000 I-0.411818 J0.712111
G01 X99.740019 Y113.971450 Z0.000000
G00 Z5.000000

(End cutting path id: path21)


(Start cutting path id: path21)
(Change tool to Cylindrical cutter)

G00 Z5.000000
G00 X106.282470 Y113.302320

G01 Z0.000000 F100.0(Penetrate)
G02 X105.816348 Y113.752962 Z0.000000 I1.185754 J1.692872 F400.000000
G02 X105.587360 Y114.226660 Z0.000000 I1.087822 J0.818055
G02 X105.786048 Y115.625007 Z0.000000 I1.767307 J0.462176
G02 X106.984370 Y116.567460 Z0.000000 I1.827615 J-1.090743
G02 X107.057992 Y116.485927 Z0.000000 I0.017908 J-0.057835
G02 X106.739820 Y115.992550 Z0.000000 I-1.591027 J0.676751
G03 X106.267711 Y115.369131 Z0.000000 I3.027901 J-2.783472
G01 X106.309190 Y115.294790 Z0.000000
G02 X106.363499 Y115.221294 Z0.000000 I0.000000 J-0.056813
G02 X106.185320 Y114.891520 Z0.000000 I-0.913791 J0.280705
G03 X105.982801 Y114.494380 Z0.000000 I0.781818 J-0.648889
G03 X106.035010 Y114.303870 Z0.000000 I0.193296 J-0.049436
G03 X106.206259 Y114.255668 Z0.000000 I0.128607 J0.128607
G03 X106.403450 Y114.392670 Z0.000000 I-0.077727 J0.322288
G02 X107.839662 Y115.216189 Z0.000000 I1.554904 J-1.047610
G02 X108.571700 Y114.530210 Z0.000000 I0.043583 J-0.687075
G02 X108.535997 Y114.444886 Z0.000000 I-0.119304 J-0.000210
G02 X108.108850 Y114.075610 Z0.000000 I-3.114227 J3.170591
G03 X107.912460 Y113.810102 Z0.000000 I0.355578 J-0.468400
G03 X107.976560 Y113.715710 Z0.000000 I0.065886 J-0.024218
G03 X108.274822 Y113.789829 Z0.000000 I0.015770 J0.573719
G03 X108.781650 Y114.170310 Z0.000000 I-1.209240 J2.138598
G02 X109.296236 Y114.555187 Z0.000000 I1.716121 J-1.758035
G02 X109.772700 Y114.726010 Z0.000000 I0.745609 J-1.329778
G02 X109.918038 Y114.612722 Z0.000000 I0.021842 J-0.121850
G02 X109.803500 Y114.281720 Z0.000000 I-0.446157 J-0.030932
G02 X108.430671 Y113.216969 Z0.000000 I-3.687789 J3.337425
G02 X107.201740 Y112.913540 Z0.000000 I-1.228931 J2.336960
G02 X106.859467 Y112.982945 Z0.000000 I-0.000000 J0.878671
G02 X106.282510 Y113.302320 Z0.000000 I1.220401 J2.885505
G01 X106.282470 Y113.302320 Z0.000000
G00 Z5.000000

(End cutting path id: path21)


(Start cutting path id: path21)
(Change tool to Cylindrical cutter)

G00 Z5.000000
G00 X108.841030 Y113.102670

G01 Z0.000000 F100.0(Penetrate)
G02 X109.569122 Y114.456374 Z0.000000 I1.690242 J-0.036445 F400.000000
G02 X110.654790 Y114.358410 Z0.000000 I0.484135 J-0.699497
G02 X110.664230 Y114.238162 Z0.000000 I-0.065648 J-0.065648
G02 X110.272350 Y113.832380 Z0.000000 I-1.643394 J1.194973
G02 X108.985421 Y113.012010 Z0.000000 I-4.901384 J6.269287
G02 X108.841030 Y113.102670 Z0.000000 I-0.045106 J0.088475
G01 X108.841030 Y113.102670 Z0.000000
G00 Z5.000000

(End cutting path id: path21)


(Start cutting path id: path21)
(Change tool to Cylindrical cutter)

G00 Z5.000000
G00 X89.654166 Y116.135460

G01 Z0.000000 F100.0(Penetrate)
G03 X86.181508 Y118.701650 Z0.000000 I-86.084609 J-112.859931 F400.000000
G03 X85.674542 Y118.983720 Z0.000000 I-1.491185 J-2.083496
G02 X84.454556 Y119.785593 Z0.000000 I1.506750 J3.621394
G02 X84.564443 Y120.057290 Z0.000000 I0.109887 J0.113627
G02 X85.876731 Y119.683405 Z0.000000 I-0.000000 J-2.489921
G02 X88.781568 Y117.441970 Z0.000000 I-9.488003 J-15.299201
G03 X89.567080 Y116.769131 Z0.000000 I6.985827 J7.360725
G03 X91.109374 Y115.645370 Z0.000000 I21.105386 J27.345623
G02 X93.209878 Y113.922320 Z0.000000 I-9.068009 J-13.196311
G02 X93.202371 Y113.607970 Z0.000000 I-0.149610 J-0.153692
G02 X93.090498 Y113.602099 Z0.000000 I-0.059632 J0.067470
G02 X89.654166 Y116.135460 Z0.000000 I75.804022 J106.420235
G01 X89.654166 Y116.135460 Z0.000000
G00 Z5.000000

(End cutting path id: path21)


(Start cutting path id: path21)
(Change tool to Cylindrical cutter)

G00 Z5.000000
G00 X149.996170 Y113.894320

G01 Z0.000000 F100.0(Penetrate)
G02 X150.027817 Y114.042214 Z0.000000 I0.130025 J0.049509 F400.000000
G02 X150.144290 Y114.042430 Z0.000000 I0.058345 J-0.058349
G02 X150.356585 Y113.715895 Z0.000000 I-0.649956 J-0.654845
G02 X150.324940 Y113.568000 Z0.000000 I-0.130030 J-0.049510
G02 X150.208430 Y113.567792 Z0.000000 I-0.058359 J0.058359
G02 X149.996170 Y113.894320 Z0.000000 I0.650351 J0.655016
G01 X149.996170 Y113.894320 Z0.000000
G00 Z5.000000

(End cutting path id: path21)


(Start cutting path id: path21)
(Change tool to Cylindrical cutter)

G00 Z5.000000
G00 X149.119410 Y115.548370

G01 Z0.000000 F100.0(Penetrate)
G02 X148.716004 Y116.539686 Z0.000000 I6.579733 J3.255298 F400.000000
G02 X148.772730 Y116.617710 Z0.000000 I0.056726 J0.018391
G02 X149.973452 Y115.866454 Z0.000000 I0.000000 J-1.335176
G02 X149.759020 Y114.589580 Z0.000000 I-1.003363 J-0.487942
G02 X149.668130 Y114.598566 Z0.000000 I-0.041760 J0.041760
G02 X149.119410 Y115.548370 Z0.000000 I7.087465 J4.727971
G01 X149.119410 Y115.548370 Z0.000000
G00 Z5.000000

(End cutting path id: path21)


(Start cutting path id: path21)
(Change tool to Cylindrical cutter)

G00 Z5.000000
G00 X107.463220 Y115.168720

G01 Z0.000000 F100.0(Penetrate)
G02 X107.268583 Y116.098141 Z0.000000 I0.613586 J0.613586 F400.000000
G02 X108.029450 Y116.617710 Z0.000000 I0.760867 J-0.297329
G02 X108.536169 Y116.341854 Z0.000000 I0.000000 J-0.603324
G02 X108.558530 Y115.799030 Z0.000000 I-0.449332 J-0.290382
G02 X108.232651 Y115.493248 Z0.000000 I-0.615492 J0.329405
G02 X107.862980 Y115.481900 Z0.000000 I-0.198365 J0.435060
G03 X107.649401 Y115.464838 Z0.000000 I-0.088953 J-0.231808
G03 X107.618040 Y115.339760 Z0.000000 I0.045145 J-0.077790
G02 X107.602745 Y115.172199 Z0.000000 I-0.119100 J-0.073607
G02 X107.463220 Y115.168720 Z0.000000 I-0.071418 J0.064640
G01 X107.463220 Y115.168720 Z0.000000
G00 Z5.000000

(End cutting path id: path21)


(Start cutting path id: path21)
(Change tool to Cylindrical cutter)

G00 Z5.000000
G00 X109.549200 Y115.465070

G01 Z0.000000 F100.0(Penetrate)
G03 X109.719809 Y115.656548 Z0.000000 I-0.109652 J0.269447 F400.000000
G03 X109.702670 Y116.016750 Z0.000000 I-0.554080 J0.154145
G02 X109.722914 Y116.219451 Z0.000000 I0.211672 J0.081222
G02 X109.849830 Y116.248620 Z0.000000 I0.078218 J-0.049637
G02 X110.118591 Y115.658064 Z0.000000 I-0.306493 J-0.495919
G02 X109.696350 Y115.315680 Z0.000000 I-0.403803 J0.066431
G02 X109.533373 Y115.388269 Z0.000000 I0.011018 J0.243991
G01 X109.549200 Y115.465070 Z0.000000
G01 X109.549200 Y115.465070 Z0.000000
G00 Z5.000000

(End cutting path id: path21)


(Start cutting path id: path21)
(Change tool to Cylindrical cutter)

G00 Z5.000000
G00 X94.250624 Y118.403650

G01 Z0.000000 F100.0(Penetrate)
G02 X94.256300 Y118.497873 Z0.000000 I0.055989 J0.043910 F400.000000
G02 X94.350524 Y118.503550 Z0.000000 I0.050315 J-0.050314
G02 X94.779109 Y118.123665 Z0.000000 I-2.938836 J-3.747295
G02 X94.813545 Y118.040530 Z0.000000 I-0.083135 J-0.083135
G02 X94.710465 Y117.984359 Z0.000000 I-0.066845 J0.000000
G02 X94.250628 Y118.403660 Z0.000000 I1.018283 J1.578522
G01 X94.250624 Y118.403650 Z0.000000
G00 Z5.000000

(End cutting path id: path21)


(Start cutting path id: path21)
(Change tool to Cylindrical cutter)

G00 Z5.000000
G00 X92.829166 Y119.528130

G01 Z0.000000 F100.0(Penetrate)
G02 X92.816678 Y119.708506 Z0.000000 I0.165116 J0.102051 F400.000000
G02 X92.945842 Y119.792710 Z0.000000 I0.129164 J-0.056962
G02 X93.146338 Y119.713009 Z0.000000 I0.000000 J-0.292035
G02 X93.226041 Y119.528130 Z0.000000 I-0.174572 J-0.184879
G02 X93.179999 Y119.309590 Z0.000000 I-0.541668 J0.000000
G02 X93.109365 Y119.263540 Z0.000000 I-0.070634 J0.031145
G02 X93.013858 Y119.301507 Z0.000000 I0.000000 J0.139107
G02 X92.829166 Y119.528130 Z0.000000 I0.772825 J0.818405
G01 X92.829166 Y119.528130 Z0.000000
G00 Z5.000000

(End cutting path id: path21)


(Start cutting path id: path21)
(Change tool to Cylindrical cutter)

G00 Z5.000000
G00 X86.444040 Y123.347000

G01 Z0.000000 F100.0(Penetrate)
G02 X87.459353 Y123.965722 Z0.000000 I6.011528 J-8.722404 F400.000000
G02 X87.570141 Y123.949300 Z0.000000 I0.044326 J-0.082874
G02 X87.542752 Y123.566933 Z0.000000 I-0.179314 J-0.179320
G02 X86.082291 Y122.836050 Z0.000000 I-2.757345 J3.685167
G02 X86.017900 Y122.926210 Z0.000000 I-0.016525 J0.056271
G02 X86.444040 Y123.347000 Z0.000000 I1.398544 J-0.990150
G01 X86.444040 Y123.347000 Z0.000000
G00 Z5.000000

(End cutting path id: path21)


(Start cutting path id: path21)
(Change tool to Cylindrical cutter)

G00 Z5.000000
G00 X47.982292 Y123.981950

G01 Z0.000000 F100.0(Penetrate)
G02 X48.125471 Y124.412028 Z0.000000 I0.717521 J-0.000000 F400.000000
G02 X48.411564 Y124.555210 Z0.000000 I0.286093 J-0.214232
G02 X48.569178 Y124.421034 Z0.000000 I0.000000 J-0.159662
G02 X48.486434 Y124.092190 Z0.000000 I-0.422997 J-0.068397
G03 X48.134528 Y123.627373 Z0.000000 I43.861239 J-33.572294
G03 X48.057162 Y123.518920 Z0.000000 I2.307800 J-1.728116
G01 X48.018804 Y123.527428 Z0.000000
G02 X47.982292 Y123.981950 Z0.000000 I2.810793 J0.454522
G01 X47.982292 Y123.981950 Z0.000000
G00 Z5.000000

(End cutting path id: path21)


(Start cutting path id: path21)
(Change tool to Cylindrical cutter)

G00 Z5.000000
G00 X82.378125 Y123.761460

G01 Z0.000000 F100.0(Penetrate)
G02 X82.291749 Y123.920124 Z0.000000 I0.102536 J0.158664 F400.000000
G02 X82.378125 Y124.003390 Z0.000000 I0.083322 J0.000000
G02 X82.765452 Y123.946404 Z0.000000 I-0.065637 J-1.790919
G02 X83.304166 Y123.761460 Z0.000000 I-0.958427 J-3.668829
G01 X83.833333 Y123.534070 Z0.000000
G01 X83.304166 Y123.519470 Z0.000000
G02 X82.795396 Y123.577738 Z0.000000 I-0.049883 J1.814743
G02 X82.378125 Y123.761400 Z0.000000 I0.363715 J1.392186
G01 X82.378125 Y123.761460 Z0.000000
G00 Z5.000000

(End cutting path id: path21)


(Start cutting path id: path21)
(Change tool to Cylindrical cutter)

G00 Z5.000000
G00 X79.996875 Y124.555210

G01 Z0.000000 F100.0(Penetrate)
G02 X80.076405 Y124.740263 Z0.000000 I0.255059 J0.000000 F400.000000
G02 X80.275806 Y124.819790 Z0.000000 I0.199401 J-0.210220
G03 X80.523827 Y124.898146 Z0.000000 I0.000000 J0.431710
G03 X81.396124 Y125.606130 Z0.000000 I-4.627710 J6.593099
G02 X83.174764 Y126.728679 Z0.000000 I3.829812 J-4.097832
G02 X83.879288 Y126.581820 Z0.000000 I0.240158 J-0.611220
G02 X83.860288 Y126.490743 Z0.000000 I-0.039310 J-0.039320
G02 X83.064906 Y126.262300 Z0.000000 I-1.606018 J4.092878
G03 X82.253944 Y125.896546 Z0.000000 I0.347528 J-1.852475
G03 X81.684808 Y125.186900 Z0.000000 I1.211334 J-1.554536
G02 X81.140585 Y124.478679 Z0.000000 I-1.916323 J0.909361
G02 X80.628186 Y124.290630 Z0.000000 I-0.512399 J0.604073
G02 X80.102566 Y124.396319 Z0.000000 I0.000000 J1.359874
G02 X79.996875 Y124.555210 Z0.000000 I0.066590 J0.158891
G01 X79.996875 Y124.555210 Z0.000000
G00 Z5.000000

(End cutting path id: path21)


(Start cutting path id: path21)
(Change tool to Cylindrical cutter)

G00 Z5.000000
G00 X82.378125 Y125.065480

G01 Z0.000000 F100.0(Penetrate)
G02 X82.751262 Y125.777242 Z0.000000 I0.865415 J0.000000 F400.000000
G02 X83.918378 Y126.130780 Z0.000000 I1.133581 J-1.638995
G01 X84.627083 Y126.118880 Z0.000000
G01 X83.833333 Y125.755430 Z0.000000
G03 X83.874221 Y125.602315 Z0.000000 I0.033463 J-0.073081
G03 X85.156250 Y125.878170 Z0.000000 I-0.508428 J5.479936
G02 X86.696026 Y126.396996 Z0.000000 I41.548217 J-120.762781
G02 X86.760400 Y126.407340 Z0.000000 I0.064374 J-0.195143
G01 X86.787085 Y126.376899 Z0.000000
G02 X86.692910 Y125.896480 Z0.000000 I-3.900574 J0.515176
G02 X86.467140 Y125.565161 Z0.000000 I-0.577685 J0.151069
G02 X86.187977 Y125.528110 Z0.000000 I-0.173628 J0.238001
G03 X85.817419 Y125.560022 Z0.000000 I-0.240640 J-0.626883
G03 X84.753485 Y125.245220 Z0.000000 I1.156176 J-5.862801
G02 X82.698680 Y124.768304 Z0.000000 I-2.578437 J6.444211
G02 X82.378128 Y125.065520 Z0.000000 I-0.022487 J0.297216
G01 X82.378125 Y125.065480 Z0.000000
G00 Z5.000000

(End cutting path id: path21)


(Start cutting path id: path21)
(Change tool to Cylindrical cutter)

G00 Z5.000000
G00 X47.982292 Y125.870820

G01 Z0.000000 F100.0(Penetrate)
G02 X48.066041 Y126.329368 Z0.000000 I1.297213 J0.000000 F400.000000
G02 X48.231391 Y126.530010 Z0.000000 I0.377512 J-0.142656
G03 X48.448053 Y126.719994 Z0.000000 I-0.458049 J0.740903
G03 X50.618924 Y129.454060 Z0.000000 I-98.980820 J80.820476
G02 X53.426319 Y132.482007 Z0.000000 I18.141580 J-14.004742
G02 X54.895142 Y133.303850 Z0.000000 I2.547782 J-2.829989
G02 X57.137919 Y133.709374 Z0.000000 I2.984409 J-10.100785
G02 X67.693750 Y134.207300 Z0.000000 I15.944317 J-225.874692
G03 X71.138499 Y134.707266 Z0.000000 I-0.344971 J14.493933
G03 X74.837500 Y136.141900 Z0.000000 I-4.923465 J18.180446
G02 X76.694001 Y137.086740 Z0.000000 I100.744067 J-195.654116
G02 X78.205624 Y137.836050 Z0.000000 I64.943428 J-129.114414
G03 X79.387853 Y138.703016 Z0.000000 I-1.813085 J3.711943
G03 X79.475135 Y139.172650 Z0.000000 I-0.317986 J0.302026
G02 X79.252493 Y139.777362 Z0.000000 I7.565078 J3.128642
G02 X78.167212 Y143.208330 Z0.000000 I242.816161 J78.694541
G02 X76.711426 Y149.603111 Z0.000000 I41.555828 J12.823372
G02 X76.120676 Y156.901050 Z0.000000 I53.607556 J8.012279
G03 X75.891506 Y162.367741 Z0.000000 I-95.263893 J-1.255418
G03 X75.634099 Y163.780220 Z0.000000 I-6.544061 J-0.462882
G02 X75.302324 Y165.184399 Z0.000000 I11.949875 J3.564761
G02 X75.059385 Y167.047140 Z0.000000 I20.818200 J3.662329
G02 X75.129749 Y168.817613 Z0.000000 I7.082213 J0.605166
G02 X75.433831 Y169.300230 Z0.000000 I0.726710 J-0.120773
G03 X76.050103 Y170.729539 Z0.000000 I-0.850466 J1.214207
G03 X74.557182 Y175.277920 Z0.000000 I-13.873935 J-2.034658
G02 X74.079181 Y176.430527 Z0.000000 I5.773130 J3.069612
G02 X73.785965 Y177.792770 Z0.000000 I7.795609 J2.390643
G03 X73.513004 Y179.164687 Z0.000000 I-9.928428 J-1.262281
G03 X73.098326 Y180.313260 Z0.000000 I-7.358405 J-2.007515
G02 X72.690635 Y181.456973 Z0.000000 I6.573245 J2.987636
G02 X72.588542 Y182.243260 Z0.000000 I2.976816 J0.786287
G02 X73.113232 Y185.943022 Z0.000000 I13.306462 J0.000000
G02 X73.811333 Y186.467710 Z0.000000 I0.698101 J-0.202070
G03 X74.050439 Y186.593309 Z0.000000 I0.000000 J0.290395
G03 X74.176042 Y186.996880 Z0.000000 I-0.585547 J0.403571
G02 X74.277104 Y187.424979 Z0.000000 I0.957247 J-0.000000
G02 X74.440625 Y187.526040 Z0.000000 I0.163521 J-0.081762
G03 X74.625506 Y187.605743 Z0.000000 I0.000000 J0.254279
G03 X74.705208 Y187.806240 Z0.000000 I-0.212332 J0.200497
G03 X74.621000 Y187.935405 Z0.000000 I-0.141166 J-0.000000
G03 X74.440625 Y187.922920 Z0.000000 I-0.078325 J-0.177618
G02 X74.255683 Y188.072015 Z0.000000 I-0.066207 J0.107126
G02 X74.700020 Y188.656790 Z0.000000 I1.134904 J-0.401148
G03 X75.117701 Y189.089807 Z0.000000 I-0.902540 J1.288528
G03 X75.312152 Y189.601430 Z0.000000 I-1.092653 J0.708046
G02 X75.482279 Y190.134558 Z0.000000 I1.763929 J-0.269178
G02 X75.767600 Y190.506190 Z0.000000 I1.117196 J-0.562387
G01 X75.816678 Y190.481683 Z0.000000
G02 X75.750770 Y190.304170 Z0.000000 I-0.350691 J0.029215
G03 X75.737433 Y190.159822 Z0.000000 I0.114902 J-0.083406
G03 X75.829680 Y190.138120 Z0.000000 I0.054803 J0.026044
G03 X76.186382 Y190.552983 Z0.000000 I-0.868880 J1.107849
G03 X76.292701 Y190.957020 Z0.000000 I-0.714561 J0.404037
G02 X76.683003 Y191.897273 Z0.000000 I1.327705 J-0.000000
G02 X77.795243 Y192.455000 Z0.000000 I1.400224 J-1.404481
G03 X79.847426 Y193.432321 Z0.000000 I-0.561134 J3.821525
G03 X79.867008 Y194.358680 Z0.000000 I-0.434203 J0.472565
G03 X79.738793 Y194.384816 Z0.000000 I-0.083854 J-0.083804
G03 X79.275659 Y194.120190 Z0.000000 I0.738257 J-1.829648
G01 X79.232089 Y194.155518 Z0.000000
G02 X79.447675 Y194.479360 Z0.000000 I1.251017 J-0.599138
G02 X79.969142 Y194.860024 Z0.000000 I1.144184 J-1.019896
G02 X80.075894 Y194.758680 Z0.000000 I0.032369 J-0.072800
G03 X80.090687 Y194.540209 Z0.000000 I0.243079 J-0.093277
G03 X80.213458 Y194.507840 Z0.000000 I0.076750 J0.042090
G02 X80.402704 Y194.345496 Z0.000000 I0.068782 J-0.111294
G02 X79.626713 Y193.123260 Z0.000000 I-4.061429 J1.721123
G02 X79.021055 Y192.563568 Z0.000000 I-3.262164 J2.922527
G02 X77.946347 Y191.841350 Z0.000000 I-6.548881 J8.584447
G03 X76.996929 Y190.970397 Z0.000000 I1.562245 J-2.655943
G03 X77.135952 Y190.701040 Z0.000000 I0.139023 J-0.098801
G02 X77.199923 Y190.594289 Z0.000000 I0.000000 J-0.072543
G02 X76.739077 Y189.958960 Z0.000000 I-2.543342 J1.360045
G03 X76.156951 Y189.100975 Z0.000000 I2.240723 J-2.146760
G03 X76.292701 Y188.981250 Z0.000000 I0.086030 J-0.039277
G02 X76.499326 Y189.040772 Z0.000000 I0.209640 J-0.339345
G02 X76.557285 Y188.983250 Z0.000000 I0.000435 J-0.057522
G02 X76.490081 Y188.869350 Z0.000000 I-0.130123 J0.000000
G02 X75.763849 Y188.544990 Z0.000000 I-2.274780 J4.117974
G03 X75.172791 Y188.196604 Z0.000000 I0.576437 J-1.653536
G03 X75.142812 Y187.989450 Z0.000000 I0.108659 J-0.121471
G02 X75.166057 Y187.739145 Z0.000000 I-0.240380 J-0.148555
G02 X74.922990 Y187.419910 Z0.000000 I-0.671625 J0.259225
G03 X74.334882 Y186.650639 Z0.000000 I1.041345 J-1.405550
G03 X73.378250 Y183.463970 Z0.000000 I19.237595 J-7.512012
G03 X73.348720 Y180.892191 Z0.000000 I6.344677 J-1.358910
G03 X73.964611 Y180.382440 Z0.000000 I0.615891 J0.117190
G02 X74.090799 Y180.297201 Z0.000000 I-0.000000 J-0.136024
G02 X74.176043 Y179.857070 Z0.000000 I-1.093621 J-0.440131
G03 X74.428016 Y177.987530 Z0.000000 I7.061601 J0.000000
G03 X75.300802 Y175.760230 Z0.000000 I10.950515 J3.006394
G02 X75.773341 Y174.682723 Z0.000000 I-7.951528 J-4.129498
G02 X76.163516 Y173.378980 Z0.000000 I-11.270110 J-4.083097
G03 X76.320599 Y173.383603 Z0.000000 I0.078062 J0.018607
G03 X76.466448 Y175.090780 Z0.000000 I-9.393476 J1.662331
G02 X76.961117 Y179.601985 Z0.000000 I19.961433 J0.093886
G02 X77.607167 Y180.117860 Z0.000000 I0.646050 J-0.146599
G02 X77.761275 Y179.944077 Z0.000000 I0.000000 J-0.155222
G02 X77.336303 Y177.868900 Z0.000000 I-12.817268 J1.543724
G03 X77.211163 Y177.060202 Z0.000000 I3.015727 J-0.880692
G03 X77.146345 Y169.581580 Z0.000000 I262.343220 J-6.013350
G02 X77.022076 Y162.180004 Z0.000000 I-165.451621 J-0.923983
G02 X76.844426 Y161.875540 Z0.000000 I-0.374900 J0.014689
G03 X76.658831 Y161.604467 Z0.000000 I0.213256 J-0.345082
G03 X76.692719 Y161.057980 Z0.000000 I1.107966 J-0.205588
G02 X77.238547 Y157.820896 Z0.000000 I-11.188834 J-3.551189
G02 X76.783079 Y157.681980 Z0.000000 I-0.246903 J-0.006609
G03 X76.634497 Y157.645338 Z0.000000 I-0.068148 J-0.043230
G03 X76.551028 Y154.848530 Z0.000000 I26.889312 J-2.202142
G03 X76.667850 Y152.739385 Z0.000000 I31.729713 J0.699652
G03 X76.821380 Y151.805820 Z0.000000 I6.340892 J0.563387
G01 X76.916611 Y151.814315 Z0.000000
G03 X76.939577 Y153.791820 Z0.000000 I-20.644537 J1.228644
G01 X76.834122 Y156.702230 Z0.000000
G01 X77.341326 Y153.791820 Z0.000000
G03 X78.527318 Y147.870362 Z0.000000 I118.371076 J20.628709
G03 X78.923534 Y146.808390 Z0.000000 I4.128200 J0.935310
G02 X79.145778 Y146.214369 Z0.000000 I-2.102256 J-1.125113
G02 X79.129755 Y145.905800 Z0.000000 I-0.551708 J-0.126052
G02 X78.746504 Y145.884402 Z0.000000 I-0.195950 J0.066760
G02 X77.621726 Y149.109750 Z0.000000 I14.832710 J6.981418
G03 X77.249542 Y150.365895 Z0.000000 I-11.217233 J-2.640351
G03 X77.163483 Y150.385160 Z0.000000 I-0.049138 J-0.017655
G03 X77.036552 Y149.927966 Z0.000000 I0.340833 J-0.340842
G03 X79.085739 Y142.657220 Z0.000000 I118.557367 J29.490063
G02 X80.192132 Y138.920280 Z0.000000 I-104.467245 J-32.961795
G02 X80.261455 Y138.410010 Z0.000000 I-1.843329 J-0.510270
G02 X80.069665 Y138.023907 Z0.000000 I-0.484538 J-0.000000
G02 X78.954559 Y137.419110 Z0.000000 I-2.534701 J3.343006
G03 X77.680703 Y136.879613 Z0.000000 I4.226422 J-11.753043
G03 X76.115522 Y136.026550 Z0.000000 I9.131929 J-18.617480
G02 X74.534740 Y135.208910 Z0.000000 I-7.102642 J11.794958
G02 X72.064606 Y134.253030 Z0.000000 I-12.230765 J27.936544
G02 X69.520304 Y133.620748 Z0.000000 I-5.108715 J15.122195
G02 X67.826039 Y133.563100 Z0.000000 I-1.072253 J6.587386
G03 X66.108152 Y133.629695 Z0.000000 I-1.468798 J-15.698475
G03 X64.518747 Y133.510700 Z0.000000 I0.213767 J-13.529514
G02 X62.927552 Y133.350325 Z0.000000 I-3.211040 J23.885155
G02 X61.211456 Y133.287910 Z0.000000 I-1.867360 J27.719717
G03 X59.875773 Y133.168215 Z0.000000 I0.044902 J-8.013409
G03 X59.852332 Y133.050030 Z0.000000 I0.011128 J-0.063625
G02 X59.864665 Y132.857852 Z0.000000 I-0.063719 J-0.100574
G02 X59.058582 Y132.391040 Z0.000000 I-1.779458 J2.143369
G03 X58.664902 Y132.162448 Z0.000000 I0.472431 J-1.266912
G01 X58.697914 Y132.090190 Z0.000000
G02 X58.755664 Y131.984986 Z0.000000 I0.010260 J-0.062820
G02 X58.286104 Y131.628760 Z0.000000 I-1.145459 J1.022299
G03 X57.112831 Y130.986621 Z0.000000 I6.557486 J-13.374326
G03 X56.332194 Y130.442370 Z0.000000 I3.912974 J-6.444480
G02 X55.563142 Y129.906337 Z0.000000 I-4.614639 J5.800969
G02 X55.351203 Y129.847060 Z0.000000 I-0.211939 J0.349246
G03 X54.618992 Y129.600257 Z0.000000 I-0.000000 J-1.209559
G03 X51.504521 Y126.921510 Z0.000000 I20.695571 J-27.211808
G01 X50.925711 Y126.359770 Z0.000000
G01 X51.107646 Y127.028010 Z0.000000
G02 X51.556498 Y127.720282 Z0.000000 I1.307183 J-0.355897
G02 X56.089510 Y131.107590 Z0.000000 I40.377942 J-49.308382
G01 X56.072484 Y131.151675 Z0.000000
G03 X55.777559 Y131.063690 Z0.000000 I0.143379 J-1.018891
G03 X55.005941 Y130.632298 Z0.000000 I2.700252 J-5.735640
G03 X53.528601 Y129.591640 Z0.000000 I14.506241 J-22.162325
G02 X52.039264 Y128.683196 Z0.000000 I-5.268150 J6.961742
G02 X51.480225 Y128.608130 Z0.000000 I-0.395034 J0.822743
G03 X50.977445 Y128.473678 Z0.000000 I-0.109312 J-0.598525
G03 X49.801294 Y127.184610 Z0.000000 I4.422946 J-5.216609
G02 X48.330153 Y125.693106 Z0.000000 I-5.164437 J3.622649
G02 X47.982289 Y125.870980 Z0.000000 I-0.128456 J0.177874
G01 X47.982292 Y125.870820 Z0.000000
G00 Z5.000000

(End cutting path id: path21)


(Start cutting path id: path21)
(Change tool to Cylindrical cutter)

G00 Z5.000000
G00 X52.249374 Y129.230810

G01 Z0.000000 F100.0(Penetrate)
G02 X54.165683 Y130.886913 Z0.000000 I5.763054 J-4.731790 F400.000000
G02 X57.752585 Y132.544810 Z0.000000 I9.363415 J-15.548861
G01 X59.227084 Y133.039810 Z0.000000
G01 X57.904167 Y132.874660 Z0.000000
G03 X55.675705 Y132.511796 Z0.000000 I3.757813 J-30.102206
G03 X54.735249 Y132.236790 Z0.000000 I1.127514 J-5.601402
G03 X52.884252 Y131.101597 Z0.000000 I2.197547 J-5.659901
G03 X51.398936 Y129.251560 Z0.000000 I4.833155 J-5.401601
G03 X51.584051 Y128.926122 Z0.000000 I0.190436 J-0.107044
G03 X52.249374 Y129.230860 Z0.000000 I0.020329 J0.834274
G01 X52.249374 Y129.230810 Z0.000000
G00 Z5.000000

(End cutting path id: path21)


(Start cutting path id: path21)
(Change tool to Cylindrical cutter)

G00 Z5.000000
G00 X57.507292 Y131.698960

G01 Z0.000000 F100.0(Penetrate)
G03 X57.679902 Y131.889280 Z0.000000 I-0.270783 J0.419019 F400.000000
G01 X57.639584 Y131.955440 Z0.000000
G03 X57.388839 Y131.908527 Z0.000000 I-0.000000 J-0.693563
G03 X56.978125 Y131.698960 Z0.000000 I0.819335 J-2.112996
G03 X56.805518 Y131.508638 Z0.000000 I0.270817 J-0.419041
G01 X56.845834 Y131.442480 Z0.000000
G03 X57.096577 Y131.489389 Z0.000000 I-0.000000 J0.693599
G03 X57.507292 Y131.698960 Z0.000000 I-0.819061 J2.112432
G01 X57.507292 Y131.698960 Z0.000000
G00 Z5.000000

(End cutting path id: path21)


(Start cutting path id: path21)
(Change tool to Cylindrical cutter)

G00 Z5.000000
G00 X76.493276 Y165.410710

G01 Z0.000000 F100.0(Penetrate)
G03 X76.222868 Y167.785963 Z0.000000 I-13.918638 J-0.381531 F400.000000
G03 X75.927297 Y168.212740 Z0.000000 I-0.643609 J-0.130001
G03 X75.669022 Y168.191383 Z0.000000 I-0.114830 J-0.183703
G03 X75.578587 Y167.904630 Z0.000000 I0.193089 J-0.218533
G02 X75.704844 Y167.281056 Z0.000000 I-8.507013 J-2.047009
G02 X76.040581 Y165.102600 Z0.000000 I-103.625812 J-17.085601
G03 X76.397005 Y162.969878 Z0.000000 I46.200108 J6.624886
G03 X76.457567 Y162.919790 Z0.000000 I0.060562 J0.011569
G03 X76.509218 Y162.970706 Z0.000000 I0.000000 J0.051657
G03 X76.493277 Y165.410710 Z0.000000 I-58.460506 J0.838111
G01 X76.493276 Y165.410710 Z0.000000
G00 Z5.000000

(End cutting path id: path21)


(Start cutting path id: path21)
(Change tool to Cylindrical cutter)

G00 Z5.000000
G00 X76.821875 Y169.578470

G01 Z0.000000 F100.0(Penetrate)
G03 X76.774037 Y170.818784 Z0.000000 I-16.103132 J0.000000 F400.000000
G01 X76.724785 Y170.835240 Z0.000000
G03 X75.936415 Y168.899321 Z0.000000 I2.383498 J-2.099124
G03 X76.589792 Y168.211460 Z0.000000 I0.653377 J-0.033619
G03 X76.715614 Y168.317721 Z0.000000 I-0.000000 J0.127622
G03 X76.821875 Y169.578470 Z0.000000 I-7.426157 J1.260759
G01 X76.821875 Y169.578470 Z0.000000
G00 Z5.000000

(End cutting path id: path21)


(Start cutting path id: path21)
(Change tool to Cylindrical cutter)

G00 Z5.000000
G00 X76.605864 Y126.069550

G01 Z0.000000 F100.0(Penetrate)
G02 X76.889741 Y126.622392 Z0.000000 I0.879189 J-0.102148 F400.000000
G02 X77.747916 Y127.107550 Z0.000000 I1.497996 J-1.648166
G01 X78.806250 Y127.424960 Z0.000000
G01 X77.615625 Y127.451560 Z0.000000
G02 X74.803071 Y127.786946 Z0.000000 I0.329674 J14.725409
G02 X74.203482 Y128.196670 Z0.000000 I0.206530 J0.945815
G03 X74.012455 Y128.403246 Z0.000000 I-0.737810 J-0.490663
G03 X73.514583 Y128.736920 Z0.000000 I-2.481387 J-3.164183
G02 X73.567398 Y128.905990 Z0.000000 I0.044697 J0.078822
G02 X74.647561 Y128.635010 Z0.000000 I-0.320903 J-3.567489
G03 X75.661056 Y128.357397 Z0.000000 I1.532260 J3.605084
G03 X78.073708 Y128.177230 Z0.000000 I2.750149 J20.583520
G02 X80.276671 Y127.694283 Z0.000000 I-0.092397 J-5.687351
G02 X80.316616 Y127.188020 Z0.000000 I-0.116387 J-0.263890
G03 X80.276988 Y127.089924 Z0.000000 I0.049764 J-0.077155
G03 X80.349246 Y127.048730 Z0.000000 I0.055250 J0.012943
G02 X80.836003 Y127.187345 Z0.000000 I2.794424 J-8.888904
G02 X80.944559 Y127.201000 Z0.000000 I0.108556 J-0.424667
G03 X81.004576 Y127.251637 Z0.000000 I0.000000 J0.060885
G03 X81.055210 Y127.849000 Z0.000000 I-3.498403 J0.597363
G02 X81.226424 Y128.412243 Z0.000000 I1.012058 J-0.000000
G02 X81.942726 Y129.173930 Z0.000000 I2.652465 J-1.776765
G03 X84.597598 Y132.048769 Z0.000000 I-6.871536 J9.009049
G03 X84.609326 Y133.315160 Z0.000000 I-0.997786 J0.642491
G02 X84.652327 Y133.392694 Z0.000000 I0.043227 J0.026718
G02 X85.076694 Y133.317160 Z0.000000 I0.005325 J-1.199939
G02 X85.503316 Y132.961505 Z0.000000 I-0.291508 J-0.783377
G02 X85.701156 Y132.268710 Z0.000000 I-1.208391 J-0.719724
G03 X85.799564 Y131.484272 Z0.000000 I3.751152 J0.072190
G03 X85.942011 Y131.242020 Z0.000000 I0.461126 J0.108142
G01 X85.991014 Y131.256198 Z0.000000
G03 X85.976811 Y131.368000 Z0.000000 I-0.140862 J0.038908
G02 X85.946013 Y131.606475 Z0.000000 I0.271608 J0.156304
G02 X86.066681 Y131.698730 Z0.000000 I0.120668 J-0.032789
G02 X86.285513 Y131.481176 Z0.000000 I0.000000 J-0.218836
G02 X86.072981 Y130.623000 Z0.000000 I-1.796364 J-0.010525
G03 X86.066186 Y130.271228 Z0.000000 I0.341072 J-0.182541
G03 X86.321948 Y130.111230 Z0.000000 I0.255762 J0.124424
G03 X86.795666 Y130.199371 Z0.000000 I-0.000000 J1.317083
G03 X87.008330 Y130.375810 Z0.000000 I-0.155790 J0.404158
G02 X87.216547 Y130.560229 Z0.000000 I0.410488 J-0.253706
G02 X87.581420 Y130.640390 Z0.000000 I0.364873 J-0.790326
G02 X87.787834 Y130.507045 Z0.000000 I0.000000 J-0.226434
G02 X87.790235 Y130.177370 Z0.000000 I-0.371527 J-0.167552
G03 X87.631289 Y129.703909 Z0.000000 I2.691748 J-1.167062
G03 X87.545583 Y129.171820 Z0.000000 I3.319082 J-0.807564
G02 X87.451746 Y128.645689 Z0.000000 I-2.787306 J0.225690
G02 X87.305537 Y128.311930 Z0.000000 I-1.251436 J0.349310
G03 X87.260767 Y128.078955 Z0.000000 I0.283627 J-0.175293
G03 X87.361277 Y127.994560 Z0.000000 I0.100510 J0.017654
G03 X87.688879 Y128.211302 Z0.000000 I-0.000000 J0.355954
G03 X87.960741 Y129.405260 Z0.000000 I-3.183535 J1.352815
G02 X88.050281 Y129.463327 Z0.000000 I0.065553 J-0.003015
G02 X88.184321 Y129.317460 Z0.000000 I-0.082652 J-0.210471
G02 X88.068734 Y127.825904 Z0.000000 I-1.997302 J-0.595477
G02 X87.218354 Y127.288980 Z0.000000 I-0.850380 J0.404954
G02 X87.001303 Y127.437910 Z0.000000 I-0.000000 J0.232631
G02 X86.936277 Y128.020460 Z0.000000 I1.076286 J0.415042
G03 X86.842281 Y128.624774 Z0.000000 I-1.023679 J0.150242
G03 X86.496812 Y128.920210 Z0.000000 I-0.513566 J-0.250834
G02 X86.245238 Y129.102221 Z0.000000 I0.141841 J0.460919
G02 X86.280721 Y129.225020 Z0.000000 I0.066667 J0.047263
G03 X86.535954 Y129.412067 Z0.000000 I-0.253091 J0.613016
G03 X86.611450 Y129.619700 Z0.000000 I-0.247776 J0.207633
G03 X86.537975 Y129.746082 Z0.000000 I-0.145431 J0.000000
G03 X86.394042 Y129.743490 Z0.000000 I-0.069783 J-0.122565
G02 X86.172866 Y129.709557 Z0.000000 I-0.150569 J0.243632
G02 X85.459290 Y129.981290 Z0.000000 I0.822021 J3.231443
G03 X84.944580 Y130.165467 Z0.000000 I-0.935693 J-1.803627
G01 X84.898564 Y130.100040 Z0.000000
G02 X84.907117 Y129.929269 Z0.000000 I-0.150606 J-0.093142
G02 X84.774993 Y129.846710 Z0.000000 I-0.132124 J0.064442
G03 X84.578635 Y129.762863 Z0.000000 I0.000000 J-0.271845
G03 X84.494794 Y129.554060 Z0.000000 I0.218088 J-0.208803
G02 X83.168740 Y127.299118 Z0.000000 I-2.580281 J-0.000000
G02 X79.595208 Y126.828840 Z0.000000 I-2.381074 J4.280869
G03 X79.034187 Y126.802073 Z0.000000 I-0.236242 J-0.941235
G03 X78.410256 Y126.408000 Z0.000000 I0.560683 J-1.578689
G02 X77.836115 Y125.978310 Z0.000000 I-1.780042 J1.780025
G02 X77.667388 Y126.002590 Z0.000000 I-0.068142 J0.124865
G02 X77.644579 Y126.155087 Z0.000000 I0.091665 J0.091665
G02 X77.887873 Y126.417460 Z0.000000 I0.616319 J-0.327515
G03 X77.849858 Y126.536726 Z0.000000 I-0.034575 J0.054671
G03 X77.313130 Y126.386860 Z0.000000 I0.068182 J-1.280231
G03 X76.951061 Y126.038596 Z0.000000 I0.437113 J-0.816784
G03 X76.925346 Y125.725400 Z0.000000 I0.312715 J-0.183329
G02 X76.930335 Y125.444717 Z0.000000 I-0.383606 J-0.147204
G02 X76.795999 Y125.348820 Z0.000000 I-0.134336 J0.046143
G02 X76.649164 Y125.461937 Z0.000000 I0.000000 J0.151860
G02 X76.605867 Y126.069410 Z0.000000 I1.585221 J0.418265
G01 X76.605864 Y126.069550 Z0.000000
G00 Z5.000000

(End cutting path id: path21)


(Start cutting path id: path21)
(Change tool to Cylindrical cutter)

G00 Z5.000000
G00 X85.631883 Y130.464240

G01 Z0.000000 F100.0(Penetrate)
G03 X85.610665 Y130.709374 Z0.000000 I-0.262561 J0.100759 F400.000000
G03 X85.420833 Y130.817020 Z0.000000 I-0.189832 J-0.113560
G03 X85.231006 Y130.709381 Z0.000000 I-0.000000 J-0.221203
G03 X85.209783 Y130.464240 Z0.000000 I0.241343 J-0.144384
G03 X85.366381 Y130.142337 Z0.000000 I1.937686 J0.743597
G03 X85.420833 Y130.111460 Z0.000000 I0.054452 J0.032575
G03 X85.475283 Y130.142335 Z0.000000 I0.000000 J0.063451
G03 X85.631883 Y130.464240 Z0.000000 I-1.780678 J1.065305
G01 X85.631883 Y130.464240 Z0.000000
G00 Z5.000000

(End cutting path id: path21)


(Start cutting path id: path21)
(Change tool to Cylindrical cutter)

G00 Z5.000000
G00 X87.874957 Y126.554900

G01 Z0.000000 F100.0(Penetrate)
G02 X87.803302 Y126.723129 Z0.000000 I0.173144 J0.173123 F400.000000
G02 X87.861727 Y127.216360 Z0.000000 I1.806308 J0.036113
G02 X88.358651 Y127.656272 Z0.000000 I0.576676 J-0.150794
G02 X88.728123 Y127.333330 Z0.000000 I0.043601 J-0.322942
G02 X88.622894 Y127.040408 Z0.000000 I-0.460314 J-0.000000
G02 X88.397394 Y126.932410 Z0.000000 I-0.229142 J0.189027
G03 X88.334909 Y126.850930 Z0.000000 I0.000890 J-0.065382
G03 X88.463544 Y126.671880 Z0.000000 I0.292269 J0.074242
G02 X88.544516 Y126.506929 Z0.000000 I-0.096878 J-0.149906
G02 X88.441504 Y126.411340 Z0.000000 I-0.104022 J0.008800
G02 X88.043700 Y126.459091 Z0.000000 I-0.013607 J1.567538
G02 X87.874968 Y126.554900 Z0.000000 I0.089530 J0.354156
G01 X87.874957 Y126.554900 Z0.000000
G00 Z5.000000

(End cutting path id: path21)


(Start cutting path id: path21)
(Change tool to Cylindrical cutter)

G00 Z5.000000
G00 X74.572917 Y127.201040

G01 Z0.000000 F100.0(Penetrate)
G02 X74.499158 Y127.342314 Z0.000000 I0.049800 J0.115893 F400.000000
G02 X74.623447 Y127.447030 Z0.000000 I0.128496 J-0.026395
G02 X75.152086 Y127.370483 Z0.000000 I0.048833 J-1.526444
G02 X75.366667 Y127.201040 Z0.000000 I-0.125661 J-0.379729
G02 X75.284981 Y127.054527 Z0.000000 I-0.081686 J-0.050485
G02 X74.572917 Y127.201040 Z0.000000 I-0.000000 J1.803597
G01 X74.572917 Y127.201040 Z0.000000
G00 Z5.000000

(End cutting path id: path21)


(Start cutting path id: path21)
(Change tool to Cylindrical cutter)

G00 Z5.000000
G00 X114.319210 Y127.749760

G01 Z0.000000 F100.0(Penetrate)
G02 X114.908519 Y128.230725 Z0.000000 I2.266973 J-2.176127 F400.000000
G02 X115.055070 Y128.214370 Z0.000000 I0.063045 J-0.099851
G02 X115.056454 Y128.082847 Z0.000000 I-0.066386 J-0.066467
G02 X114.467110 Y127.601860 Z0.000000 I-2.267289 J2.176515
G01 X113.731250 Y127.137250 Z0.000000
G01 X114.319210 Y127.749760 Z0.000000
G00 Z5.000000

(End cutting path id: path21)


(Start cutting path id: path21)
(Change tool to Cylindrical cutter)

G00 Z5.000000
G00 X113.069790 Y127.658060

G01 Z0.000000 F100.0(Penetrate)
G02 X113.600237 Y128.844336 Z0.000000 I1.591699 J0.000000 F400.000000
G02 X114.587010 Y129.015360 Z0.000000 I0.630322 J-0.704579
G02 X114.621814 Y128.888531 Z0.000000 I-0.031269 J-0.076770
G02 X113.944460 Y128.167200 Z0.000000 I-3.741246 J2.834460
G02 X113.158494 Y127.607057 Z0.000000 I-3.427715 J3.978121
G02 X113.069790 Y127.658060 Z0.000000 I-0.029689 J0.051003
G01 X113.069790 Y127.658060 Z0.000000
G00 Z5.000000

(End cutting path id: path21)


(Start cutting path id: path21)
(Change tool to Cylindrical cutter)

G00 Z5.000000
G00 X86.011735 Y128.292240

G01 Z0.000000 F100.0(Penetrate)
G02 X86.338273 Y128.504534 Z0.000000 I0.654873 J-0.650009 F400.000000
G02 X86.486167 Y128.472890 Z0.000000 I0.049511 J-0.130030
G02 X86.486367 Y128.356394 Z0.000000 I-0.058377 J-0.058349
G02 X86.159849 Y128.144120 Z0.000000 I-0.654885 J0.650078
G02 X86.011952 Y128.175767 Z0.000000 I-0.049511 J0.130030
G02 X86.011735 Y128.292240 Z0.000000 I0.058348 J0.058345
G01 X86.011735 Y128.292240 Z0.000000
G00 Z5.000000

(End cutting path id: path21)


(Start cutting path id: path21)
(Change tool to Cylindrical cutter)

G00 Z5.000000
G00 X72.059375 Y129.450000

G01 Z0.000000 F100.0(Penetrate)
G02 X71.649434 Y129.765795 Z0.000000 I0.939708 J1.643832 F400.000000
G01 X71.678076 Y129.837500 Z0.000000
G02 X71.938030 Y129.783065 Z0.000000 I0.018204 J-0.560993
G02 X72.471826 Y129.458420 Z0.000000 I-1.332578 J-2.792251
G02 X72.437832 Y129.353749 Z0.000000 I-0.035131 J-0.046446
G02 X72.059375 Y129.450420 Z0.000000 I-0.014307 J0.733134
G01 X72.059375 Y129.450000 Z0.000000
G00 Z5.000000

(End cutting path id: path21)


(Start cutting path id: path21)
(Change tool to Cylindrical cutter)

G00 Z5.000000
G00 X90.315624 Y129.465600

G01 Z0.000000 F100.0(Penetrate)
G02 X90.417081 Y129.696117 Z0.000000 I0.312604 J0.000000 F400.000000
G02 X90.584523 Y129.711900 Z0.000000 I0.094154 J-0.102791
G02 X90.731625 Y129.516965 Z0.000000 I-0.177157 J-0.286658
G02 X90.701199 Y129.299410 Z0.000000 I-0.262359 J-0.074213
G02 X90.472381 Y129.227342 Z0.000000 I-0.156154 J0.096510
G02 X90.315624 Y129.465610 Z0.000000 I0.102702 J0.238268
G01 X90.315624 Y129.465600 Z0.000000
G00 Z5.000000

(End cutting path id: path21)


(Start cutting path id: path21)
(Change tool to Cylindrical cutter)

G00 Z5.000000
G00 X59.756250 Y130.111460

G01 Z0.000000 F100.0(Penetrate)
G02 X59.955949 Y130.311155 Z0.000000 I0.522825 J-0.323137 F400.000000
G02 X60.184355 Y130.376040 Z0.000000 I0.228406 J-0.369571
G02 X60.302742 Y130.294531 Z0.000000 I0.000000 J-0.126730
G02 X60.285417 Y130.111460 Z0.000000 I-0.193776 J-0.074017
G02 X60.085718 Y129.911765 Z0.000000 I-0.522825 J0.323137
G02 X59.857312 Y129.846880 Z0.000000 I-0.228406 J0.369571
G02 X59.738925 Y129.928389 Z0.000000 I0.000000 J0.126730
G02 X59.756250 Y130.111460 Z0.000000 I0.193776 J0.074017
G01 X59.756250 Y130.111460 Z0.000000
G00 Z5.000000

(End cutting path id: path21)


(Start cutting path id: path21)
(Change tool to Cylindrical cutter)

G00 Z5.000000
G00 X136.150350 Y130.538340

G01 Z0.000000 F100.0(Penetrate)
G02 X136.450910 Y130.955916 Z0.000000 I1.200042 J-0.546805 F400.000000
G02 X136.566510 Y130.926490 Z0.000000 I0.048350 J-0.051838
G02 X136.532996 Y130.130419 Z0.000000 I-1.062040 J-0.354030
G02 X136.102520 Y129.846880 Z0.000000 I-0.430476 J0.185010
G02 X136.002276 Y129.954296 Z0.000000 I0.000000 J0.100483
G02 X136.150320 Y130.538340 Z0.000000 I1.686082 J-0.116604
G01 X136.150350 Y130.538340 Z0.000000
G00 Z5.000000

(End cutting path id: path21)


(Start cutting path id: path21)
(Change tool to Cylindrical cutter)

G00 Z5.000000
G00 X160.297910 Y130.141710

G01 Z0.000000 F100.0(Penetrate)
G03 X159.498413 Y130.298686 Z0.000000 I-1.107031 J-3.523773 F400.000000
G03 X158.815140 Y130.265600 Z0.000000 I-0.216793 J-2.594705
G02 X158.154705 Y130.238897 Z0.000000 I-0.425172 J2.335121
G02 X157.889100 Y130.357900 Z0.000000 I0.045587 J0.457651
G03 X157.623189 Y130.525908 Z0.000000 I-0.595876 J-0.648672
G03 X156.196870 Y131.041620 Z0.000000 I-7.672577 J-18.990016
G02 X154.762502 Y131.558726 Z0.000000 I6.440448 J20.112674
G02 X153.536790 Y132.110630 Z0.000000 I6.119592 J15.227895
G03 X145.719230 Y135.574645 Z0.000000 I-40.784170 J-81.488073
G03 X142.625880 Y136.344730 Z0.000000 I-4.581920 J-11.807209
G02 X138.468624 Y137.062250 Z0.000000 I4.670462 J39.462459
G02 X136.256360 Y137.795970 Z0.000000 I2.694566 J11.826476
G03 X134.973477 Y138.187131 Z0.000000 I-2.256416 J-5.101024
G03 X134.020230 Y138.192340 Z0.000000 I-0.491800 J-2.774486
G02 X133.081569 Y138.352724 Z0.000000 I-0.238033 J1.433877
G02 X129.439620 Y140.712420 Z0.000000 I14.550158 J26.447017
G03 X127.454601 Y142.131629 Z0.000000 I-28.109401 J-37.218245
G03 X126.166670 Y142.925410 Z0.000000 I-10.043739 J-14.854495
G02 X124.925040 Y143.768515 Z0.000000 I4.247102 J7.590473
G02 X123.617610 Y144.998960 Z0.000000 I7.855272 J9.656588
G01 X122.391470 Y146.332290 Z0.000000
G01 X122.096250 Y144.955750 Z0.000000
G03 X121.853147 Y143.573690 Z0.000000 I18.478443 J-3.962752
G03 X121.801040 Y142.814100 Z0.000000 I5.510420 J-0.759590
G02 X121.700626 Y142.104967 Z0.000000 I-2.554182 J-0.000000
G02 X121.531850 Y141.882620 Z0.000000 I-0.372776 J0.107731
G02 X121.397460 Y141.947483 Z0.000000 I-0.046520 J0.075269
G02 X121.333410 Y143.558330 Z0.000000 I10.255808 J1.214486
G02 X121.465927 Y145.286899 Z0.000000 I22.718298 J-0.872280
G01 X121.536460 Y145.321860 Z0.000000
G01 X121.603794 Y145.357858 Z0.000000
G03 X121.675700 Y147.930020 Z0.000000 I-50.659806 J2.703309
G02 X121.799675 Y150.602026 Z0.000000 I30.644317 J-0.082953
G02 X122.049900 Y152.071930 Z0.000000 I9.457194 J-0.853666
G03 X122.357587 Y153.776479 Z0.000000 I-12.244471 J3.090289
G03 X122.568370 Y156.768280 Z0.000000 I-37.634815 J4.154827
G02 X122.714532 Y157.504693 Z0.000000 I2.280497 J-0.069918
G02 X122.893190 Y157.628180 Z0.000000 I0.178658 J-0.067495
G02 X123.039671 Y157.497489 Z0.000000 I-0.000000 J-0.147435
G02 X123.021730 Y156.503700 Z0.000000 I-3.755280 J-0.429262
G03 X123.017999 Y155.800913 Z0.000000 I2.410887 J-0.364201
G03 X123.123730 Y155.776090 Z0.000000 I0.057678 J0.008088
G03 X123.287738 Y156.205137 Z0.000000 I-0.811933 J0.556242
G03 X123.365130 Y157.628180 Z0.000000 I-9.396579 J1.224655
G02 X123.384660 Y159.080349 Z0.000000 I21.086987 J0.442628
G02 X123.485590 Y160.141720 Z0.000000 I11.351019 J-0.543935
G03 X123.520264 Y160.665344 Z0.000000 I-3.443096 J0.490958
G01 X123.480590 Y160.670880 Z0.000000
G02 X122.931264 Y159.138954 Z0.000000 I-13.519718 J3.983519
G02 X122.807555 Y159.004244 Z0.000000 I-0.251792 J0.107070
G01 X122.740818 Y159.049067 Z0.000000
G02 X122.981150 Y160.406300 Z0.000000 I9.030909 J-0.899252
G03 X123.201074 Y161.739793 Z0.000000 I-7.463058 J1.915716
G03 X123.201700 Y163.316720 Z0.000000 I-10.459259 J0.792612
G02 X123.236779 Y164.476166 Z0.000000 I5.515963 J0.413370
G02 X123.363840 Y164.507340 Z0.000000 I0.069682 J-0.009485
G02 X123.543035 Y164.076445 Z0.000000 I-0.863718 J-0.611899
G02 X123.685270 Y162.655260 Z0.000000 I-9.768199 J-1.695333
G01 X123.725570 Y161.200050 Z0.000000
G01 X123.942080 Y162.787550 Z0.000000
G02 X124.183710 Y164.370675 Z0.000000 I49.859536 J-6.799988
G02 X124.409530 Y165.554270 Z0.000000 I28.085741 J-4.745181
G03 X124.509439 Y167.862154 Z0.000000 I-6.820216 J1.451354
G03 X124.011150 Y168.772950 Z0.000000 I-1.397774 J-0.173008
G03 X123.646816 Y168.863463 Z0.000000 I-0.276039 J-0.332597
G03 X123.080540 Y168.578750 Z0.000000 I0.251686 J-1.206088
G02 X122.917362 Y168.576370 Z0.000000 I-0.082970 J0.093461
G02 X122.887050 Y168.740680 Z0.000000 I0.084075 J0.100461
G03 X123.121270 Y169.493859 Z0.000000 I-1.670638 J0.932535
G03 X123.361850 Y173.783330 Z0.000000 I-56.512500 J5.321050
G02 X123.532055 Y175.201599 Z0.000000 I7.063565 J-0.128344
G02 X123.807060 Y175.767710 Z0.000000 I1.338290 J-0.300262
G02 X123.983752 Y175.844694 Z0.000000 I0.162973 J-0.132790
G02 X124.045590 Y175.752110 Z0.000000 I-0.004578 J-0.070001
G03 X123.920443 Y175.211839 Z0.000000 I2.623074 J-0.892233
G03 X123.724220 Y173.243110 Z0.000000 I35.006401 J-4.483225
G03 X123.805323 Y171.696316 Z0.000000 I6.260858 J-0.447246
G03 X124.012960 Y171.620290 Z0.000000 I0.125942 J0.022408
G03 X124.441267 Y172.253060 Z0.000000 I-0.873718 J1.052740
G03 X124.991853 Y174.361820 Z0.000000 I-18.326008 J5.911075
G03 X125.261705 Y176.433930 Z0.000000 I-14.798261 J2.980816
G03 X125.031760 Y176.678160 Z0.000000 I-0.229945 J0.013867
G02 X124.843528 Y176.773110 Z0.000000 I0.000000 J0.234054
G02 X124.591820 Y177.273470 Z0.000000 I1.328643 J0.981869
G02 X124.189161 Y179.364360 Z0.000000 I9.672016 J2.946830
G02 X124.395130 Y179.588570 Z0.000000 I0.205969 J0.017499
G03 X124.666684 Y179.784389 Z0.000000 I0.000000 J0.286199
G03 X125.373520 Y182.528240 Z0.000000 I-19.449990 J6.473429
G03 X125.437833 Y186.708837 Z0.000000 I-12.323988 J2.280381
G03 X124.250330 Y189.850860 Z0.000000 I-7.995466 J-1.226408
G03 X121.854324 Y192.481081 Z0.000000 I-8.936365 J-5.734167
G03 X120.119120 Y193.081190 Z0.000000 I-1.741734 J-2.227483
G02 X119.824881 Y193.217470 Z0.000000 I0.000935 J0.387800
G02 X119.780060 Y193.479130 Z0.000000 I0.197806 J0.168552
G03 X119.715842 Y193.783304 Z0.000000 I-0.267076 J0.102480
G03 X118.996950 Y194.266760 Z0.000000 I-1.575366 J-1.566328
G02 X118.263548 Y194.768868 Z0.000000 I0.843393 J2.018570
G02 X118.145370 Y195.152220 Z0.000000 I0.321200 J0.308910
G03 X118.117026 Y195.616737 Z0.000000 I-1.011532 J0.171402
G03 X117.868250 Y196.081740 Z0.000000 I-1.262491 J-0.376383
G02 X117.809671 Y196.439861 Z0.000000 I0.275897 J0.228981
G02 X118.132850 Y196.767070 Z0.000000 I0.537253 J-0.207432
G03 X118.260670 Y196.928957 Z0.000000 I-0.076939 J0.192152
G03 X118.172350 Y197.034300 Z0.000000 I-0.090949 J0.013443
G02 X117.354794 Y197.523096 Z0.000000 I0.027913 J0.974803
G02 X117.349370 Y198.465988 Z0.000000 I0.828455 J0.476227
G03 X117.428978 Y198.920111 Z0.000000 I-0.608970 J0.340791
G03 X117.194640 Y199.406031 Z0.000000 I-0.942701 J-0.155158
G02 X116.867208 Y199.906784 Z0.000000 I1.423564 J1.288267
G02 X116.773980 Y200.341358 Z0.000000 I0.966253 J0.434574
G03 X116.641009 Y200.618401 Z0.000000 I-0.355092 J-0.000000
G03 X116.377100 Y200.659558 Z0.000000 I-0.167804 J-0.209295
G02 X116.103866 Y200.687108 Z0.000000 I-0.109289 J0.284809
G02 X115.980230 Y200.912505 Z0.000000 I0.143640 J0.225397
G03 X115.907190 Y201.301055 Z0.000000 I-1.069999 J0.000000
G03 X115.157270 Y203.024087 Z0.000000 I-22.522202 J-8.777686
G03 X113.165847 Y205.631252 Z0.000000 I-7.331601 J-3.535942
G03 X109.801250 Y207.680062 Z0.000000 I-7.699507 J-8.857175
G03 X107.598907 Y208.285771 Z0.000000 I-3.844816 J-9.672978
G03 X104.603140 Y208.510689 Z0.000000 I-2.841306 J-17.781049
G03 X97.852484 Y207.652564 Z0.000000 I0.248227 J-28.934663
G03 X91.310732 Y205.197171 Z0.000000 I7.379076 J-29.601707
G02 X89.606878 Y204.341963 Z0.000000 I-50.255965 J98.001401
G02 X88.524373 Y203.828686 Z0.000000 I-19.175160 J39.042407
G03 X87.519914 Y203.250187 Z0.000000 I2.580824 J-5.642415
G03 X87.290782 Y202.955295 Z0.000000 I0.372142 J-0.525620
G02 X87.060823 Y202.661364 Z0.000000 I-0.594366 J0.228086
G02 X86.019290 Y202.067702 Z0.000000 I-3.760293 J5.386665
G03 X84.921593 Y201.505809 Z0.000000 I5.498929 J-12.095689
G03 X84.265828 Y201.064830 Z0.000000 I2.709077 J-4.736655
G03 X84.087158 Y200.747527 Z0.000000 I0.292841 J-0.373851
G03 X84.212088 Y200.616737 Z0.000000 I0.116323 J-0.013951
G03 X84.743649 Y200.756714 Z0.000000 I-0.110384 J1.498470
G03 X85.367113 Y201.162531 Z0.000000 I-1.175779 J2.488198
G02 X88.030408 Y203.160416 Z0.000000 I15.790198 J-18.275134
G02 X88.184587 Y202.986861 Z0.000000 I0.063821 J-0.098565
G02 X85.385552 Y200.391127 Z0.000000 I-11.300445 J9.378515
G02 X84.488143 Y200.362482 Z0.000000 I-0.470306 J0.662427
G03 X84.334613 Y200.376236 Z0.000000 I-0.090499 J-0.146427
G03 X84.289814 Y200.284442 Z0.000000 I0.027677 J-0.070337
G02 X83.813196 Y198.713417 Z0.000000 I-1.430968 J-0.423683
G02 X81.120842 Y197.648516 Z0.000000 I-2.968185 J3.568418
G02 X80.822357 Y197.803403 Z0.000000 I-0.019494 J0.327484
G02 X80.811549 Y198.148467 Z0.000000 I0.294047 J0.181911
G03 X80.632576 Y198.322901 Z0.000000 I-0.114676 J0.061373
G03 X79.081052 Y197.164341 Z0.000000 I3.859905 J-6.787285
G03 X77.551464 Y195.428154 Z0.000000 I9.688124 J-10.077159
G03 X77.572838 Y195.135960 Z0.000000 I0.179843 J-0.133723
G03 X77.872917 Y195.049536 Z0.000000 I0.228209 J0.228208
G03 X78.403140 Y195.325620 Z0.000000 I-0.263378 J1.153015
G02 X78.870173 Y195.656044 Z0.000000 I1.605734 J-1.774327
G01 X78.938558 Y195.615290 Z0.000000
G03 X79.017421 Y195.561868 Z0.000000 I0.057526 J0.000000
G03 X79.829683 Y195.971160 Z0.000000 I-1.946706 J4.873971
G02 X80.046166 Y195.872090 Z0.000000 I0.075216 J-0.121702
G02 X79.908973 Y195.476230 Z0.000000 I-0.437479 J-0.070087
G02 X78.080918 Y194.423981 Z0.000000 I-3.240369 J3.515391
G02 X77.615639 Y194.767130 Z0.000000 I-0.106102 J0.343149
G03 X77.530067 Y194.823569 Z0.000000 I-0.061398 J0.000000
G03 X77.092711 Y194.543180 Z0.000000 I0.621153 J-1.450177
G03 X76.704147 Y194.050887 Z0.000000 I1.265554 J-1.398386
G03 X76.709578 Y193.843740 Z0.000000 I0.180567 J-0.098911
G02 X76.679335 Y193.758412 Z0.000000 I-0.049380 J-0.030521
G02 X76.474152 Y193.761540 Z0.000000 I-0.098323 J0.281579
G03 X75.638959 Y193.538671 Z0.000000 I-0.263859 J-0.687562
G03 X73.910200 Y190.609210 Z0.000000 I8.847033 J-7.195713
G02 X73.777872 Y190.573090 Z0.000000 I-0.079890 J0.032228
G02 X73.663660 Y190.798360 Z0.000000 I0.177783 J0.231724
G02 X74.101561 Y192.191073 Z0.000000 I2.273832 J0.050254
G02 X78.332482 Y197.183372 Z0.000000 I36.886433 J-26.971883
G02 X82.934051 Y201.209021 Z0.000000 I28.269165 J-27.670662
G02 X88.548317 Y204.811524 Z0.000000 I28.174265 J-37.731768
G02 X96.046999 Y207.955819 Z0.000000 I19.023965 J-34.855592
G02 X103.544800 Y209.359925 Z0.000000 I10.143253 J-33.443210
G02 X111.660561 Y207.972945 Z0.000000 I1.284578 J-16.921171
G02 X116.002600 Y203.881585 Z0.000000 I-3.586682 J-8.156157
G03 X116.573027 Y202.968148 Z0.000000 I5.676996 J2.910365
G03 X116.993200 Y202.558669 Z0.000000 I1.515648 J1.134918
G02 X117.430259 Y202.166912 Z0.000000 I-1.494967 J-2.107521
G02 X117.654880 Y201.813581 Z0.000000 I-0.983051 J-0.873013
G01 X117.712649 Y201.824599 Z0.000000
G03 X117.675780 Y202.527309 Z0.000000 I-4.307610 J0.126316
G02 X117.638284 Y203.616532 Z0.000000 I5.426862 J0.732072
G02 X117.777850 Y204.088127 Z0.000000 I1.112177 J-0.072692
G02 X117.989742 Y204.121116 Z0.000000 I0.118871 J-0.066522
G02 X118.357080 Y203.546664 Z0.000000 I-0.940446 J-1.006050
G02 X118.633823 Y201.649071 Z0.000000 I-5.260632 J-1.736181
G02 X118.211410 Y198.549122 Z0.000000 I-14.738872 J0.429630
G03 X118.350818 Y198.075750 Z0.000000 I0.475413 J-0.117204
G03 X118.925290 Y197.875657 Z0.000000 I0.510602 J0.541242
G02 X119.804770 Y197.871167 Z0.000000 I0.415154 J-4.818607
G02 X120.139050 Y197.758584 Z0.000000 I-0.074683 J-0.774305
G03 X120.468722 Y197.660326 Z0.000000 I0.346649 J0.560885
G03 X121.127430 Y197.733134 Z0.000000 I0.063004 J2.446117
G02 X121.528655 Y197.489938 Z0.000000 I0.080327 J-0.320044
G02 X121.384210 Y196.660870 Z0.000000 I-1.032419 J-0.247243
G02 X120.917137 Y196.180315 Z0.000000 I-1.475268 J0.966619
G02 X120.647320 Y196.147500 Z0.000000 I-0.165859 J0.238075
G03 X119.429739 Y195.926492 Z0.000000 I-0.426912 J-1.112513
G03 X119.284680 Y194.939000 Z0.000000 I0.514360 J-0.579958
G03 X119.473494 Y194.777648 Z0.000000 I0.346403 J0.214210
G03 X120.272180 Y194.524670 Z0.000000 I1.792410 J4.271608
G02 X122.395951 Y193.825053 Z0.000000 I-2.355039 J-10.722285
G02 X123.785430 Y192.954720 Z0.000000 I-2.408077 J-5.388787
G02 X123.944777 Y192.711951 Z0.000000 I-0.325574 J-0.387378
G02 X123.877630 Y192.645540 Z0.000000 I-0.051288 J-0.015295
G03 X123.595870 Y192.417196 Z0.000000 I-0.064625 J-0.208265
G03 X123.983490 Y191.500780 Z0.000000 I1.634430 J0.151137
G02 X124.930568 Y189.942515 Z0.000000 I-4.294370 J-3.676959
G02 X125.715910 Y187.214950 Z0.000000 I-12.699502 J-5.133384
G02 X126.079831 Y182.854390 Z0.000000 I-23.121983 J-4.125167
G02 X125.651310 Y180.771620 Z0.000000 I-5.545940 J0.055586
G03 X125.255031 Y178.820697 Z0.000000 I4.730724 J-1.976631
G03 X125.637410 Y178.001090 Z0.000000 I1.058206 J-0.005306
G02 X125.928963 Y177.375447 Z0.000000 I-0.515288 J-0.620881
G02 X125.614110 Y174.052960 Z0.000000 I-18.862398 J0.111318
G02 X125.023948 Y171.869691 Z0.000000 I-13.753553 J2.546340
G02 X124.555780 Y171.107440 Z0.000000 I-2.059299 J0.739907
G03 X124.207676 Y170.214154 Z0.000000 I0.927957 J-0.876085
G03 X124.579080 Y169.378960 Z0.000000 I1.159933 J0.015636
G02 X125.116294 Y168.223502 Z0.000000 I-1.144171 J-1.234580
G02 X124.860440 Y163.400120 Z0.000000 I-24.160055 J-1.136917
G03 X124.495111 Y160.933370 Z0.000000 I205.856768 J-31.748072
G03 X124.172370 Y158.554210 Z0.000000 I191.210110 J-27.149781
G02 X123.788810 Y156.188600 Z0.000000 I-36.997341 J4.784840
G02 X123.371470 Y154.453170 Z0.000000 I-20.312595 J3.966927
G03 X122.569159 Y151.155321 Z0.000000 I40.294501 J-11.549494
G03 X122.219230 Y148.714490 Z0.000000 I21.690695 J-4.355178
G03 X122.289194 Y147.218484 Z0.000000 I5.610230 J-0.487266
G03 X122.544460 Y146.928490 Z0.000000 I0.368599 J0.067112
G02 X122.953361 Y146.692852 Z0.000000 I-0.333888 J-1.051994
G02 X123.978900 Y145.623310 Z0.000000 I-7.322220 J-8.047415
G03 X125.039786 Y144.579313 Z0.000000 I5.885425 J4.919614
G03 X126.476960 Y143.602400 Z0.000000 I6.575944 J8.128522
G02 X129.096342 Y141.943765 Z0.000000 I-15.039331 J-26.648349
G02 X131.968890 Y139.721590 Z0.000000 I-24.231147 J-34.290689
G03 X133.093329 Y139.073980 Z0.000000 I2.350249 J2.780732
G03 X134.426830 Y138.842750 Z0.000000 I1.333501 J3.729533
G02 X135.808904 Y138.692753 Z0.000000 I0.000000 J-6.442206
G02 X136.917190 Y138.295740 Z0.000000 I-0.991066 J-4.512056
G03 X138.473294 Y137.736252 Z0.000000 I2.976007 J5.833428
G03 X142.703030 Y137.010670 Z0.000000 I9.563305 J43.057424
G02 X144.676653 Y136.528809 Z0.000000 I-1.041198 J-8.547329
G02 X152.360330 Y133.400840 Z0.000000 I-50.273111 J-134.494249
G03 X156.218763 Y131.942849 Z0.000000 I15.362157 J34.819990
G03 X160.806650 Y130.722510 Z0.000000 I15.239804 J48.060028
G02 X161.754607 Y130.397735 Z0.000000 I-0.905312 J-4.188279
G02 X161.953180 Y130.172540 Z0.000000 I-0.166384 J-0.346861
G02 X161.780644 Y129.928411 Z0.000000 I-0.175986 J-0.058657
G02 X160.297830 Y130.141740 Z0.000000 I-0.086638 J4.657847
G01 X160.297910 Y130.141710 Z0.000000
G00 Z5.000000

(End cutting path id: path21)


(Start cutting path id: path21)
(Change tool to Cylindrical cutter)

G00 Z5.000000
G00 X122.736200 Y193.145970

G01 Z0.000000 F100.0(Penetrate)
G03 X122.261157 Y193.149981 Z0.000000 I-0.241177 J-0.430963 F400.000000
G03 X122.179890 Y192.846870 Z0.000000 I0.102053 J-0.189811
G03 X122.389810 Y192.702646 Z0.000000 I0.268536 J0.165974
G03 X122.764520 Y192.736390 Z0.000000 I0.127914 J0.676932
G03 X122.880502 Y192.918261 Z0.000000 I-0.064994 J0.169365
G03 X122.736220 Y193.145970 Z0.000000 I-0.282655 J-0.019532
G01 X122.736200 Y193.145970 Z0.000000
G00 Z5.000000

(End cutting path id: path21)


(Start cutting path id: path21)
(Change tool to Cylindrical cutter)

G00 Z5.000000
G00 X121.007290 Y193.450860

G01 Z0.000000 F100.0(Penetrate)
G03 X120.965855 Y193.526377 Z0.000000 I-0.089534 J-0.000000 F400.000000
G03 X120.596670 Y193.712410 Z0.000000 I-1.108230 J-1.739953
G03 X120.380087 Y193.709252 Z0.000000 I-0.104352 J-0.271800
G03 X120.347710 Y193.608430 Z0.000000 I0.026832 J-0.064226
G03 X120.796199 Y193.284257 Z0.000000 I0.617023 J0.381317
G03 X121.007290 Y193.450860 Z0.000000 I0.039800 J0.166603
G01 X121.007290 Y193.450860 Z0.000000
G00 Z5.000000

(End cutting path id: path21)


(Start cutting path id: path21)
(Change tool to Cylindrical cutter)

G00 Z5.000000
G00 X78.707708 Y195.132810

G01 Z0.000000 F100.0(Penetrate)
G03 X78.702032 Y195.227034 Z0.000000 I-0.055990 J0.043910 F400.000000
G03 X78.607808 Y195.232710 Z0.000000 I-0.050314 J-0.050314
G03 X78.179223 Y194.852825 Z0.000000 I2.938934 J-3.747406
G03 X78.144787 Y194.769690 Z0.000000 I0.083135 J-0.083135
G03 X78.247868 Y194.713518 Z0.000000 I0.066846 J0.000000
G03 X78.707704 Y195.132810 Z0.000000 I-1.018260 J1.578517
G01 X78.707708 Y195.132810 Z0.000000
G00 Z5.000000

(End cutting path id: path21)


(Start cutting path id: path21)
(Change tool to Cylindrical cutter)

G00 Z5.000000
G00 X118.554380 Y196.417140

G01 Z0.000000 F100.0(Penetrate)
G03 X118.377655 Y196.494641 Z0.000000 I-0.187648 J-0.187648 F400.000000
G03 X118.047260 Y196.438040 Z0.000000 I-0.032964 J-0.800179
G03 X118.030373 Y196.355691 Z0.000000 I0.018714 J-0.046743
G03 X118.207120 Y196.278190 Z0.000000 I0.187665 J0.187689
G03 X118.537467 Y196.334788 Z0.000000 I0.032981 J0.799880
G03 X118.554380 Y196.417150 Z0.000000 I-0.018707 J0.046759
G01 X118.554380 Y196.417140 Z0.000000
G00 Z5.000000

(End cutting path id: path21)


(Start cutting path id: path21)
(Change tool to Cylindrical cutter)

G00 Z5.000000
G00 X119.916710 Y196.496340

G01 Z0.000000 F100.0(Penetrate)
G03 X120.076422 Y196.986760 Z0.000000 I-0.216427 J0.341699 F400.000000
G03 X119.592770 Y197.315615 Z0.000000 I-0.483652 J-0.191230
G03 X119.374261 Y197.200855 Z0.000000 I0.000000 J-0.265406
G03 X119.227950 Y196.786450 Z0.000000 I0.692796 J-0.477632
G03 X119.429939 Y196.455850 Z0.000000 I0.330733 J-0.024935
G03 X119.916710 Y196.496340 Z0.000000 I0.204653 J0.485887
G01 X119.916710 Y196.496340 Z0.000000
G00 Z5.000000

(End cutting path id: path21)


(Start cutting path id: path21)
(Change tool to Cylindrical cutter)

G00 Z5.000000
G00 X121.305620 Y197.249469

G01 Z0.000000 F100.0(Penetrate)
G03 X121.283499 Y197.339452 Z0.000000 I-0.046317 J0.036324 F400.000000
G03 X121.139580 Y197.324339 Z0.000000 I-0.059010 J-0.130868
G02 X120.609260 Y196.937825 Z0.000000 I-63.503044 J86.572886
G02 X120.500170 Y196.861320 Z0.000000 I-2.577778 J3.559669
G01 X120.503639 Y196.821392 Z0.000000
G03 X120.666210 Y196.786420 Z0.000000 I0.162571 J0.360380
G03 X120.904867 Y196.863757 Z0.000000 I-0.000000 J0.406907
G03 X121.305620 Y197.249440 Z0.000000 I-1.173135 J1.620022
G01 X121.305620 Y197.249469 Z0.000000
G00 Z5.000000

(End cutting path id: path21)


(Start cutting path id: path21)
(Change tool to Cylindrical cutter)

G00 Z5.000000
G00 X83.318163 Y199.638509

G01 Z0.000000 F100.0(Penetrate)
G01 X84.097916 Y200.241612 Z0.000000 F400.000000
G01 X83.304166 Y199.788100 Z0.000000
G03 X81.544138 Y198.524119 Z0.000000 I5.191364 J-9.086067
G03 X81.319791 Y198.024608 Z0.000000 I0.443909 J-0.499511
G03 X81.404339 Y197.977487 Z0.000000 I0.055405 J0.000000
G03 X81.929100 Y198.401459 Z0.000000 I-1.415760 J2.289063
G02 X82.561226 Y199.010005 Z0.000000 I8.150984 J-7.834245
G02 X83.318163 Y199.638509 Z0.000000 I9.452767 J-10.614343
G01 X83.318163 Y199.638509 Z0.000000
G00 Z5.000000

(End cutting path id: path21)


(Start cutting path id: path21)
(Change tool to Cylindrical cutter)

G00 Z5.000000
G00 X117.923590 Y200.105151

G01 Z0.000000 F100.0(Penetrate)
G03 X117.740107 Y200.387387 Z0.000000 I-0.754062 J-0.289459 F400.000000
G03 X117.640820 Y200.387337 Z0.000000 I-0.049618 J-0.049715
G03 X117.593879 Y200.251995 Z0.000000 I0.115965 J-0.116032
G03 X117.689120 Y199.979051 Z0.000000 I0.664430 J0.078758
G03 X117.859792 Y199.933302 Z0.000000 I0.109629 J0.067754
G03 X117.923590 Y200.105151 Z0.000000 I-0.065696 J0.122156
G01 X117.923590 Y200.105151 Z0.000000
G00 Z5.000000

(End cutting path id: path21)


(Start cutting path id: path21)
(Change tool to Cylindrical cutter)

G00 Z5.000000
G00 X118.272100 Y202.144261

G01 Z0.000000 F100.0(Penetrate)
G01 X118.202859 Y202.144260 Z0.000000 F400.000000
G03 X118.138650 Y201.813532 Z0.000000 I0.819658 J-0.330728
G03 X118.202876 Y201.482792 Z0.000000 I0.883715 J0.000000
G01 X118.272100 Y201.482802 Z0.000000
G03 X118.336312 Y201.813531 Z0.000000 I-0.819619 J0.330729
G03 X118.272100 Y202.144261 Z0.000000 I-0.883831 J0.000000
G01 X118.272100 Y202.144261 Z0.000000
G00 Z5.000000

(End cutting path id: path21)


(Start cutting path id: path21)
(Change tool to Cylindrical cutter)

G00 Z5.000000
G00 X116.661150 Y202.282852

G01 Z0.000000 F100.0(Penetrate)
G03 X116.524976 Y202.281290 Z0.000000 I-0.067287 J-0.070448 F400.000000
G03 X116.499900 Y202.121600 Z0.000000 I0.097055 J-0.097054
G03 X116.841903 Y201.663317 Z0.000000 I1.528379 J0.783829
G03 X116.978080 Y201.664879 Z0.000000 I0.067289 J0.070451
G03 X117.003164 Y201.824570 Z0.000000 I-0.097049 J0.097060
G03 X116.661150 Y202.282852 Z0.000000 I-1.528015 J-0.783587
G01 X116.661150 Y202.282852 Z0.000000
G00 Z5.000000

(End cutting path id: path21)


(Start cutting path id: path21)
(Change tool to Cylindrical cutter)

G00 Z5.000000
G00 X118.007520 Y203.731761

G01 Z0.000000 F100.0(Penetrate)
G01 X117.938279 Y203.731760 Z0.000000 F400.000000
G03 X117.874070 Y203.401031 Z0.000000 I0.819662 J-0.330729
G03 X117.938263 Y203.070314 Z0.000000 I0.884015 J0.000000
G01 X118.007520 Y203.070302 Z0.000000
G03 X118.071732 Y203.401031 Z0.000000 I-0.819619 J0.330730
G03 X118.007520 Y203.731761 Z0.000000 I-0.883831 J-0.000000
G01 X118.007520 Y203.731761 Z0.000000
G00 Z5.000000

(End cutting path id: path21)


(Start cutting path id: path21)
(Change tool to Cylindrical cutter)

G00 Z5.000000
G00 X90.361646 Y131.449020

G01 Z0.000000 F100.0(Penetrate)
G02 X90.432263 Y131.720646 Z0.000000 I0.138101 J0.109089 F400.000000
G02 X90.839264 Y131.647320 Z0.000000 I0.146525 J-0.352911
G01 X91.462680 Y131.066520 Z0.000000
G01 X91.299493 Y131.690550 Z0.000000
G02 X91.373216 Y131.901378 Z0.000000 I0.193565 J0.050617
G02 X91.563132 Y131.887760 Z0.000000 I0.087097 J-0.116435
G02 X91.771070 Y131.450785 Z0.000000 I-0.511242 J-0.511241
G02 X91.649562 Y131.050780 Z0.000000 I-0.536710 J-0.055423
G02 X91.156361 Y130.904089 Z0.000000 I-0.356386 J0.295772
G02 X90.361647 Y131.449020 Z0.000000 I0.479800 J1.551688
G01 X90.361646 Y131.449020 Z0.000000
G00 Z5.000000

(End cutting path id: path21)


(Start cutting path id: path21)
(Change tool to Cylindrical cutter)

G00 Z5.000000
G00 X92.583482 Y131.056400

G01 Z0.000000 F100.0(Penetrate)
G02 X92.265995 Y131.510726 Z0.000000 I1.122412 J1.122447 F400.000000
G02 X92.184480 Y131.916300 Z0.000000 I0.802144 J0.372199
G02 X92.270348 Y131.963190 Z0.000000 I0.056911 J-0.002151
G02 X92.440535 Y131.765110 Z0.000000 I-0.206319 J-0.349417
G03 X92.712000 Y131.217404 Z0.000000 I3.640852 J1.463424
G03 X92.795871 Y131.169790 Z0.000000 I0.083871 J0.050061
G03 X92.845956 Y131.221981 Z0.000000 I0.000000 J0.050127
G03 X92.771341 Y131.765110 Z0.000000 I-2.877057 J-0.118560
G02 X92.852378 Y131.897354 Z0.000000 I0.107134 J0.025301
G02 X93.042203 Y131.831210 Z0.000000 I0.043839 J-0.179646
G02 X93.279214 Y131.352766 Z0.000000 I-1.055840 J-0.820968
G02 X93.205911 Y131.213300 Z0.000000 I-0.112578 J-0.029826
G03 X93.081213 Y131.081502 Z0.000000 I0.067652 J-0.188897
G03 X93.107731 Y130.882570 Z0.000000 I0.235343 J-0.069862
G02 X93.028260 Y130.781985 Z0.000000 I-0.058011 J-0.035853
G02 X92.583496 Y131.056360 Z0.000000 I0.356615 J1.075746
G01 X92.583482 Y131.056400 Z0.000000
G00 Z5.000000

(End cutting path id: path21)


(Start cutting path id: path21)
(Change tool to Cylindrical cutter)

G00 Z5.000000
G00 X68.884375 Y131.169790

G01 Z0.000000 F100.0(Penetrate)
G02 X68.959498 Y131.359253 Z0.000000 I0.276479 J-0.000000 F400.000000
G02 X69.133343 Y131.434380 Z0.000000 I0.173845 J-0.163578
G02 X69.347336 Y131.371644 Z0.000000 I-0.000000 J-0.396337
G02 X69.545833 Y131.169790 Z0.000000 I-0.344920 J-0.537707
G02 X69.529244 Y131.005626 Z0.000000 I-0.115309 J-0.071268
G02 X69.296865 Y130.905210 Z0.000000 I-0.232379 J0.218671
G02 X68.977885 Y130.998718 Z0.000000 I-0.000000 J0.590813
G02 X68.884375 Y131.169790 Z0.000000 I0.109728 J0.171072
G01 X68.884375 Y131.169790 Z0.000000
G00 Z5.000000

(End cutting path id: path21)


(Start cutting path id: path21)
(Change tool to Cylindrical cutter)

G00 Z5.000000
G00 X115.781770 Y131.080490

G01 Z0.000000 F100.0(Penetrate)
G02 X115.549330 Y131.280270 Z0.000000 I0.178829 J0.443174 F400.000000
G02 X115.451040 Y131.639340 Z0.000000 I0.606729 J0.359070
G02 X115.565142 Y131.730900 Z0.000000 I0.093787 J0.000000
G02 X115.848560 Y131.551140 Z0.000000 I-0.106918 J-0.481876
G03 X116.012119 Y131.467649 Z0.000000 I0.170426 J0.131913
G03 X116.068180 Y131.544140 Z0.000000 I0.001831 J0.057447
G02 X116.076162 Y131.819549 Z0.000000 I0.362432 J0.127316
G02 X116.199830 Y131.859260 Z0.000000 I0.078779 J-0.032915
G02 X116.604906 Y131.224322 Z0.000000 I-0.455789 J-0.737467
G02 X116.310940 Y130.926320 Z0.000000 I-0.265924 J-0.031671
G02 X116.116821 Y130.964520 Z0.000000 I0.116207 J1.102854
G02 X115.781770 Y131.080660 Z0.000000 I0.991720 J3.402355
G01 X115.781770 Y131.080490 Z0.000000
G00 Z5.000000

(End cutting path id: path21)


(Start cutting path id: path21)
(Change tool to Cylindrical cutter)

G00 Z5.000000
G00 X82.113541 Y131.643800

G01 Z0.000000 F100.0(Penetrate)
G02 X82.361853 Y132.244400 Z0.000000 I0.850501 J-0.000000 F400.000000
G02 X82.960208 Y132.492710 Z0.000000 I0.598355 J-0.596776
G02 X83.095615 Y132.286421 Z0.000000 I0.000000 J-0.147585
G02 X82.642708 Y131.760360 Z0.000000 I-1.071579 J0.464573
G02 X82.195587 Y131.577860 Z0.000000 I-0.752851 J1.205497
G02 X82.113541 Y131.643800 Z0.000000 I-0.014524 J0.065940
G01 X82.113541 Y131.643800 Z0.000000
G00 Z5.000000

(End cutting path id: path21)


(Start cutting path id: path21)
(Change tool to Cylindrical cutter)

G00 Z5.000000
G00 X87.278734 Y131.689500

G01 Z0.000000 F100.0(Penetrate)
G02 X87.247268 Y131.856438 Z0.000000 I0.201151 J0.124350 F400.000000
G02 X87.365614 Y132.164020 Z0.000000 I0.875432 J-0.160276
G02 X87.556246 Y132.232158 Z0.000000 I0.137971 J-0.085270
G02 X87.852024 Y131.997050 Z0.000000 I-0.183441 J-0.534384
G02 X87.918232 Y131.650134 Z0.000000 I-0.414558 J-0.258893
G02 X87.765144 Y131.522530 Z0.000000 I-0.153088 J0.028029
G02 X87.414562 Y131.581007 Z0.000000 I-0.000000 J1.080139
G02 X87.278731 Y131.689500 Z0.000000 I0.083789 J0.244178
G01 X87.278734 Y131.689500 Z0.000000
G00 Z5.000000

(End cutting path id: path21)


(Start cutting path id: path21)
(Change tool to Cylindrical cutter)

G00 Z5.000000
G00 X67.622032 Y132.012930

G01 Z0.000000 F100.0(Penetrate)
G02 X68.073431 Y132.476082 Z0.000000 I0.704122 J-0.234706 F400.000000
G02 X68.355208 Y132.278440 Z0.000000 I0.071574 J-0.197642
G02 X68.271932 Y132.077357 Z0.000000 I-0.284412 J0.000000
G02 X67.936225 Y131.859340 Z0.000000 I-0.680399 J0.680220
G02 X67.681723 Y131.870589 Z0.000000 I-0.114333 J0.297892
G02 X67.622032 Y132.012930 Z0.000000 I0.051479 J0.105274
G01 X67.622032 Y132.012930 Z0.000000
G00 Z5.000000

(End cutting path id: path21)


(Start cutting path id: path21)
(Change tool to Cylindrical cutter)

G00 Z5.000000
G00 X90.227431 Y132.669060

G01 Z0.000000 F100.0(Penetrate)
G02 X90.098981 Y132.865293 Z0.000000 I0.405637 J0.405679 F400.000000
G02 X90.051041 Y133.118850 Z0.000000 I0.646571 J0.253557
G02 X90.134003 Y133.191958 Z0.000000 I0.073693 J0.000000
G02 X90.364130 Y133.079150 Z0.000000 I-0.049789 J-0.392700
G02 X90.569061 Y132.766065 Z0.000000 I-0.647290 J-0.647297
G02 X90.540520 Y132.629360 Z0.000000 I-0.118699 J-0.046550
G02 X90.403808 Y132.582594 Z0.000000 I-0.116046 J0.116030
G02 X90.227431 Y132.669060 Z0.000000 I0.038223 J0.301092
G01 X90.227431 Y132.669060 Z0.000000
G00 Z5.000000

(End cutting path id: path21)


(Start cutting path id: path21)
(Change tool to Cylindrical cutter)

G00 Z5.000000
G00 X91.954705 Y133.418710

G01 Z0.000000 F100.0(Penetrate)
G02 X92.021040 Y133.748654 Z0.000000 I0.909692 J-0.011252 F400.000000
G01 X92.086478 Y133.744410 Z0.000000
G02 X92.143006 Y133.280589 Z0.000000 I-1.696966 J-0.442171
G02 X92.076678 Y132.950660 Z0.000000 I-0.909600 J0.011231
G01 X92.011235 Y132.954905 Z0.000000
G02 X91.954708 Y133.418710 Z0.000000 I1.696782 J0.442145
G01 X91.954705 Y133.418710 Z0.000000
G00 Z5.000000

(End cutting path id: path21)


(Start cutting path id: path21)
(Change tool to Cylindrical cutter)

G00 Z5.000000
G00 X92.474066 Y133.286420

G01 Z0.000000 F100.0(Penetrate)
G02 X92.538279 Y133.617151 Z0.000000 I0.883826 J0.000000 F400.000000
G01 X92.607519 Y133.617150 Z0.000000
G02 X92.671731 Y133.286420 Z0.000000 I-0.819616 J-0.330730
G02 X92.607519 Y132.955690 Z0.000000 I-0.883828 J-0.000000
G01 X92.538280 Y132.955690 Z0.000000
G02 X92.474066 Y133.286420 Z0.000000 I0.819591 J0.330730
G01 X92.474066 Y133.286420 Z0.000000
G00 Z5.000000

(End cutting path id: path21)


(Start cutting path id: path21)
(Change tool to Cylindrical cutter)

G00 Z5.000000
G00 X93.419507 Y133.572210

G01 Z0.000000 F100.0(Penetrate)
G02 X93.594000 Y133.876559 Z0.000000 I0.648426 J-0.169569 F400.000000
G02 X93.699052 Y133.851760 Z0.000000 I0.044863 J-0.044861
G02 X93.709688 Y133.529497 Z0.000000 I-0.537072 J-0.179034
G02 X93.535193 Y133.225160 Z0.000000 I-0.648353 J0.169549
G02 X93.430135 Y133.249961 Z0.000000 I-0.044865 J0.044865
G02 X93.419507 Y133.572210 Z0.000000 I0.537059 J0.179013
G01 X93.419507 Y133.572210 Z0.000000
G00 Z5.000000

(End cutting path id: path21)


(Start cutting path id: path21)
(Change tool to Cylindrical cutter)

G00 Z5.000000
G00 X140.586460 Y133.302040

G01 Z0.000000 F100.0(Penetrate)
G02 X140.670662 Y133.431199 Z0.000000 I0.141160 J0.000000 F400.000000
G02 X140.851040 Y133.418710 Z0.000000 I0.078324 J-0.177608
G02 X141.077655 Y133.234031 Z0.000000 I-0.590831 J-0.956370
G02 X141.115620 Y133.138510 Z0.000000 I-0.101185 J-0.095521
G02 X141.069556 Y133.067865 Z0.000000 I-0.077204 J0.000000
G02 X140.851040 Y133.021840 Z0.000000 I-0.218516 J0.495725
G02 X140.666162 Y133.101542 Z0.000000 I0.000000 J0.254274
G02 X140.586460 Y133.302040 Z0.000000 I0.212335 J0.200498
G01 X140.586460 Y133.302040 Z0.000000
G00 Z5.000000

(End cutting path id: path21)


(Start cutting path id: path21)
(Change tool to Cylindrical cutter)

G00 Z5.000000
G00 X82.803127 Y134.763740

G01 Z0.000000 F100.0(Penetrate)
G02 X82.814368 Y135.018218 Z0.000000 I0.297934 J0.114327 F400.000000
G02 X82.956721 Y135.077930 Z0.000000 I0.105291 J-0.051472
G02 X83.419872 Y134.626525 Z0.000000 I-0.234714 J-0.704125
G02 X83.222230 Y134.344750 Z0.000000 I-0.197642 J-0.071573
G02 X83.021146 Y134.428027 Z0.000000 I0.000000 J0.284411
G02 X82.803127 Y134.763740 Z0.000000 I0.680249 J0.680418
G01 X82.803127 Y134.763740 Z0.000000
G00 Z5.000000

(End cutting path id: path21)


(Start cutting path id: path21)
(Change tool to Cylindrical cutter)

G00 Z5.000000
G00 X81.055208 Y137.006200

G01 Z0.000000 F100.0(Penetrate)
G02 X81.139415 Y137.135368 Z0.000000 I0.141171 J0.000000 F400.000000
G02 X81.319791 Y137.122880 Z0.000000 I0.078325 J-0.177604
G02 X81.546410 Y136.938201 Z0.000000 I-0.590852 J-0.956411
G02 X81.584375 Y136.842680 Z0.000000 I-0.101182 J-0.095521
G02 X81.538311 Y136.772031 Z0.000000 I-0.077210 J0.000000
G02 X81.319791 Y136.726000 Z0.000000 I-0.218520 J0.495670
G02 X81.134911 Y136.805702 Z0.000000 I0.000000 J0.254279
G02 X81.055208 Y137.006200 Z0.000000 I0.212332 J0.200498
G01 X81.055208 Y137.006200 Z0.000000
G00 Z5.000000

(End cutting path id: path21)


(Start cutting path id: path21)
(Change tool to Cylindrical cutter)

G00 Z5.000000
G00 X120.696270 Y139.550210

G01 Z0.000000 F100.0(Penetrate)
G02 X120.850498 Y139.837091 Z0.000000 I0.554065 J-0.112970 F400.000000
G02 X120.952820 Y139.806750 Z0.000000 I0.042929 J-0.042931
G02 X120.954556 Y139.345952 Z0.000000 I-1.107756 J-0.234576
G02 X120.800380 Y139.059090 Z0.000000 I-0.554210 J0.113002
G02 X120.698107 Y139.089410 Z0.000000 I-0.042910 J0.042910
G02 X120.696270 Y139.550210 Z0.000000 I1.107232 J0.234817
G01 X120.696270 Y139.550210 Z0.000000
G00 Z5.000000

(End cutting path id: path21)


(Start cutting path id: path21)
(Change tool to Cylindrical cutter)

G00 Z5.000000
G00 X118.265780 Y139.768710

G01 Z0.000000 F100.0(Penetrate)
G02 X118.475694 Y140.081779 Z0.000000 I0.791743 J-0.303958 F400.000000
G02 X118.686740 Y140.165590 Z0.000000 I0.211046 J-0.223813
G02 X118.763950 Y140.075672 Z0.000000 I0.000000 J-0.078108
G02 X118.626040 Y139.768710 Z0.000000 I-0.622520 J0.095220
G02 X118.282273 Y139.402495 Z0.000000 I-3.167139 J2.628545
G02 X118.205070 Y139.371840 Z0.000000 I-0.077203 J0.081889
G01 X118.171070 Y139.411448 Z0.000000
G02 X118.265770 Y139.768710 Z0.000000 I1.709693 J-0.262011
G01 X118.265780 Y139.768710 Z0.000000
G00 Z5.000000

(End cutting path id: path21)


(Start cutting path id: path21)
(Change tool to Cylindrical cutter)

G00 Z5.000000
G00 X93.250033 Y140.408470

G01 Z0.000000 F100.0(Penetrate)
G03 X92.865396 Y140.544620 Z0.000000 I-0.487580 J-0.766064 F400.000000
G03 X92.456283 Y140.499070 Z0.000000 I-0.104814 J-0.918614
G02 X92.335434 Y140.548729 Z0.000000 I-0.032421 J0.092980
G02 X92.357693 Y140.700300 Z0.000000 I0.121585 J0.059564
G02 X94.819999 Y141.842853 Z0.000000 I2.623747 J-2.429889
G02 X98.477156 Y140.976800 Z0.000000 I0.309461 J-6.847931
G02 X98.422296 Y140.683788 Z0.000000 I-0.076814 J-0.137260
G02 X95.078128 Y140.497700 Z0.000000 I-2.771304 J19.660958
G03 X94.427615 Y140.460115 Z0.000000 I-0.108713 J-3.766660
G03 X94.019795 Y140.343980 Z0.000000 I0.229631 J-1.580494
G02 X93.631427 Y140.279920 Z0.000000 I-0.321201 J0.738021
G02 X93.250037 Y140.408480 Z0.000000 I0.070195 J0.838249
G01 X93.250033 Y140.408470 Z0.000000
G00 Z5.000000

(End cutting path id: path21)


(Start cutting path id: path21)
(Change tool to Cylindrical cutter)

G00 Z5.000000
G00 X118.361460 Y140.653750

G01 Z0.000000 F100.0(Penetrate)
G02 X118.426577 Y140.848421 Z0.000000 I0.323547 J0.000000 F400.000000
G02 X118.890620 Y141.356210 Z0.000000 I2.901814 J-2.185894
G02 X119.134346 Y141.321494 Z0.000000 I0.107427 J-0.118706
G02 X119.145900 Y140.941940 Z0.000000 I-0.324274 J-0.199824
G02 X118.612763 Y140.478349 Z0.000000 I-0.875621 J0.468625
G02 X118.361460 Y140.653750 Z0.000000 I-0.064440 J0.175401
G01 X118.361460 Y140.653750 Z0.000000
G00 Z5.000000

(End cutting path id: path21)


(Start cutting path id: path21)
(Change tool to Cylindrical cutter)

G00 Z5.000000
G00 X120.079780 Y141.225540

G01 Z0.000000 F100.0(Penetrate)
G02 X119.722956 Y141.753246 Z0.000000 I1.680233 J1.520630 F400.000000
G02 X119.748430 Y141.905330 Z0.000000 I0.119364 J0.058182
G02 X120.513935 Y141.973162 Z0.000000 I0.423261 J-0.423243
G02 X121.007290 Y141.027980 Z0.000000 I-0.658724 J-0.945182
G02 X120.764297 Y140.831293 Z0.000000 I-0.201099 J0.000000
G02 X120.079780 Y141.225540 Z0.000000 I0.267482 J1.255795
G01 X120.079780 Y141.225540 Z0.000000
G00 Z5.000000

(End cutting path id: path21)


(Start cutting path id: path21)
(Change tool to Cylindrical cutter)

G00 Z5.000000
G00 X120.610420 Y143.869750

G01 Z0.000000 F100.0(Penetrate)
G02 X120.795092 Y144.096372 Z0.000000 I0.956628 J-0.590990 F400.000000
G02 X120.890610 Y144.134340 Z0.000000 I0.095518 J-0.101167
G02 X120.961260 Y144.088275 Z0.000000 I0.000000 J-0.077210
G02 X121.007290 Y143.869750 Z0.000000 I-0.495703 J-0.218525
G02 X120.927588 Y143.684872 Z0.000000 I-0.254274 J0.000000
G02 X120.727090 Y143.605170 Z0.000000 I-0.200498 J0.212335
G02 X120.597929 Y143.689376 Z0.000000 I0.000000 J0.141161
G02 X120.610420 Y143.869750 Z0.000000 I0.177612 J0.078320
G01 X120.610420 Y143.869750 Z0.000000
G00 Z5.000000

(End cutting path id: path21)


(Start cutting path id: path21)
(Change tool to Cylindrical cutter)

G00 Z5.000000
G00 X92.035416 Y144.134340

G01 Z0.000000 F100.0(Penetrate)
G02 X92.048422 Y144.300500 Z0.000000 I0.120042 J0.074193 F400.000000
G02 X92.262746 Y144.398920 Z0.000000 I0.214324 J-0.184151
G03 X92.648388 Y144.432574 Z0.000000 I0.000000 J2.226382
G03 X93.138255 Y144.552810 Z0.000000 I-0.656463 J3.732591
G02 X93.217777 Y144.487694 Z0.000000 I0.018559 J-0.058450
G02 X93.109325 Y144.288230 Z0.000000 I-0.297475 J0.032527
G02 X92.385041 Y143.970833 Z0.000000 I-0.934035 J1.146332
G02 X92.035416 Y144.134340 Z0.000000 I-0.049969 J0.348704
G01 X92.035416 Y144.134340 Z0.000000
G00 Z5.000000

(End cutting path id: path21)


(Start cutting path id: path21)
(Change tool to Cylindrical cutter)

G00 Z5.000000
G00 X96.930208 Y144.222740

G01 Z0.000000 F100.0(Penetrate)
G02 X97.066496 Y144.514919 Z0.000000 I0.381336 J-0.000000 F400.000000
G02 X97.723958 Y144.888450 Z0.000000 I1.347977 J-1.607238
G02 X98.472228 Y145.101132 Z0.000000 I2.189595 J-6.280925
G01 X98.517708 Y145.064640 Z0.000000
G02 X98.479900 Y144.983590 Z0.000000 I-0.105780 J0.000000
G02 X97.723958 Y144.398930 Z0.000000 I-7.766576 J9.260854
G02 X97.072078 Y144.108909 Z0.000000 I-1.040684 J1.461521
G02 X96.930208 Y144.222740 Z0.000000 I-0.025268 J0.113831
G01 X96.930208 Y144.222740 Z0.000000
G00 Z5.000000

(End cutting path id: path21)


(Start cutting path id: path21)
(Change tool to Cylindrical cutter)

G00 Z5.000000
G00 X87.986900 Y146.555450

G01 Z0.000000 F100.0(Penetrate)
G02 X89.262136 Y147.591867 Z0.000000 I6.029342 J-6.115916 F400.000000
G02 X90.210804 Y148.033660 Z0.000000 I1.928010 J-2.900602
G02 X93.063073 Y148.508076 Z0.000000 I3.389848 J-11.568961
G02 X94.635963 Y148.231170 Z0.000000 I0.164000 J-3.674081
G03 X95.332010 Y148.112454 Z0.000000 I0.608343 J1.466928
G03 X99.443749 Y148.497030 Z0.000000 I-3.001233 J54.260852
G01 X100.502080 Y148.636770 Z0.000000
G01 X99.662441 Y148.245160 Z0.000000
G03 X98.868765 Y147.801850 Z0.000000 I2.634648 J-5.649043
G03 X98.654637 Y147.581470 Z0.000000 I0.391753 J-0.594856
G02 X98.431209 Y147.407843 Z0.000000 I-0.344758 J0.213075
G02 X97.774488 Y147.305330 Z0.000000 I-0.669397 J2.133493
G03 X97.083498 Y147.229756 Z0.000000 I0.017127 J-3.353331
G03 X96.704899 Y147.074660 Z0.000000 I0.246660 J-1.141751
G02 X96.327650 Y146.965618 Z0.000000 I-0.375811 J0.593080
G02 X95.381982 Y147.077660 Z0.000000 I0.008436 J4.118076
G03 X94.408830 Y147.256634 Z0.000000 I-2.230898 J-9.395059
G03 X92.553015 Y147.449300 Z0.000000 I-4.471829 J-34.039814
G03 X90.778267 Y147.295874 Z0.000000 I-0.419482 J-5.489036
G03 X89.510307 Y146.676440 Z0.000000 I0.850511 J-3.348417
G02 X88.284048 Y145.858447 Z0.000000 I-6.296733 J8.111330
G02 X87.562553 Y145.570420 Z0.000000 I-1.408320 J2.480111
G02 X87.424527 Y145.733066 Z0.000000 I-0.028674 J0.115555
G02 X87.986900 Y146.555830 Z0.000000 I2.386752 J-1.027807
G01 X87.986900 Y146.555450 Z0.000000
G00 Z5.000000

(End cutting path id: path21)


(Start cutting path id: path21)
(Change tool to Cylindrical cutter)

G00 Z5.000000
G00 X92.961458 Y146.175170

G01 Z0.000000 F100.0(Penetrate)
G03 X93.342041 Y146.351096 Z0.000000 I-0.928353 J2.507944 F400.000000
G03 X93.689062 Y146.583550 Z0.000000 I-1.299554 J2.315304
G02 X93.903585 Y146.605006 Z0.000000 I0.124026 J-0.156888
G02 X94.019791 Y146.415730 Z0.000000 I-0.096044 J-0.189276
G02 X93.862959 Y146.147860 Z0.000000 I-0.307178 J0.000000
G02 X93.292187 Y146.007350 Z0.000000 I-0.539162 J0.960619
G02 X92.956706 Y146.092708 Z0.000000 I0.022703 J0.791172
G01 X92.961458 Y146.175170 Z0.000000
G01 X92.961458 Y146.175170 Z0.000000
G00 Z5.000000

(End cutting path id: path21)


(Start cutting path id: path21)
(Change tool to Cylindrical cutter)

G00 Z5.000000
G00 X96.004166 Y146.251070

G01 Z0.000000 F100.0(Penetrate)
G02 X96.188857 Y146.477691 Z0.000000 I0.957611 J-0.591860 F400.000000
G02 X96.284365 Y146.515660 Z0.000000 I0.095508 J-0.101138
G02 X96.354995 Y146.469613 Z0.000000 I0.000000 J-0.077192
G02 X96.401041 Y146.251070 Z0.000000 I-0.495599 J-0.218543
G02 X96.321338 Y146.066191 Z0.000000 I-0.254275 J-0.000000
G02 X96.120842 Y145.986490 Z0.000000 I-0.200496 J0.212334
G02 X95.991678 Y146.070696 Z0.000000 I-0.000000 J0.141165
G02 X96.004166 Y146.251070 Z0.000000 I0.177609 J0.078323
G01 X96.004166 Y146.251070 Z0.000000
G00 Z5.000000

(End cutting path id: path21)


(Start cutting path id: path21)
(Change tool to Cylindrical cutter)

G00 Z5.000000
G00 X97.194791 Y146.251070

G01 Z0.000000 F100.0(Penetrate)
G02 X97.274493 Y146.435955 Z0.000000 I0.254290 J0.000000 F400.000000
G02 X97.474990 Y146.515660 Z0.000000 I0.200497 J-0.212321
G02 X97.604156 Y146.431451 Z0.000000 I0.000000 J-0.141167
G02 X97.591666 Y146.251070 Z0.000000 I-0.177620 J-0.078324
G02 X97.406975 Y146.024457 Z0.000000 I-0.957460 J0.591767
G02 X97.311467 Y145.986490 Z0.000000 I-0.095508 J0.101145
G02 X97.240838 Y146.032535 Z0.000000 I0.000000 J0.077192
G02 X97.194791 Y146.251070 Z0.000000 I0.495548 J0.218535
G01 X97.194791 Y146.251070 Z0.000000
G00 Z5.000000

(End cutting path id: path21)


(Start cutting path id: path21)
(Change tool to Cylindrical cutter)

G00 Z5.000000
G00 X105.347260 Y147.754730

G01 Z0.000000 F100.0(Penetrate)
G02 X105.677637 Y147.811328 Z0.000000 I0.297413 J-0.743532 F400.000000
G02 X105.854380 Y147.733830 Z0.000000 I-0.010926 J-0.265210
G02 X105.837486 Y147.651490 Z0.000000 I-0.035599 J-0.035599
G02 X105.507120 Y147.594870 Z0.000000 I-0.297410 J0.743202
G02 X105.330365 Y147.672384 Z0.000000 I0.010927 J0.265201
G02 X105.347260 Y147.754720 Z0.000000 I0.035596 J0.035597
G01 X105.347260 Y147.754730 Z0.000000
G00 Z5.000000

(End cutting path id: path21)


(Start cutting path id: path21)
(Change tool to Cylindrical cutter)

G00 Z5.000000
G00 X88.728124 Y148.103160

G01 Z0.000000 F100.0(Penetrate)
G02 X88.805619 Y148.290246 Z0.000000 I0.264577 J0.000000 F400.000000
G02 X88.992708 Y148.367740 Z0.000000 I0.187089 J-0.187093
G02 X89.179797 Y148.290246 Z0.000000 I0.000000 J-0.264585
G02 X89.257291 Y148.103160 Z0.000000 I-0.187083 J-0.187086
G02 X89.179798 Y147.916068 Z0.000000 I-0.264595 J-0.000000
G02 X88.992708 Y147.838570 Z0.000000 I-0.187090 J0.187080
G02 X88.805618 Y147.916068 Z0.000000 I-0.000000 J0.264580
G02 X88.728124 Y148.103160 Z0.000000 I0.187100 J0.187092
G01 X88.728124 Y148.103160 Z0.000000
G00 Z5.000000

(End cutting path id: path21)


(Start cutting path id: path21)
(Change tool to Cylindrical cutter)

G00 Z5.000000
G00 X89.521874 Y148.191460

G01 Z0.000000 F100.0(Penetrate)
G02 X90.595100 Y150.503158 Z0.000000 I3.026279 J0.000000 F400.000000
G02 X93.476279 Y151.532360 Z0.000000 I2.814357 J-3.331166
G02 X93.547919 Y151.402125 Z0.000000 I-0.001381 J-0.085582
G02 X93.226041 Y151.122990 Z0.000000 I-0.600334 J0.367111
G03 X92.368905 Y150.621569 Z0.000000 I1.608047 J-3.732128
G03 X90.910937 Y149.356450 Z0.000000 I9.314853 J-12.207436
G02 X89.592837 Y148.158359 Z0.000000 I-15.684762 J15.931751
G01 X89.521874 Y148.191460 Z0.000000
G01 X89.521874 Y148.191460 Z0.000000
G00 Z5.000000

(End cutting path id: path21)


(Start cutting path id: path21)
(Change tool to Cylindrical cutter)

G00 Z5.000000
G00 X103.414370 Y148.364690

G01 Z0.000000 F100.0(Penetrate)
G02 X103.446750 Y148.465505 Z0.000000 I0.059203 J0.036593 F400.000000
G02 X103.663340 Y148.468670 Z0.000000 I0.112245 J-0.268749
G02 X103.910142 Y148.233903 Z0.000000 I-0.158940 J-0.414197
G02 X103.824990 Y148.103140 Z0.000000 I-0.085152 J-0.037656
G02 X103.610822 Y148.165556 Z0.000000 I-0.000000 J0.398644
G02 X103.414370 Y148.364690 Z0.000000 I0.336770 J0.528705
G01 X103.414370 Y148.364690 Z0.000000
G00 Z5.000000

(End cutting path id: path21)


(Start cutting path id: path21)
(Change tool to Cylindrical cutter)

G00 Z5.000000
G00 X96.334895 Y148.542950

G01 Z0.000000 F100.0(Penetrate)
G02 X96.665624 Y148.607162 Z0.000000 I0.330729 J-0.819618 F400.000000
G02 X96.996353 Y148.542950 Z0.000000 I0.000000 J-0.883830
G01 X96.996354 Y148.473705 Z0.000000
G02 X96.665624 Y148.409490 Z0.000000 I-0.330730 J0.819578
G02 X96.334885 Y148.473718 Z0.000000 I0.000000 J0.883668
G01 X96.334895 Y148.542950 Z0.000000
G01 X96.334895 Y148.542950 Z0.000000
G00 Z5.000000

(End cutting path id: path21)


(Start cutting path id: path21)
(Change tool to Cylindrical cutter)

G00 Z5.000000
G00 X95.760254 Y150.549520

G01 Z0.000000 F100.0(Penetrate)
G02 X96.353029 Y151.383876 Z0.000000 I1.597038 J-0.506880 F400.000000
G02 X97.640643 Y151.957480 Z0.000000 I1.904902 J-2.544075
G02 X98.060050 Y151.725759 Z0.000000 I0.072212 J-0.364715
G02 X97.873447 Y151.349720 Z0.000000 I-0.266488 J-0.102079
G03 X96.748496 Y150.843436 Z0.000000 I1.244563 J-4.268340
G03 X96.473391 Y150.467900 Z0.000000 I0.337417 J-0.535714
G02 X96.246816 Y150.075033 Z0.000000 I-0.830474 J0.217183
G02 X95.955477 Y149.955220 Z0.000000 I-0.291339 J0.294307
G02 X95.762540 Y150.094922 Z0.000000 I0.000000 J0.203080
G02 X95.760254 Y150.549520 Z0.000000 I0.702725 J0.230839
G01 X95.760254 Y150.549520 Z0.000000
G00 Z5.000000

(End cutting path id: path21)


(Start cutting path id: path21)
(Change tool to Cylindrical cutter)

G00 Z5.000000
G00 X86.876041 Y151.145840

G01 Z0.000000 F100.0(Penetrate)
G02 X86.966407 Y151.452359 Z0.000000 I0.565034 J0.000000 F400.000000
G02 X87.132322 Y151.542720 Z0.000000 I0.165915 J-0.107140
G02 X87.253048 Y151.449551 Z0.000000 I0.000000 J-0.124801
G02 X87.236306 Y151.145840 Z0.000000 I-0.480283 J-0.125841
G02 X87.055687 Y150.790177 Z0.000000 I-1.802385 J0.691625
G02 X86.980025 Y150.748970 Z0.000000 I-0.075662 J0.048860
G02 X86.921336 Y150.794263 Z0.000000 I-0.000000 J0.060670
G02 X86.876041 Y151.145840 Z0.000000 I1.341815 J0.351577
G01 X86.876041 Y151.145840 Z0.000000
G00 Z5.000000

